; Laser Vector Engraving G-code
; Generated: 2025-11-17 23:50:48 UTC
; Input file: assets/svg/tigershead.svg
; File type: SVG
; Feed rate: 600 mm/min
; Travel rate: 3000 mm/min
; Cut power: 100%
; Engrave power: 50%
; Number of paths: 37
; Estimated time: 2758.6 seconds
;
G21 ; Set units to millimeters
G90 ; Absolute positioning
G17 ; XY plane selection

; Home and set work coordinate system
$H ; Home all axes (bottom-left corner)
G10 L2 P1 X0 Y0 Z0 ; Clear G54 offset
G54 ; Select work coordinate system 1
G0 X10.0 Y10.0 ; Move to work origin
G10 L20 P1 X0 Y0 Z0 ; Set current position as work zero
G0 Z5.00 F3000 ; Move to safe height

M5 ; Laser off

G0 X11.718 Y0.041 ; Move to path start
G1 F600 M3 S1000 ; Enable laser at power level
G1 X11.545 Y0.071
G1 X11.376 Y0.102
G1 X11.210 Y0.134
G1 X11.048 Y0.168
G1 X10.890 Y0.202
G1 X10.734 Y0.238
G1 X10.582 Y0.275
G1 X10.434 Y0.313
G1 X10.288 Y0.352
G1 X10.146 Y0.393
G1 X10.006 Y0.436
G1 X9.869 Y0.480
G1 X9.735 Y0.525
G1 X9.603 Y0.573
G1 X9.474 Y0.622
G1 X9.347 Y0.672
G1 X9.223 Y0.725
G1 X9.101 Y0.779
G1 X8.981 Y0.836
G1 X8.863 Y0.894
G1 X8.747 Y0.955
G1 X8.633 Y1.017
G1 X8.521 Y1.082
G1 X8.410 Y1.149
G1 X8.301 Y1.218
G1 X8.193 Y1.289
G1 X8.087 Y1.363
G1 X7.982 Y1.440
G1 X7.878 Y1.519
G1 X7.776 Y1.600
G1 X7.674 Y1.684
G1 X7.573 Y1.771
G1 X7.473 Y1.861
G1 X7.374 Y1.953
G1 X7.276 Y2.048
G1 X7.178 Y2.146
G1 X7.080 Y2.247
G1 X6.983 Y2.351
G1 X6.886 Y2.458
G1 X6.789 Y2.569
G1 X6.692 Y2.682
G1 X6.595 Y2.799
G1 X6.498 Y2.919
G1 X6.401 Y3.042
G1 X6.303 Y3.169
G1 X6.205 Y3.300
G1 X6.107 Y3.433
G1 X5.981 Y3.608
G1 X5.857 Y3.785
G1 X5.735 Y3.965
G1 X5.616 Y4.147
G1 X5.498 Y4.331
G1 X5.383 Y4.517
G1 X5.270 Y4.705
G1 X5.159 Y4.896
G1 X5.050 Y5.088
G1 X4.944 Y5.282
G1 X4.840 Y5.477
G1 X4.738 Y5.675
G1 X4.639 Y5.873
G1 X4.542 Y6.073
G1 X4.448 Y6.275
G1 X4.356 Y6.477
G1 X4.266 Y6.681
G1 X4.179 Y6.886
G1 X4.095 Y7.092
G1 X4.013 Y7.299
G1 X3.934 Y7.506
G1 X3.857 Y7.714
G1 X3.784 Y7.923
G1 X3.712 Y8.132
G1 X3.644 Y8.342
G1 X3.578 Y8.552
G1 X3.515 Y8.762
G1 X3.455 Y8.973
G1 X3.398 Y9.183
G1 X3.343 Y9.393
G1 X3.292 Y9.604
G1 X3.243 Y9.814
G1 X3.198 Y10.024
G1 X3.155 Y10.233
G1 X3.115 Y10.442
G1 X3.079 Y10.650
G1 X3.045 Y10.858
G1 X3.014 Y11.064
G1 X2.987 Y11.270
G1 X2.963 Y11.475
G1 X2.942 Y11.679
G1 X2.924 Y11.882
G1 X2.909 Y12.084
G1 X2.898 Y12.284
G1 X2.890 Y12.483
G1 X2.885 Y12.680
G1 X2.884 Y12.876
G1 X2.886 Y13.070
G1 X2.892 Y13.263
G1 X2.901 Y13.453
G1 X2.914 Y13.657
G1 X2.931 Y13.859
G1 X2.951 Y14.059
G1 X2.975 Y14.257
G1 X3.003 Y14.453
G1 X3.034 Y14.648
G1 X3.068 Y14.840
G1 X3.107 Y15.031
G1 X3.148 Y15.221
G1 X3.194 Y15.408
G1 X3.243 Y15.594
G1 X3.296 Y15.779
G1 X3.352 Y15.962
G1 X3.412 Y16.143
G1 X3.476 Y16.323
G1 X3.544 Y16.501
G1 X3.615 Y16.678
G1 X3.690 Y16.854
G1 X3.770 Y17.028
G1 X3.852 Y17.201
G1 X3.939 Y17.373
G1 X4.030 Y17.543
G1 X4.125 Y17.713
G1 X4.223 Y17.881
G1 X4.325 Y18.047
G1 X4.432 Y18.213
G1 X4.542 Y18.378
G1 X4.657 Y18.541
G1 X4.775 Y18.704
G1 X4.898 Y18.865
G1 X5.024 Y19.026
G1 X5.155 Y19.185
G1 X5.290 Y19.344
G1 X5.429 Y19.502
G1 X5.572 Y19.659
G1 X5.719 Y19.815
G1 X5.871 Y19.970
G1 X6.026 Y20.125
G1 X6.186 Y20.279
G1 X6.351 Y20.432
G1 X6.519 Y20.585
G1 X6.692 Y20.737
G1 X6.869 Y20.888
G1 X7.051 Y21.039
G1 X7.236 Y21.190
G1 X7.427 Y21.340
G1 X7.621 Y21.489
G1 X7.820 Y21.638
G1 X8.024 Y21.787
G1 X8.232 Y21.935
G1 X8.291 Y21.976
G1 X8.350 Y22.018
G1 X8.410 Y22.060
G1 X8.471 Y22.103
G1 X8.532 Y22.146
G1 X8.594 Y22.190
G1 X8.656 Y22.233
G1 X8.718 Y22.277
G1 X8.780 Y22.321
G1 X8.843 Y22.366
G1 X8.905 Y22.410
G1 X8.968 Y22.454
G1 X9.030 Y22.498
G1 X9.092 Y22.542
G1 X9.154 Y22.586
G1 X9.216 Y22.630
G1 X9.277 Y22.673
G1 X9.337 Y22.716
G1 X9.397 Y22.758
G1 X9.456 Y22.800
G1 X9.514 Y22.841
G1 X9.571 Y22.882
G1 X9.627 Y22.921
G1 X9.682 Y22.960
G1 X9.736 Y22.999
G1 X9.789 Y23.036
G1 X9.841 Y23.073
G1 X9.891 Y23.108
G1 X9.939 Y23.142
G1 X9.986 Y23.175
G1 X10.032 Y23.207
G1 X10.075 Y23.238
G1 X10.117 Y23.268
G1 X10.157 Y23.296
G1 X10.195 Y23.322
G1 X10.230 Y23.347
G1 X10.264 Y23.371
G1 X10.342 Y23.427
G1 X10.420 Y23.483
G1 X10.497 Y23.540
G1 X10.573 Y23.597
G1 X10.649 Y23.654
G1 X10.723 Y23.711
G1 X10.797 Y23.769
G1 X10.870 Y23.827
G1 X10.942 Y23.884
G1 X11.013 Y23.942
G1 X11.083 Y24.000
G1 X11.152 Y24.058
G1 X11.220 Y24.115
G1 X11.287 Y24.173
G1 X11.353 Y24.231
G1 X11.417 Y24.288
G1 X11.480 Y24.345
G1 X11.543 Y24.402
G1 X11.603 Y24.459
G1 X11.663 Y24.515
G1 X11.721 Y24.571
G1 X11.778 Y24.626
G1 X11.833 Y24.682
G1 X11.887 Y24.736
G1 X11.939 Y24.791
G1 X11.990 Y24.844
G1 X12.039 Y24.898
G1 X12.087 Y24.950
G1 X12.133 Y25.002
G1 X12.177 Y25.053
G1 X12.220 Y25.104
G1 X12.261 Y25.154
G1 X12.300 Y25.203
G1 X12.337 Y25.251
G1 X12.373 Y25.299
G1 X12.406 Y25.346
G1 X12.438 Y25.391
G1 X12.467 Y25.436
G1 X12.495 Y25.480
G1 X12.521 Y25.523
G1 X12.544 Y25.565
G1 X12.566 Y25.605
G1 X12.585 Y25.645
G1 X12.619 Y25.722
G1 X12.653 Y25.803
G1 X12.687 Y25.888
G1 X12.720 Y25.976
G1 X12.752 Y26.068
G1 X12.785 Y26.164
G1 X12.816 Y26.262
G1 X12.847 Y26.363
G1 X12.877 Y26.467
G1 X12.907 Y26.574
G1 X12.935 Y26.682
G1 X12.964 Y26.793
G1 X12.991 Y26.906
G1 X13.017 Y27.021
G1 X13.042 Y27.137
G1 X13.067 Y27.254
G1 X13.091 Y27.373
G1 X13.113 Y27.492
G1 X13.134 Y27.612
G1 X13.155 Y27.733
G1 X13.174 Y27.854
G1 X13.192 Y27.976
G1 X13.209 Y28.097
G1 X13.225 Y28.218
G1 X13.239 Y28.339
G1 X13.252 Y28.459
G1 X13.263 Y28.578
G1 X13.274 Y28.696
G1 X13.282 Y28.813
G1 X13.289 Y28.929
G1 X13.295 Y29.043
G1 X13.299 Y29.155
G1 X13.302 Y29.265
G1 X13.303 Y29.373
G1 X13.303 Y29.432
G1 X13.303 Y29.488
G1 X13.304 Y29.542
G1 X13.305 Y29.593
G1 X13.305 Y29.642
G1 X13.305 Y29.689
G1 X13.304 Y29.735
G1 X13.302 Y29.780
G1 X13.299 Y29.823
G1 X13.295 Y29.866
G1 X13.289 Y29.909
G1 X13.281 Y29.951
G1 X13.272 Y29.994
G1 X13.260 Y30.037
G1 X13.246 Y30.080
G1 X13.230 Y30.125
G1 X13.211 Y30.171
G1 X13.189 Y30.218
G1 X13.164 Y30.266
G1 X13.135 Y30.317
G1 X13.103 Y30.370
G1 X13.067 Y30.426
G1 X13.028 Y30.484
G1 X12.984 Y30.546
G1 X12.936 Y30.611
G1 X12.883 Y30.679
G1 X12.825 Y30.751
G1 X12.763 Y30.828
G1 X12.695 Y30.908
G1 X12.622 Y30.994
G1 X12.543 Y31.084
G1 X12.459 Y31.180
G1 X12.369 Y31.281
G1 X12.272 Y31.388
G1 X12.169 Y31.501
G1 X12.060 Y31.620
G1 X11.944 Y31.746
G1 X11.821 Y31.878
G1 X11.690 Y32.018
G1 X11.552 Y32.165
G1 X11.407 Y32.320
G1 X11.254 Y32.482
G1 X11.093 Y32.653
G1 X10.923 Y32.832
G1 X10.745 Y33.020
G1 X10.559 Y33.217
G1 X10.364 Y33.423
G1 X10.160 Y33.638
G1 X9.946 Y33.863
G1 X9.723 Y34.099
G1 X9.603 Y34.226
G1 X9.485 Y34.351
G1 X9.368 Y34.476
G1 X9.253 Y34.599
G1 X9.140 Y34.721
G1 X9.027 Y34.842
G1 X8.917 Y34.963
G1 X8.807 Y35.082
G1 X8.699 Y35.200
G1 X8.592 Y35.317
G1 X8.487 Y35.434
G1 X8.383 Y35.550
G1 X8.280 Y35.665
G1 X8.178 Y35.780
G1 X8.077 Y35.894
G1 X7.977 Y36.007
G1 X7.879 Y36.120
G1 X7.781 Y36.233
G1 X7.684 Y36.345
G1 X7.588 Y36.457
G1 X7.493 Y36.568
G1 X7.399 Y36.680
G1 X7.305 Y36.791
G1 X7.213 Y36.902
G1 X7.121 Y37.013
G1 X7.029 Y37.124
G1 X6.938 Y37.235
G1 X6.848 Y37.345
G1 X6.758 Y37.457
G1 X6.669 Y37.568
G1 X6.580 Y37.679
G1 X6.492 Y37.791
G1 X6.404 Y37.903
G1 X6.316 Y38.015
G1 X6.229 Y38.128
G1 X6.142 Y38.242
G1 X6.055 Y38.355
G1 X5.968 Y38.470
G1 X5.881 Y38.585
G1 X5.795 Y38.700
G1 X5.708 Y38.817
G1 X5.621 Y38.934
G1 X5.535 Y39.052
G1 X5.448 Y39.171
G1 X5.361 Y39.291
G1 X5.274 Y39.412
G1 X5.187 Y39.534
G1 X5.099 Y39.656
G1 X5.011 Y39.780
G1 X4.923 Y39.906
G1 X4.869 Y39.984
G1 X4.816 Y40.058
G1 X4.767 Y40.130
G1 X4.720 Y40.198
G1 X4.675 Y40.263
G1 X4.633 Y40.325
G1 X4.593 Y40.385
G1 X4.555 Y40.441
G1 X4.519 Y40.495
G1 X4.486 Y40.546
G1 X4.455 Y40.594
G1 X4.427 Y40.640
G1 X4.400 Y40.683
G1 X4.375 Y40.724
G1 X4.353 Y40.762
G1 X4.332 Y40.798
G1 X4.314 Y40.832
G1 X4.298 Y40.864
G1 X4.283 Y40.893
G1 X4.270 Y40.921
G1 X4.259 Y40.946
G1 X4.250 Y40.970
G1 X4.243 Y40.992
G1 X4.238 Y41.012
G1 X4.234 Y41.030
G1 X4.232 Y41.047
G1 X4.231 Y41.062
G1 X4.232 Y41.076
G1 X4.235 Y41.088
G1 X4.239 Y41.099
G1 X4.245 Y41.109
G1 X4.252 Y41.117
G1 X4.264 Y41.127
G1 X4.280 Y41.137
G1 X4.301 Y41.146
G1 X4.325 Y41.154
G1 X4.353 Y41.162
G1 X4.385 Y41.170
G1 X4.421 Y41.177
G1 X4.460 Y41.184
G1 X4.504 Y41.190
G1 X4.551 Y41.196
G1 X4.602 Y41.201
G1 X4.656 Y41.206
G1 X4.714 Y41.211
G1 X4.776 Y41.214
G1 X4.842 Y41.218
G1 X4.911 Y41.221
G1 X4.984 Y41.223
G1 X5.060 Y41.226
G1 X5.139 Y41.227
G1 X5.222 Y41.228
G1 X5.309 Y41.229
G1 X5.399 Y41.229
G1 X5.518 Y41.230
G1 X5.631 Y41.230
G1 X5.735 Y41.232
G1 X5.833 Y41.235
G1 X5.922 Y41.238
G1 X6.005 Y41.242
G1 X6.081 Y41.247
G1 X6.150 Y41.254
G1 X6.212 Y41.261
G1 X6.267 Y41.270
G1 X6.316 Y41.280
G1 X6.358 Y41.292
G1 X6.395 Y41.305
G1 X6.425 Y41.319
G1 X6.449 Y41.335
G1 X6.468 Y41.353
G1 X6.480 Y41.372
G1 X6.488 Y41.394
G1 X6.489 Y41.417
G1 X6.486 Y41.442
G1 X6.477 Y41.469
G1 X6.464 Y41.498
G1 X6.445 Y41.530
G1 X6.422 Y41.564
G1 X6.394 Y41.600
G1 X6.362 Y41.639
G1 X6.325 Y41.680
G1 X6.284 Y41.723
G1 X6.213 Y41.802
G1 X6.139 Y41.888
G1 X6.063 Y41.981
G1 X5.984 Y42.080
G1 X5.903 Y42.185
G1 X5.820 Y42.296
G1 X5.735 Y42.414
G1 X5.648 Y42.536
G1 X5.559 Y42.665
G1 X5.468 Y42.798
G1 X5.376 Y42.937
G1 X5.283 Y43.080
G1 X5.188 Y43.228
G1 X5.092 Y43.380
G1 X4.995 Y43.537
G1 X4.896 Y43.697
G1 X4.797 Y43.861
G1 X4.697 Y44.029
G1 X4.597 Y44.200
G1 X4.495 Y44.375
G1 X4.394 Y44.552
G1 X4.292 Y44.732
G1 X4.190 Y44.914
G1 X4.088 Y45.099
G1 X3.985 Y45.286
G1 X3.883 Y45.475
G1 X3.781 Y45.665
G1 X3.680 Y45.857
G1 X3.579 Y46.051
G1 X3.478 Y46.245
G1 X3.378 Y46.440
G1 X3.279 Y46.636
G1 X3.181 Y46.833
G1 X3.084 Y47.029
G1 X2.988 Y47.226
G1 X2.894 Y47.422
G1 X2.800 Y47.618
G1 X2.708 Y47.814
G1 X2.618 Y48.008
G1 X2.530 Y48.202
G1 X2.443 Y48.394
G1 X2.358 Y48.585
G1 X2.276 Y48.775
G1 X2.195 Y48.962
G1 X2.117 Y49.148
G1 X2.041 Y49.331
G1 X1.967 Y49.512
G1 X1.897 Y49.690
G1 X1.829 Y49.865
G1 X1.763 Y50.037
G1 X1.698 Y50.214
G1 X1.634 Y50.389
G1 X1.571 Y50.561
G1 X1.510 Y50.730
G1 X1.451 Y50.897
G1 X1.393 Y51.062
G1 X1.336 Y51.224
G1 X1.281 Y51.385
G1 X1.227 Y51.543
G1 X1.175 Y51.700
G1 X1.124 Y51.854
G1 X1.074 Y52.007
G1 X1.026 Y52.158
G1 X0.979 Y52.307
G1 X0.933 Y52.455
G1 X0.889 Y52.601
G1 X0.846 Y52.746
G1 X0.804 Y52.890
G1 X0.763 Y53.032
G1 X0.724 Y53.173
G1 X0.685 Y53.313
G1 X0.648 Y53.452
G1 X0.612 Y53.590
G1 X0.577 Y53.727
G1 X0.544 Y53.864
G1 X0.511 Y53.999
G1 X0.479 Y54.134
G1 X0.448 Y54.269
G1 X0.419 Y54.403
G1 X0.390 Y54.536
G1 X0.362 Y54.670
G1 X0.336 Y54.803
G1 X0.310 Y54.936
G1 X0.285 Y55.068
G1 X0.261 Y55.201
G1 X0.238 Y55.334
G1 X0.215 Y55.467
G1 X0.194 Y55.600
G1 X0.173 Y55.734
G1 X0.153 Y55.868
G1 X0.134 Y56.002
G1 X0.116 Y56.137
G1 X0.098 Y56.273
G1 X0.081 Y56.409
G1 X0.065 Y56.546
G1 X0.050 Y56.684
G1 X0.035 Y56.823
G1 X0.020 Y56.963
G1 X0.011 Y57.065
G1 X0.003 Y57.158
G1 X-0.001 Y57.243
G1 X-0.003 Y57.319
G1 X-0.001 Y57.388
G1 X0.004 Y57.448
G1 X0.013 Y57.501
G1 X0.025 Y57.546
G1 X0.040 Y57.584
G1 X0.060 Y57.614
G1 X0.084 Y57.637
G1 X0.112 Y57.654
G1 X0.144 Y57.664
G1 X0.181 Y57.667
G1 X0.222 Y57.664
G1 X0.269 Y57.655
G1 X0.320 Y57.639
G1 X0.376 Y57.618
G1 X0.438 Y57.592
G1 X0.505 Y57.559
G1 X0.543 Y57.542
G1 X0.585 Y57.523
G1 X0.631 Y57.505
G1 X0.680 Y57.485
G1 X0.732 Y57.466
G1 X0.787 Y57.447
G1 X0.844 Y57.427
G1 X0.903 Y57.408
G1 X0.964 Y57.388
G1 X1.027 Y57.369
G1 X1.090 Y57.350
G1 X1.155 Y57.331
G1 X1.219 Y57.313
G1 X1.284 Y57.295
G1 X1.349 Y57.278
G1 X1.413 Y57.261
G1 X1.476 Y57.245
G1 X1.538 Y57.230
G1 X1.598 Y57.216
G1 X1.656 Y57.203
G1 X1.712 Y57.192
G1 X1.766 Y57.181
G1 X1.817 Y57.171
G1 X1.864 Y57.163
G1 X1.908 Y57.157
G1 X1.948 Y57.152
G1 X1.984 Y57.148
G1 X2.016 Y57.147
G1 X2.042 Y57.147
G1 X2.064 Y57.149
G1 X2.080 Y57.153
G1 X2.090 Y57.158
G1 X2.095 Y57.166
G1 X2.099 Y57.178
G1 X2.101 Y57.192
G1 X2.102 Y57.209
G1 X2.102 Y57.229
G1 X2.100 Y57.252
G1 X2.097 Y57.277
G1 X2.093 Y57.304
G1 X2.087 Y57.333
G1 X2.081 Y57.364
G1 X2.073 Y57.397
G1 X2.063 Y57.432
G1 X2.053 Y57.468
G1 X2.042 Y57.505
G1 X2.030 Y57.543
G1 X2.016 Y57.582
G1 X2.002 Y57.622
G1 X1.987 Y57.662
G1 X1.933 Y57.804
G1 X1.881 Y57.941
G1 X1.830 Y58.076
G1 X1.782 Y58.206
G1 X1.735 Y58.333
G1 X1.690 Y58.457
G1 X1.646 Y58.578
G1 X1.604 Y58.696
G1 X1.564 Y58.811
G1 X1.525 Y58.924
G1 X1.487 Y59.035
G1 X1.451 Y59.143
G1 X1.416 Y59.250
G1 X1.383 Y59.354
G1 X1.350 Y59.457
G1 X1.319 Y59.559
G1 X1.289 Y59.659
G1 X1.260 Y59.758
G1 X1.231 Y59.857
G1 X1.204 Y59.954
G1 X1.178 Y60.052
G1 X1.152 Y60.148
G1 X1.127 Y60.245
G1 X1.103 Y60.342
G1 X1.080 Y60.438
G1 X1.057 Y60.535
G1 X1.035 Y60.633
G1 X1.013 Y60.732
G1 X0.991 Y60.831
G1 X0.970 Y60.931
G1 X0.949 Y61.033
G1 X0.929 Y61.136
G1 X0.909 Y61.241
G1 X0.889 Y61.347
G1 X0.869 Y61.455
G1 X0.858 Y61.516
G1 X0.846 Y61.577
G1 X0.835 Y61.640
G1 X0.824 Y61.703
G1 X0.812 Y61.767
G1 X0.800 Y61.831
G1 X0.789 Y61.896
G1 X0.777 Y61.960
G1 X0.765 Y62.024
G1 X0.754 Y62.088
G1 X0.743 Y62.150
G1 X0.731 Y62.212
G1 X0.720 Y62.272
G1 X0.709 Y62.331
G1 X0.699 Y62.389
G1 X0.688 Y62.444
G1 X0.678 Y62.498
G1 X0.669 Y62.549
G1 X0.659 Y62.597
G1 X0.650 Y62.642
G1 X0.642 Y62.685
G1 X0.634 Y62.724
G1 X0.626 Y62.760
G1 X0.608 Y62.861
G1 X0.591 Y62.964
G1 X0.574 Y63.070
G1 X0.557 Y63.179
G1 X0.541 Y63.290
G1 X0.526 Y63.403
G1 X0.511 Y63.519
G1 X0.496 Y63.638
G1 X0.482 Y63.758
G1 X0.468 Y63.881
G1 X0.455 Y64.007
G1 X0.442 Y64.134
G1 X0.430 Y64.264
G1 X0.418 Y64.396
G1 X0.407 Y64.531
G1 X0.396 Y64.667
G1 X0.386 Y64.806
G1 X0.377 Y64.947
G1 X0.368 Y65.090
G1 X0.359 Y65.235
G1 X0.351 Y65.382
G1 X0.344 Y65.531
G1 X0.337 Y65.682
G1 X0.331 Y65.835
G1 X0.325 Y65.990
G1 X0.320 Y66.147
G1 X0.315 Y66.306
G1 X0.311 Y66.467
G1 X0.308 Y66.629
G1 X0.305 Y66.793
G1 X0.303 Y66.959
G1 X0.301 Y67.127
G1 X0.300 Y67.296
G1 X0.300 Y67.467
G1 X0.302 Y67.806
G1 X0.307 Y68.140
G1 X0.315 Y68.472
G1 X0.326 Y68.800
G1 X0.339 Y69.125
G1 X0.356 Y69.447
G1 X0.376 Y69.766
G1 X0.399 Y70.082
G1 X0.425 Y70.394
G1 X0.454 Y70.705
G1 X0.486 Y71.012
G1 X0.521 Y71.317
G1 X0.560 Y71.619
G1 X0.601 Y71.918
G1 X0.646 Y72.215
G1 X0.694 Y72.510
G1 X0.746 Y72.802
G1 X0.800 Y73.093
G1 X0.858 Y73.381
G1 X0.919 Y73.667
G1 X0.984 Y73.951
G1 X1.052 Y74.233
G1 X1.123 Y74.513
G1 X1.198 Y74.792
G1 X1.276 Y75.068
G1 X1.358 Y75.344
G1 X1.443 Y75.617
G1 X1.532 Y75.889
G1 X1.624 Y76.160
G1 X1.720 Y76.430
G1 X1.820 Y76.698
G1 X1.923 Y76.965
G1 X2.029 Y77.231
G1 X2.139 Y77.496
G1 X2.253 Y77.760
G1 X2.371 Y78.024
G1 X2.492 Y78.286
G1 X2.618 Y78.548
G1 X2.746 Y78.809
G1 X2.879 Y79.070
G1 X3.016 Y79.330
G1 X3.156 Y79.590
G1 X3.300 Y79.849
G1 X3.448 Y80.108
G1 X3.600 Y80.367
G1 X3.756 Y80.626
G1 X3.916 Y80.885
G1 X4.080 Y81.144
G1 X4.248 Y81.403
G1 X4.420 Y81.663
G1 X4.518 Y81.810
G1 X4.612 Y81.952
G1 X4.703 Y82.086
G1 X4.789 Y82.215
G1 X4.871 Y82.337
G1 X4.949 Y82.453
G1 X5.024 Y82.563
G1 X5.096 Y82.668
G1 X5.164 Y82.766
G1 X5.229 Y82.860
G1 X5.291 Y82.947
G1 X5.350 Y83.030
G1 X5.407 Y83.107
G1 X5.461 Y83.179
G1 X5.513 Y83.247
G1 X5.563 Y83.309
G1 X5.610 Y83.367
G1 X5.656 Y83.420
G1 X5.700 Y83.469
G1 X5.742 Y83.514
G1 X5.783 Y83.554
G1 X5.822 Y83.591
G1 X5.860 Y83.623
G1 X5.897 Y83.652
G1 X5.934 Y83.677
G1 X5.969 Y83.698
G1 X6.004 Y83.716
G1 X6.039 Y83.731
G1 X6.073 Y83.743
G1 X6.107 Y83.751
G1 X6.141 Y83.757
G1 X6.176 Y83.760
G1 X6.210 Y83.760
G1 X6.245 Y83.758
G1 X6.281 Y83.753
G1 X6.317 Y83.746
G1 X6.355 Y83.737
G1 X6.393 Y83.726
G1 X6.433 Y83.713
G1 X6.474 Y83.698
G1 X6.516 Y83.681
G1 X6.560 Y83.663
G1 X6.606 Y83.644
G1 X6.654 Y83.623
G1 X6.703 Y83.602
G1 X6.727 Y83.592
G1 X6.753 Y83.581
G1 X6.783 Y83.569
G1 X6.816 Y83.557
G1 X6.851 Y83.543
G1 X6.890 Y83.528
G1 X6.931 Y83.512
G1 X6.975 Y83.496
G1 X7.021 Y83.479
G1 X7.069 Y83.461
G1 X7.120 Y83.442
G1 X7.172 Y83.422
G1 X7.227 Y83.402
G1 X7.283 Y83.382
G1 X7.341 Y83.361
G1 X7.401 Y83.339
G1 X7.462 Y83.317
G1 X7.525 Y83.294
G1 X7.589 Y83.272
G1 X7.654 Y83.248
G1 X7.720 Y83.225
G1 X7.787 Y83.201
G1 X7.854 Y83.178
G1 X7.923 Y83.154
G1 X7.991 Y83.130
G1 X8.061 Y83.106
G1 X8.130 Y83.082
G1 X8.200 Y83.058
G1 X8.270 Y83.034
G1 X8.340 Y83.010
G1 X8.409 Y82.986
G1 X8.570 Y82.931
G1 X8.723 Y82.879
G1 X8.868 Y82.829
G1 X9.005 Y82.781
G1 X9.135 Y82.736
G1 X9.258 Y82.693
G1 X9.373 Y82.652
G1 X9.481 Y82.613
G1 X9.583 Y82.575
G1 X9.678 Y82.540
G1 X9.766 Y82.506
G1 X9.849 Y82.473
G1 X9.925 Y82.442
G1 X9.995 Y82.413
G1 X10.060 Y82.384
G1 X10.119 Y82.356
G1 X10.172 Y82.329
G1 X10.221 Y82.303
G1 X10.264 Y82.277
G1 X10.302 Y82.252
G1 X10.336 Y82.228
G1 X10.366 Y82.203
G1 X10.391 Y82.179
G1 X10.412 Y82.155
G1 X10.429 Y82.131
G1 X10.442 Y82.106
G1 X10.451 Y82.081
G1 X10.458 Y82.056
G1 X10.461 Y82.030
G1 X10.460 Y82.003
G1 X10.457 Y81.976
G1 X10.452 Y81.948
G1 X10.443 Y81.918
G1 X10.433 Y81.887
G1 X10.420 Y81.856
G1 X10.405 Y81.822
G1 X10.388 Y81.787
G1 X10.370 Y81.751
G1 X10.350 Y81.712
G1 X10.329 Y81.672
G1 X10.297 Y81.608
G1 X10.263 Y81.540
G1 X10.229 Y81.468
G1 X10.194 Y81.393
G1 X10.159 Y81.315
G1 X10.122 Y81.235
G1 X10.085 Y81.151
G1 X10.048 Y81.065
G1 X10.010 Y80.977
G1 X9.972 Y80.886
G1 X9.933 Y80.793
G1 X9.894 Y80.699
G1 X9.855 Y80.603
G1 X9.816 Y80.505
G1 X9.777 Y80.406
G1 X9.737 Y80.306
G1 X9.698 Y80.206
G1 X9.659 Y80.104
G1 X9.621 Y80.002
G1 X9.582 Y79.899
G1 X9.544 Y79.796
G1 X9.506 Y79.693
G1 X9.469 Y79.591
G1 X9.432 Y79.488
G1 X9.396 Y79.387
G1 X9.361 Y79.285
G1 X9.326 Y79.185
G1 X9.292 Y79.086
G1 X9.259 Y78.988
G1 X9.227 Y78.891
G1 X9.196 Y78.796
G1 X9.166 Y78.703
G1 X9.137 Y78.611
G1 X9.110 Y78.522
G1 X9.083 Y78.435
G1 X9.058 Y78.351
G1 X9.035 Y78.269
G1 X9.013 Y78.190
G1 X8.992 Y78.114
G1 X8.973 Y78.042
G1 X8.956 Y77.972
G1 X8.940 Y77.907
G1 X8.922 Y77.829
G1 X8.903 Y77.750
G1 X8.884 Y77.670
G1 X8.866 Y77.588
G1 X8.847 Y77.505
G1 X8.829 Y77.421
G1 X8.810 Y77.336
G1 X8.792 Y77.251
G1 X8.774 Y77.165
G1 X8.756 Y77.079
G1 X8.739 Y76.993
G1 X8.722 Y76.906
G1 X8.705 Y76.821
G1 X8.689 Y76.735
G1 X8.672 Y76.651
G1 X8.657 Y76.567
G1 X8.642 Y76.484
G1 X8.627 Y76.402
G1 X8.613 Y76.322
G1 X8.599 Y76.243
G1 X8.586 Y76.165
G1 X8.574 Y76.090
G1 X8.562 Y76.017
G1 X8.551 Y75.946
G1 X8.541 Y75.877
G1 X8.532 Y75.811
G1 X8.523 Y75.748
G1 X8.515 Y75.687
G1 X8.508 Y75.630
G1 X8.502 Y75.576
G1 X8.491 Y75.482
G1 X8.480 Y75.395
G1 X8.470 Y75.315
G1 X8.459 Y75.241
G1 X8.449 Y75.174
G1 X8.439 Y75.113
G1 X8.428 Y75.057
G1 X8.418 Y75.007
G1 X8.407 Y74.962
G1 X8.395 Y74.923
G1 X8.384 Y74.888
G1 X8.371 Y74.857
G1 X8.358 Y74.831
G1 X8.344 Y74.808
G1 X8.330 Y74.790
G1 X8.314 Y74.774
G1 X8.297 Y74.762
G1 X8.279 Y74.752
G1 X8.260 Y74.745
G1 X8.240 Y74.741
G1 X8.218 Y74.738
G1 X8.195 Y74.737
G1 X8.176 Y74.739
G1 X8.154 Y74.742
G1 X8.129 Y74.749
G1 X8.101 Y74.757
G1 X8.070 Y74.768
G1 X8.037 Y74.781
G1 X8.002 Y74.796
G1 X7.964 Y74.813
G1 X7.923 Y74.833
G1 X7.881 Y74.854
G1 X7.836 Y74.877
G1 X7.789 Y74.902
G1 X7.741 Y74.929
G1 X7.690 Y74.958
G1 X7.638 Y74.988
G1 X7.584 Y75.020
G1 X7.529 Y75.053
G1 X7.472 Y75.088
G1 X7.414 Y75.125
G1 X7.354 Y75.162
G1 X7.293 Y75.201
G1 X7.231 Y75.241
G1 X7.168 Y75.283
G1 X7.105 Y75.325
G1 X7.040 Y75.369
G1 X6.975 Y75.413
G1 X6.909 Y75.459
G1 X6.842 Y75.505
G1 X6.775 Y75.552
G1 X6.708 Y75.600
G1 X6.640 Y75.649
G1 X6.572 Y75.698
G1 X6.505 Y75.747
G1 X6.437 Y75.798
G1 X6.369 Y75.848
G1 X6.302 Y75.899
G1 X6.235 Y75.950
G1 X6.168 Y76.002
G1 X6.102 Y76.054
G1 X6.036 Y76.105
G1 X5.971 Y76.157
G1 X5.907 Y76.209
G1 X5.843 Y76.261
G1 X5.781 Y76.313
G1 X5.720 Y76.364
G1 X5.660 Y76.415
G1 X5.613 Y76.455
G1 X5.566 Y76.494
G1 X5.520 Y76.532
G1 X5.474 Y76.570
G1 X5.428 Y76.607
G1 X5.383 Y76.643
G1 X5.338 Y76.679
G1 X5.294 Y76.713
G1 X5.251 Y76.747
G1 X5.208 Y76.780
G1 X5.167 Y76.812
G1 X5.126 Y76.843
G1 X5.086 Y76.873
G1 X5.048 Y76.901
G1 X5.010 Y76.929
G1 X4.974 Y76.955
G1 X4.939 Y76.980
G1 X4.905 Y77.003
G1 X4.873 Y77.025
G1 X4.842 Y77.046
G1 X4.813 Y77.065
G1 X4.786 Y77.082
G1 X4.760 Y77.098
G1 X4.736 Y77.113
G1 X4.714 Y77.125
G1 X4.694 Y77.136
G1 X4.676 Y77.145
G1 X4.660 Y77.152
G1 X4.646 Y77.157
G1 X4.634 Y77.160
G1 X4.625 Y77.161
G1 X4.605 Y77.159
G1 X4.586 Y77.154
G1 X4.566 Y77.144
G1 X4.545 Y77.132
G1 X4.525 Y77.116
G1 X4.505 Y77.097
G1 X4.484 Y77.074
G1 X4.463 Y77.048
G1 X4.442 Y77.019
G1 X4.422 Y76.987
G1 X4.401 Y76.952
G1 X4.380 Y76.915
G1 X4.360 Y76.874
G1 X4.339 Y76.831
G1 X4.319 Y76.785
G1 X4.299 Y76.736
G1 X4.279 Y76.685
G1 X4.260 Y76.631
G1 X4.240 Y76.575
G1 X4.222 Y76.517
G1 X4.203 Y76.457
G1 X4.185 Y76.394
G1 X4.168 Y76.329
G1 X4.151 Y76.263
G1 X4.134 Y76.194
G1 X4.119 Y76.124
G1 X4.103 Y76.052
G1 X4.089 Y75.978
G1 X4.075 Y75.903
G1 X4.069 Y75.868
G1 X4.063 Y75.829
G1 X4.057 Y75.784
G1 X4.051 Y75.735
G1 X4.045 Y75.681
G1 X4.038 Y75.623
G1 X4.032 Y75.561
G1 X4.026 Y75.495
G1 X4.019 Y75.426
G1 X4.013 Y75.352
G1 X4.007 Y75.276
G1 X4.001 Y75.196
G1 X3.994 Y75.114
G1 X3.988 Y75.029
G1 X3.982 Y74.942
G1 X3.976 Y74.852
G1 X3.971 Y74.760
G1 X3.965 Y74.666
G1 X3.959 Y74.571
G1 X3.954 Y74.474
G1 X3.949 Y74.376
G1 X3.944 Y74.277
G1 X3.939 Y74.177
G1 X3.935 Y74.077
G1 X3.931 Y73.976
G1 X3.927 Y73.875
G1 X3.923 Y73.774
G1 X3.920 Y73.673
G1 X3.917 Y73.572
G1 X3.913 Y73.409
G1 X3.910 Y73.246
G1 X3.908 Y73.083
G1 X3.907 Y72.920
G1 X3.907 Y72.758
G1 X3.908 Y72.595
G1 X3.910 Y72.433
G1 X3.914 Y72.270
G1 X3.918 Y72.107
G1 X3.923 Y71.943
G1 X3.930 Y71.779
G1 X3.938 Y71.615
G1 X3.947 Y71.449
G1 X3.957 Y71.283
G1 X3.968 Y71.116
G1 X3.981 Y70.948
G1 X3.995 Y70.779
G1 X4.010 Y70.609
G1 X4.026 Y70.437
G1 X4.044 Y70.264
G1 X4.062 Y70.089
G1 X4.082 Y69.912
G1 X4.104 Y69.734
G1 X4.127 Y69.554
G1 X4.151 Y69.372
G1 X4.176 Y69.188
G1 X4.203 Y69.002
G1 X4.231 Y68.813
G1 X4.261 Y68.622
G1 X4.292 Y68.429
G1 X4.324 Y68.233
G1 X4.358 Y68.034
G1 X4.393 Y67.833
G1 X4.430 Y67.629
G1 X4.468 Y67.421
G1 X4.508 Y67.211
G1 X4.549 Y66.997
G1 X4.592 Y66.780
G1 X4.637 Y66.560
G1 X4.682 Y66.336
G1 X4.730 Y66.108
G1 X4.779 Y65.877
G1 X4.830 Y65.641
G1 X4.882 Y65.402
G1 X4.936 Y65.159
G1 X4.992 Y64.912
G1 X5.049 Y64.660
G1 X5.108 Y64.404
G1 X5.168 Y64.144
G1 X5.231 Y63.879
G1 X5.271 Y63.710
G1 X5.312 Y63.539
G1 X5.355 Y63.367
G1 X5.398 Y63.193
G1 X5.443 Y63.018
G1 X5.488 Y62.841
G1 X5.535 Y62.664
G1 X5.582 Y62.485
G1 X5.630 Y62.306
G1 X5.678 Y62.126
G1 X5.728 Y61.945
G1 X5.778 Y61.764
G1 X5.829 Y61.582
G1 X5.880 Y61.401
G1 X5.932 Y61.219
G1 X5.984 Y61.038
G1 X6.037 Y60.857
G1 X6.090 Y60.677
G1 X6.143 Y60.497
G1 X6.197 Y60.318
G1 X6.251 Y60.140
G1 X6.306 Y59.962
G1 X6.360 Y59.786
G1 X6.415 Y59.612
G1 X6.469 Y59.439
G1 X6.524 Y59.267
G1 X6.579 Y59.097
G1 X6.633 Y58.929
G1 X6.688 Y58.764
G1 X6.742 Y58.600
G1 X6.796 Y58.439
G1 X6.850 Y58.280
G1 X6.904 Y58.124
G1 X6.957 Y57.970
G1 X7.010 Y57.820
G1 X7.063 Y57.672
G1 X7.115 Y57.528
G1 X7.166 Y57.387
G1 X7.217 Y57.250
G1 X7.268 Y57.116
G1 X7.317 Y56.987
G1 X7.366 Y56.861
G1 X7.415 Y56.739
G1 X7.462 Y56.621
G1 X7.509 Y56.508
G1 X7.555 Y56.399
G1 X7.600 Y56.295
G1 X7.644 Y56.196
G1 X7.687 Y56.101
G1 X7.729 Y56.012
G1 X7.759 Y55.947
G1 X7.788 Y55.886
G1 X7.815 Y55.827
G1 X7.840 Y55.770
G1 X7.864 Y55.717
G1 X7.886 Y55.666
G1 X7.907 Y55.618
G1 X7.925 Y55.572
G1 X7.943 Y55.528
G1 X7.958 Y55.488
G1 X7.972 Y55.449
G1 X7.984 Y55.413
G1 X7.995 Y55.379
G1 X8.004 Y55.347
G1 X8.011 Y55.318
G1 X8.017 Y55.291
G1 X8.021 Y55.266
G1 X8.024 Y55.243
G1 X8.025 Y55.222
G1 X8.025 Y55.203
G1 X8.023 Y55.186
G1 X8.019 Y55.171
G1 X8.014 Y55.157
G1 X8.007 Y55.146
G1 X7.999 Y55.136
G1 X7.990 Y55.130
G1 X7.977 Y55.125
G1 X7.959 Y55.121
G1 X7.937 Y55.118
G1 X7.911 Y55.115
G1 X7.880 Y55.114
G1 X7.845 Y55.113
G1 X7.806 Y55.114
G1 X7.764 Y55.115
G1 X7.717 Y55.117
G1 X7.667 Y55.120
G1 X7.613 Y55.123
G1 X7.555 Y55.127
G1 X7.494 Y55.133
G1 X7.430 Y55.139
G1 X7.362 Y55.145
G1 X7.291 Y55.153
G1 X7.217 Y55.161
G1 X7.140 Y55.170
G1 X7.060 Y55.180
G1 X6.978 Y55.190
G1 X6.892 Y55.201
G1 X6.804 Y55.213
G1 X6.714 Y55.225
G1 X6.621 Y55.239
G1 X6.525 Y55.252
G1 X6.428 Y55.267
G1 X6.328 Y55.282
G1 X6.226 Y55.298
G1 X6.122 Y55.314
G1 X6.016 Y55.331
G1 X5.909 Y55.348
G1 X5.800 Y55.367
G1 X5.689 Y55.385
G1 X5.576 Y55.405
G1 X5.463 Y55.424
G1 X5.348 Y55.445
G1 X5.231 Y55.466
G1 X5.114 Y55.487
G1 X4.996 Y55.509
G1 X4.876 Y55.532
G1 X4.756 Y55.555
G1 X4.635 Y55.578
G1 X4.513 Y55.602
G1 X4.444 Y55.615
G1 X4.378 Y55.628
G1 X4.315 Y55.639
G1 X4.254 Y55.649
G1 X4.196 Y55.658
G1 X4.141 Y55.666
G1 X4.089 Y55.672
G1 X4.039 Y55.678
G1 X3.993 Y55.682
G1 X3.949 Y55.686
G1 X3.909 Y55.688
G1 X3.871 Y55.689
G1 X3.837 Y55.689
G1 X3.807 Y55.688
G1 X3.779 Y55.686
G1 X3.755 Y55.682
G1 X3.734 Y55.678
G1 X3.717 Y55.672
G1 X3.703 Y55.666
G1 X3.693 Y55.658
G1 X3.685 Y55.649
G1 X3.678 Y55.639
G1 X3.673 Y55.627
G1 X3.668 Y55.614
G1 X3.664 Y55.600
G1 X3.662 Y55.584
G1 X3.661 Y55.567
G1 X3.661 Y55.548
G1 X3.662 Y55.527
G1 X3.665 Y55.505
G1 X3.669 Y55.480
G1 X3.674 Y55.454
G1 X3.681 Y55.426
G1 X3.689 Y55.396
G1 X3.698 Y55.363
G1 X3.709 Y55.328
G1 X3.721 Y55.291
G1 X3.735 Y55.252
G1 X3.750 Y55.211
G1 X3.767 Y55.166
G1 X3.785 Y55.120
G1 X3.805 Y55.070
G1 X3.827 Y55.018
G1 X3.850 Y54.964
G1 X3.875 Y54.906
G1 X3.902 Y54.846
G1 X3.931 Y54.782
G1 X3.961 Y54.716
G1 X3.993 Y54.646
G1 X4.027 Y54.574
G1 X4.063 Y54.498
G1 X4.101 Y54.418
G1 X4.140 Y54.336
G1 X4.182 Y54.250
G1 X4.226 Y54.160
G1 X4.271 Y54.067
G1 X4.319 Y53.970
G1 X4.369 Y53.870
G1 X4.420 Y53.766
G1 X4.474 Y53.658
G1 X4.530 Y53.546
G1 X4.589 Y53.429
G1 X4.649 Y53.309
G1 X4.712 Y53.185
G1 X4.777 Y53.057
G1 X4.844 Y52.924
G1 X4.914 Y52.787
G1 X5.012 Y52.595
G1 X5.111 Y52.404
G1 X5.210 Y52.213
G1 X5.309 Y52.022
G1 X5.409 Y51.831
G1 X5.510 Y51.640
G1 X5.611 Y51.449
G1 X5.713 Y51.259
G1 X5.816 Y51.068
G1 X5.919 Y50.877
G1 X6.022 Y50.686
G1 X6.127 Y50.495
G1 X6.232 Y50.304
G1 X6.338 Y50.113
G1 X6.445 Y49.921
G1 X6.552 Y49.729
G1 X6.661 Y49.537
G1 X6.770 Y49.345
G1 X6.880 Y49.152
G1 X6.991 Y48.959
G1 X7.102 Y48.765
G1 X7.215 Y48.571
G1 X7.329 Y48.376
G1 X7.443 Y48.180
G1 X7.559 Y47.984
G1 X7.675 Y47.788
G1 X7.793 Y47.591
G1 X7.911 Y47.393
G1 X8.031 Y47.194
G1 X8.152 Y46.994
G1 X8.274 Y46.794
G1 X8.397 Y46.592
G1 X8.521 Y46.390
G1 X8.647 Y46.187
G1 X8.773 Y45.983
G1 X8.901 Y45.778
G1 X9.030 Y45.571
G1 X9.160 Y45.364
G1 X9.292 Y45.156
G1 X9.425 Y44.946
G1 X9.559 Y44.735
G1 X9.695 Y44.523
G1 X9.832 Y44.310
G1 X9.971 Y44.095
G1 X10.111 Y43.879
G1 X10.252 Y43.661
G1 X10.395 Y43.442
G1 X10.539 Y43.222
G1 X10.685 Y43.000
G1 X10.833 Y42.777
G1 X10.916 Y42.650
G1 X10.995 Y42.528
G1 X11.072 Y42.411
G1 X11.146 Y42.298
G1 X11.217 Y42.189
G1 X11.285 Y42.085
G1 X11.351 Y41.984
G1 X11.413 Y41.887
G1 X11.473 Y41.795
G1 X11.530 Y41.706
G1 X11.585 Y41.621
G1 X11.636 Y41.539
G1 X11.686 Y41.461
G1 X11.733 Y41.387
G1 X11.777 Y41.316
G1 X11.820 Y41.248
G1 X11.859 Y41.183
G1 X11.897 Y41.121
G1 X11.932 Y41.063
G1 X11.966 Y41.007
G1 X11.997 Y40.954
G1 X12.026 Y40.904
G1 X12.053 Y40.856
G1 X12.078 Y40.811
G1 X12.101 Y40.769
G1 X12.122 Y40.729
G1 X12.142 Y40.691
G1 X12.160 Y40.655
G1 X12.176 Y40.621
G1 X12.190 Y40.590
G1 X12.203 Y40.560
G1 X12.214 Y40.532
G1 X12.224 Y40.506
G1 X12.232 Y40.482
G1 X12.239 Y40.459
G1 X12.244 Y40.438
G1 X12.248 Y40.418
G1 X12.251 Y40.399
G1 X12.253 Y40.382
G1 X12.253 Y40.365
G1 X12.252 Y40.350
G1 X12.251 Y40.336
G1 X12.248 Y40.322
G1 X12.245 Y40.309
G1 X12.240 Y40.297
G1 X12.235 Y40.286
G1 X12.228 Y40.275
G1 X12.217 Y40.262
G1 X12.204 Y40.248
G1 X12.188 Y40.234
G1 X12.169 Y40.219
G1 X12.149 Y40.204
G1 X12.126 Y40.188
G1 X12.101 Y40.172
G1 X12.074 Y40.156
G1 X12.045 Y40.140
G1 X12.015 Y40.124
G1 X11.984 Y40.107
G1 X11.951 Y40.091
G1 X11.917 Y40.076
G1 X11.882 Y40.060
G1 X11.847 Y40.045
G1 X11.811 Y40.031
G1 X11.774 Y40.018
G1 X11.707 Y39.991
G1 X11.646 Y39.964
G1 X11.591 Y39.937
G1 X11.541 Y39.909
G1 X11.497 Y39.881
G1 X11.459 Y39.852
G1 X11.427 Y39.823
G1 X11.401 Y39.792
G1 X11.380 Y39.760
G1 X11.364 Y39.727
G1 X11.355 Y39.692
G1 X11.350 Y39.656
G1 X11.352 Y39.619
G1 X11.358 Y39.579
G1 X11.371 Y39.537
G1 X11.388 Y39.494
G1 X11.411 Y39.448
G1 X11.440 Y39.399
G1 X11.473 Y39.348
G1 X11.512 Y39.295
G1 X11.557 Y39.238
G1 X11.606 Y39.179
G1 X11.620 Y39.164
G1 X11.635 Y39.146
G1 X11.652 Y39.127
G1 X11.671 Y39.105
G1 X11.691 Y39.080
G1 X11.713 Y39.054
G1 X11.736 Y39.025
G1 X11.761 Y38.995
G1 X11.787 Y38.962
G1 X11.814 Y38.928
G1 X11.842 Y38.891
G1 X11.872 Y38.853
G1 X11.902 Y38.814
G1 X11.934 Y38.773
G1 X11.967 Y38.730
G1 X12.000 Y38.686
G1 X12.035 Y38.640
G1 X12.070 Y38.594
G1 X12.106 Y38.546
G1 X12.143 Y38.497
G1 X12.181 Y38.447
G1 X12.219 Y38.395
G1 X12.257 Y38.344
G1 X12.297 Y38.291
G1 X12.336 Y38.237
G1 X12.376 Y38.183
G1 X12.416 Y38.128
G1 X12.457 Y38.073
G1 X12.498 Y38.017
G1 X12.538 Y37.961
G1 X12.579 Y37.905
G1 X12.621 Y37.848
G1 X12.662 Y37.792
G1 X12.702 Y37.735
G1 X12.743 Y37.678
G1 X12.773 Y37.637
G1 X12.804 Y37.594
G1 X12.837 Y37.549
G1 X12.871 Y37.501
G1 X12.907 Y37.452
G1 X12.945 Y37.400
G1 X12.984 Y37.347
G1 X13.024 Y37.291
G1 X13.066 Y37.234
G1 X13.109 Y37.175
G1 X13.154 Y37.114
G1 X13.200 Y37.052
G1 X13.247 Y36.988
G1 X13.295 Y36.922
G1 X13.345 Y36.855
G1 X13.395 Y36.786
G1 X13.447 Y36.717
G1 X13.499 Y36.646
G1 X13.553 Y36.573
G1 X13.607 Y36.500
G1 X13.662 Y36.425
G1 X13.718 Y36.349
G1 X13.775 Y36.273
G1 X13.833 Y36.195
G1 X13.891 Y36.117
G1 X13.950 Y36.038
G1 X14.009 Y35.958
G1 X14.069 Y35.877
G1 X14.130 Y35.796
G1 X14.191 Y35.714
G1 X14.252 Y35.631
G1 X14.314 Y35.549
G1 X14.376 Y35.465
G1 X14.438 Y35.382
G1 X14.501 Y35.298
G1 X14.564 Y35.214
G1 X14.627 Y35.130
G1 X14.690 Y35.046
G1 X14.753 Y34.962
G1 X14.816 Y34.878
G1 X14.879 Y34.794
G1 X14.942 Y34.710
G1 X15.005 Y34.626
G1 X15.067 Y34.543
G1 X15.130 Y34.460
G1 X15.192 Y34.377
G1 X15.254 Y34.295
G1 X15.315 Y34.214
G1 X15.376 Y34.133
G1 X15.437 Y34.052
G1 X15.542 Y33.911
G1 X15.648 Y33.770
G1 X15.753 Y33.628
G1 X15.859 Y33.485
G1 X15.965 Y33.341
G1 X16.070 Y33.198
G1 X16.176 Y33.054
G1 X16.281 Y32.910
G1 X16.385 Y32.766
G1 X16.490 Y32.622
G1 X16.593 Y32.478
G1 X16.697 Y32.335
G1 X16.799 Y32.192
G1 X16.901 Y32.050
G1 X17.002 Y31.908
G1 X17.102 Y31.767
G1 X17.201 Y31.628
G1 X17.299 Y31.489
G1 X17.396 Y31.351
G1 X17.492 Y31.215
G1 X17.586 Y31.080
G1 X17.679 Y30.946
G1 X17.771 Y30.814
G1 X17.861 Y30.684
G1 X17.949 Y30.556
G1 X18.036 Y30.429
G1 X18.121 Y30.305
G1 X18.204 Y30.183
G1 X18.285 Y30.063
G1 X18.364 Y29.946
G1 X18.441 Y29.831
G1 X18.515 Y29.719
G1 X18.588 Y29.609
G1 X18.658 Y29.503
G1 X18.726 Y29.399
G1 X18.791 Y29.299
G1 X18.854 Y29.201
G1 X18.914 Y29.108
G1 X18.971 Y29.017
G1 X19.026 Y28.930
G1 X19.077 Y28.847
G1 X19.126 Y28.768
G1 X19.172 Y28.692
G1 X19.214 Y28.621
G1 X19.253 Y28.553
G1 X19.289 Y28.490
G1 X19.322 Y28.431
G1 X19.351 Y28.377
G1 X19.376 Y28.328
G1 X19.398 Y28.283
G1 X19.425 Y28.224
G1 X19.448 Y28.168
G1 X19.468 Y28.114
G1 X19.485 Y28.062
G1 X19.499 Y28.013
G1 X19.510 Y27.967
G1 X19.517 Y27.924
G1 X19.522 Y27.883
G1 X19.524 Y27.845
G1 X19.522 Y27.811
G1 X19.518 Y27.779
G1 X19.511 Y27.751
G1 X19.501 Y27.725
G1 X19.487 Y27.703
G1 X19.471 Y27.685
G1 X19.452 Y27.670
G1 X19.430 Y27.658
G1 X19.406 Y27.650
G1 X19.378 Y27.646
G1 X19.348 Y27.646
G1 X19.314 Y27.649
G1 X19.299 Y27.650
G1 X19.280 Y27.652
G1 X19.255 Y27.654
G1 X19.227 Y27.657
G1 X19.195 Y27.660
G1 X19.159 Y27.664
G1 X19.119 Y27.668
G1 X19.076 Y27.672
G1 X19.030 Y27.677
G1 X18.981 Y27.682
G1 X18.929 Y27.687
G1 X18.874 Y27.693
G1 X18.817 Y27.699
G1 X18.758 Y27.705
G1 X18.696 Y27.712
G1 X18.633 Y27.719
G1 X18.568 Y27.726
G1 X18.502 Y27.733
G1 X18.434 Y27.740
G1 X18.366 Y27.748
G1 X18.296 Y27.755
G1 X18.226 Y27.763
G1 X18.155 Y27.771
G1 X18.084 Y27.779
G1 X17.955 Y27.793
G1 X17.834 Y27.805
G1 X17.721 Y27.815
G1 X17.616 Y27.824
G1 X17.519 Y27.831
G1 X17.430 Y27.837
G1 X17.349 Y27.840
G1 X17.274 Y27.842
G1 X17.207 Y27.842
G1 X17.146 Y27.839
G1 X17.092 Y27.835
G1 X17.045 Y27.828
G1 X17.003 Y27.818
G1 X16.968 Y27.806
G1 X16.938 Y27.792
G1 X16.914 Y27.774
G1 X16.896 Y27.754
G1 X16.882 Y27.731
G1 X16.874 Y27.705
G1 X16.870 Y27.677
G1 X16.870 Y27.644
G1 X16.875 Y27.609
G1 X16.884 Y27.570
G1 X16.897 Y27.528
G1 X16.914 Y27.482
G1 X16.934 Y27.433
G1 X16.958 Y27.380
G1 X16.984 Y27.323
G1 X17.096 Y27.088
G1 X17.205 Y26.860
G1 X17.312 Y26.638
G1 X17.416 Y26.422
G1 X17.518 Y26.212
G1 X17.617 Y26.008
G1 X17.715 Y25.808
G1 X17.811 Y25.615
G1 X17.905 Y25.426
G1 X17.997 Y25.242
G1 X18.088 Y25.063
G1 X18.178 Y24.888
G1 X18.266 Y24.717
G1 X18.352 Y24.551
G1 X18.438 Y24.389
G1 X18.523 Y24.230
G1 X18.606 Y24.075
G1 X18.689 Y23.924
G1 X18.771 Y23.776
G1 X18.853 Y23.630
G1 X18.934 Y23.488
G1 X19.015 Y23.348
G1 X19.096 Y23.211
G1 X19.177 Y23.076
G1 X19.257 Y22.943
G1 X19.338 Y22.812
G1 X19.419 Y22.683
G1 X19.500 Y22.555
G1 X19.582 Y22.429
G1 X19.665 Y22.304
G1 X19.748 Y22.180
G1 X19.832 Y22.057
G1 X19.916 Y21.935
G1 X20.002 Y21.812
G1 X20.089 Y21.691
G1 X20.177 Y21.569
G1 X20.267 Y21.447
G1 X20.358 Y21.325
G1 X20.451 Y21.203
G1 X20.545 Y21.080
G1 X20.641 Y20.956
G1 X20.739 Y20.831
G1 X20.839 Y20.705
G1 X20.942 Y20.577
G1 X21.046 Y20.448
G1 X21.153 Y20.317
G1 X21.263 Y20.184
G1 X21.375 Y20.050
G1 X21.490 Y19.912
G1 X21.607 Y19.773
G1 X21.650 Y19.723
G1 X21.692 Y19.674
G1 X21.733 Y19.625
G1 X21.773 Y19.577
G1 X21.813 Y19.529
G1 X21.852 Y19.482
G1 X21.889 Y19.436
G1 X21.926 Y19.391
G1 X21.962 Y19.346
G1 X21.997 Y19.303
G1 X22.031 Y19.260
G1 X22.063 Y19.219
G1 X22.094 Y19.179
G1 X22.125 Y19.140
G1 X22.153 Y19.102
G1 X22.181 Y19.066
G1 X22.207 Y19.031
G1 X22.231 Y18.997
G1 X22.254 Y18.966
G1 X22.275 Y18.935
G1 X22.295 Y18.907
G1 X22.313 Y18.881
G1 X22.329 Y18.856
G1 X22.344 Y18.833
G1 X22.357 Y18.812
G1 X22.368 Y18.794
G1 X22.377 Y18.777
G1 X22.383 Y18.763
G1 X22.388 Y18.751
G1 X22.391 Y18.741
G1 X22.392 Y18.734
G1 X22.390 Y18.729
G1 X22.385 Y18.722
G1 X22.374 Y18.715
G1 X22.359 Y18.707
G1 X22.339 Y18.700
G1 X22.315 Y18.693
G1 X22.286 Y18.685
G1 X22.254 Y18.678
G1 X22.218 Y18.671
G1 X22.178 Y18.664
G1 X22.135 Y18.657
G1 X22.089 Y18.650
G1 X22.041 Y18.643
G1 X21.990 Y18.636
G1 X21.936 Y18.630
G1 X21.880 Y18.624
G1 X21.823 Y18.618
G1 X21.764 Y18.613
G1 X21.704 Y18.608
G1 X21.642 Y18.603
G1 X21.579 Y18.598
G1 X21.491 Y18.592
G1 X21.402 Y18.584
G1 X21.313 Y18.574
G1 X21.225 Y18.562
G1 X21.136 Y18.548
G1 X21.048 Y18.533
G1 X20.959 Y18.516
G1 X20.871 Y18.497
G1 X20.783 Y18.476
G1 X20.694 Y18.453
G1 X20.606 Y18.428
G1 X20.517 Y18.402
G1 X20.428 Y18.373
G1 X20.339 Y18.343
G1 X20.250 Y18.310
G1 X20.161 Y18.276
G1 X20.071 Y18.239
G1 X19.982 Y18.201
G1 X19.892 Y18.161
G1 X19.801 Y18.118
G1 X19.711 Y18.074
G1 X19.620 Y18.028
G1 X19.528 Y17.979
G1 X19.437 Y17.929
G1 X19.345 Y17.876
G1 X19.252 Y17.821
G1 X19.159 Y17.764
G1 X19.066 Y17.705
G1 X18.972 Y17.644
G1 X18.878 Y17.581
G1 X18.783 Y17.516
G1 X18.687 Y17.448
G1 X18.591 Y17.378
G1 X18.494 Y17.306
G1 X18.397 Y17.232
G1 X18.299 Y17.155
G1 X18.200 Y17.076
G1 X18.101 Y16.995
G1 X18.001 Y16.912
G1 X17.900 Y16.826
G1 X17.798 Y16.738
G1 X17.696 Y16.648
G1 X17.592 Y16.555
G1 X17.488 Y16.460
G1 X17.383 Y16.363
G1 X17.277 Y16.263
G1 X17.171 Y16.161
G1 X17.063 Y16.056
G1 X16.954 Y15.949
G1 X16.844 Y15.839
G1 X16.763 Y15.758
G1 X16.683 Y15.675
G1 X16.604 Y15.592
G1 X16.525 Y15.508
G1 X16.448 Y15.423
G1 X16.371 Y15.338
G1 X16.295 Y15.252
G1 X16.220 Y15.166
G1 X16.146 Y15.079
G1 X16.073 Y14.991
G1 X16.000 Y14.903
G1 X15.929 Y14.814
G1 X15.859 Y14.725
G1 X15.789 Y14.635
G1 X15.721 Y14.545
G1 X15.653 Y14.455
G1 X15.587 Y14.364
G1 X15.521 Y14.272
G1 X15.457 Y14.181
G1 X15.393 Y14.088
G1 X15.331 Y13.996
G1 X15.269 Y13.903
G1 X15.209 Y13.810
G1 X15.149 Y13.716
G1 X15.091 Y13.623
G1 X15.034 Y13.529
G1 X14.978 Y13.434
G1 X14.923 Y13.340
G1 X14.869 Y13.245
G1 X14.816 Y13.151
G1 X14.764 Y13.056
G1 X14.714 Y12.961
G1 X14.664 Y12.865
G1 X14.616 Y12.770
G1 X14.569 Y12.675
G1 X14.523 Y12.579
G1 X14.479 Y12.484
G1 X14.435 Y12.388
G1 X14.393 Y12.293
G1 X14.352 Y12.198
G1 X14.312 Y12.102
G1 X14.274 Y12.007
G1 X14.236 Y11.912
G1 X14.200 Y11.816
G1 X14.166 Y11.721
G1 X14.132 Y11.626
G1 X14.099 Y11.527
G1 X14.066 Y11.426
G1 X14.034 Y11.325
G1 X14.003 Y11.223
G1 X13.973 Y11.121
G1 X13.943 Y11.018
G1 X13.914 Y10.915
G1 X13.886 Y10.812
G1 X13.859 Y10.709
G1 X13.833 Y10.606
G1 X13.807 Y10.503
G1 X13.783 Y10.401
G1 X13.759 Y10.299
G1 X13.737 Y10.197
G1 X13.715 Y10.096
G1 X13.694 Y9.997
G1 X13.674 Y9.898
G1 X13.655 Y9.800
G1 X13.638 Y9.703
G1 X13.621 Y9.607
G1 X13.605 Y9.513
G1 X13.590 Y9.421
G1 X13.577 Y9.330
G1 X13.564 Y9.241
G1 X13.553 Y9.154
G1 X13.543 Y9.069
G1 X13.534 Y8.986
G1 X13.526 Y8.905
G1 X13.519 Y8.827
G1 X13.513 Y8.751
G1 X13.509 Y8.678
G1 X13.506 Y8.607
G1 X13.504 Y8.540
G1 X13.504 Y8.475
G1 X13.505 Y8.414
G1 X13.507 Y8.355
G1 X13.510 Y8.300
G1 X13.515 Y8.249
G1 X13.521 Y8.201
G1 X13.529 Y8.157
G1 X13.537 Y8.116
G1 X13.548 Y8.080
G1 X13.560 Y8.048
G1 X13.573 Y8.019
G1 X13.590 Y7.988
G1 X13.608 Y7.959
G1 X13.625 Y7.933
G1 X13.643 Y7.910
G1 X13.661 Y7.889
G1 X13.679 Y7.871
G1 X13.698 Y7.855
G1 X13.717 Y7.843
G1 X13.736 Y7.833
G1 X13.756 Y7.827
G1 X13.777 Y7.823
G1 X13.799 Y7.823
G1 X13.821 Y7.825
G1 X13.845 Y7.831
G1 X13.869 Y7.841
G1 X13.894 Y7.853
G1 X13.920 Y7.869
G1 X13.948 Y7.888
G1 X13.977 Y7.911
G1 X14.007 Y7.938
G1 X14.038 Y7.968
G1 X14.071 Y8.001
G1 X14.105 Y8.039
G1 X14.141 Y8.080
G1 X14.179 Y8.125
G1 X14.218 Y8.174
G1 X14.259 Y8.227
G1 X14.302 Y8.284
G1 X14.347 Y8.345
G1 X14.394 Y8.411
G1 X14.443 Y8.480
G1 X14.494 Y8.554
G1 X14.547 Y8.632
G1 X14.603 Y8.714
G1 X14.661 Y8.801
G1 X14.722 Y8.893
G1 X14.785 Y8.989
G1 X14.885 Y9.139
G1 X14.984 Y9.286
G1 X15.084 Y9.431
G1 X15.183 Y9.574
G1 X15.282 Y9.714
G1 X15.380 Y9.851
G1 X15.479 Y9.985
G1 X15.577 Y10.117
G1 X15.675 Y10.247
G1 X15.773 Y10.374
G1 X15.871 Y10.498
G1 X15.969 Y10.620
G1 X16.066 Y10.740
G1 X16.164 Y10.857
G1 X16.261 Y10.972
G1 X16.359 Y11.084
G1 X16.456 Y11.194
G1 X16.554 Y11.302
G1 X16.652 Y11.407
G1 X16.749 Y11.509
G1 X16.847 Y11.610
G1 X16.944 Y11.708
G1 X17.042 Y11.804
G1 X17.140 Y11.898
G1 X17.238 Y11.989
G1 X17.336 Y12.078
G1 X17.435 Y12.165
G1 X17.533 Y12.249
G1 X17.632 Y12.332
G1 X17.731 Y12.412
G1 X17.831 Y12.490
G1 X17.930 Y12.566
G1 X18.030 Y12.640
G1 X18.130 Y12.711
G1 X18.231 Y12.781
G1 X18.332 Y12.848
G1 X18.433 Y12.914
G1 X18.534 Y12.977
G1 X18.636 Y13.039
G1 X18.739 Y13.098
G1 X18.841 Y13.155
G1 X18.945 Y13.211
G1 X19.049 Y13.264
G1 X19.153 Y13.315
G1 X19.258 Y13.365
G1 X19.363 Y13.412
G1 X19.469 Y13.458
G1 X19.575 Y13.502
G1 X19.682 Y13.544
G1 X19.790 Y13.584
G1 X19.889 Y13.620
G1 X19.986 Y13.654
G1 X20.082 Y13.687
G1 X20.175 Y13.719
G1 X20.266 Y13.748
G1 X20.355 Y13.777
G1 X20.442 Y13.803
G1 X20.527 Y13.828
G1 X20.610 Y13.852
G1 X20.691 Y13.874
G1 X20.769 Y13.894
G1 X20.845 Y13.913
G1 X20.919 Y13.930
G1 X20.990 Y13.945
G1 X21.059 Y13.959
G1 X21.125 Y13.971
G1 X21.189 Y13.982
G1 X21.250 Y13.991
G1 X21.309 Y13.999
G1 X21.365 Y14.004
G1 X21.419 Y14.009
G1 X21.469 Y14.011
G1 X21.517 Y14.012
G1 X21.562 Y14.011
G1 X21.605 Y14.009
G1 X21.644 Y14.005
G1 X21.681 Y13.999
G1 X21.714 Y13.992
G1 X21.745 Y13.983
G1 X21.772 Y13.972
G1 X21.797 Y13.960
G1 X21.818 Y13.946
G1 X21.836 Y13.930
G1 X21.851 Y13.913
G1 X21.863 Y13.894
G1 X21.871 Y13.873
G1 X21.876 Y13.850
G1 X21.878 Y13.826
G1 X21.876 Y13.819
G1 X21.873 Y13.809
G1 X21.867 Y13.798
G1 X21.858 Y13.784
G1 X21.848 Y13.768
G1 X21.835 Y13.751
G1 X21.820 Y13.732
G1 X21.803 Y13.711
G1 X21.784 Y13.688
G1 X21.763 Y13.664
G1 X21.740 Y13.638
G1 X21.716 Y13.611
G1 X21.690 Y13.582
G1 X21.662 Y13.552
G1 X21.632 Y13.521
G1 X21.601 Y13.488
G1 X21.568 Y13.455
G1 X21.534 Y13.420
G1 X21.499 Y13.384
G1 X21.462 Y13.348
G1 X21.424 Y13.310
G1 X21.385 Y13.272
G1 X21.345 Y13.233
G1 X21.304 Y13.193
G1 X21.262 Y13.153
G1 X21.219 Y13.113
G1 X21.175 Y13.071
G1 X21.130 Y13.030
G1 X21.085 Y12.988
G1 X21.039 Y12.946
G1 X20.992 Y12.903
G1 X20.902 Y12.820
G1 X20.816 Y12.739
G1 X20.733 Y12.660
G1 X20.652 Y12.583
G1 X20.575 Y12.508
G1 X20.501 Y12.435
G1 X20.430 Y12.364
G1 X20.361 Y12.293
G1 X20.295 Y12.224
G1 X20.230 Y12.156
G1 X20.168 Y12.088
G1 X20.108 Y12.021
G1 X20.050 Y11.955
G1 X19.994 Y11.889
G1 X19.939 Y11.822
G1 X19.885 Y11.756
G1 X19.833 Y11.689
G1 X19.782 Y11.622
G1 X19.732 Y11.553
G1 X19.682 Y11.484
G1 X19.634 Y11.414
G1 X19.585 Y11.343
G1 X19.538 Y11.270
G1 X19.490 Y11.196
G1 X19.443 Y11.119
G1 X19.395 Y11.041
G1 X19.347 Y10.960
G1 X19.299 Y10.877
G1 X19.250 Y10.791
G1 X19.201 Y10.703
G1 X19.151 Y10.612
G1 X19.100 Y10.517
G1 X19.060 Y10.440
G1 X19.019 Y10.361
G1 X18.978 Y10.279
G1 X18.938 Y10.194
G1 X18.897 Y10.108
G1 X18.856 Y10.019
G1 X18.815 Y9.928
G1 X18.774 Y9.835
G1 X18.734 Y9.740
G1 X18.693 Y9.643
G1 X18.653 Y9.545
G1 X18.613 Y9.446
G1 X18.574 Y9.345
G1 X18.534 Y9.243
G1 X18.495 Y9.141
G1 X18.457 Y9.037
G1 X18.419 Y8.932
G1 X18.381 Y8.827
G1 X18.344 Y8.721
G1 X18.308 Y8.615
G1 X18.272 Y8.508
G1 X18.237 Y8.402
G1 X18.202 Y8.295
G1 X18.169 Y8.188
G1 X18.136 Y8.082
G1 X18.104 Y7.976
G1 X18.073 Y7.871
G1 X18.043 Y7.766
G1 X18.013 Y7.662
G1 X17.985 Y7.558
G1 X17.958 Y7.456
G1 X17.932 Y7.355
G1 X17.907 Y7.255
G1 X17.883 Y7.156
G1 X17.861 Y7.059
G1 X17.840 Y6.963
G1 X17.820 Y6.870
G1 X17.801 Y6.778
G1 X17.784 Y6.688
G1 X17.768 Y6.600
G1 X17.754 Y6.515
G1 X17.741 Y6.432
G1 X17.730 Y6.351
G1 X17.720 Y6.273
G1 X17.712 Y6.203
G1 X17.706 Y6.141
G1 X17.702 Y6.085
G1 X17.700 Y6.036
G1 X17.701 Y5.994
G1 X17.704 Y5.956
G1 X17.710 Y5.924
G1 X17.718 Y5.897
G1 X17.729 Y5.873
G1 X17.742 Y5.853
G1 X17.758 Y5.837
G1 X17.777 Y5.823
G1 X17.799 Y5.811
G1 X17.823 Y5.801
G1 X17.840 Y5.794
G1 X17.858 Y5.790
G1 X17.877 Y5.789
G1 X17.896 Y5.789
G1 X17.915 Y5.792
G1 X17.935 Y5.798
G1 X17.956 Y5.806
G1 X17.977 Y5.816
G1 X17.999 Y5.829
G1 X18.022 Y5.844
G1 X18.045 Y5.862
G1 X18.068 Y5.882
G1 X18.093 Y5.904
G1 X18.118 Y5.929
G1 X18.143 Y5.956
G1 X18.169 Y5.986
G1 X18.196 Y6.018
G1 X18.224 Y6.053
G1 X18.343 Y6.199
G1 X18.462 Y6.343
G1 X18.579 Y6.486
G1 X18.696 Y6.625
G1 X18.812 Y6.763
G1 X18.927 Y6.899
G1 X19.042 Y7.033
G1 X19.156 Y7.165
G1 X19.270 Y7.295
G1 X19.384 Y7.423
G1 X19.497 Y7.550
G1 X19.609 Y7.674
G1 X19.721 Y7.797
G1 X19.833 Y7.919
G1 X19.945 Y8.038
G1 X20.057 Y8.157
G1 X20.169 Y8.273
G1 X20.280 Y8.389
G1 X20.392 Y8.503
G1 X20.504 Y8.615
G1 X20.616 Y8.727
G1 X20.728 Y8.837
G1 X20.840 Y8.946
G1 X20.953 Y9.053
G1 X21.066 Y9.160
G1 X21.179 Y9.266
G1 X21.293 Y9.370
G1 X21.407 Y9.474
G1 X21.522 Y9.577
G1 X21.637 Y9.679
G1 X21.753 Y9.780
G1 X21.870 Y9.880
G1 X21.987 Y9.980
G1 X22.106 Y10.079
G1 X22.225 Y10.177
G1 X22.345 Y10.275
G1 X22.466 Y10.373
G1 X22.588 Y10.470
G1 X22.711 Y10.566
G1 X22.836 Y10.663
G1 X22.961 Y10.759
G1 X23.088 Y10.854
G1 X23.216 Y10.950
G1 X23.345 Y11.045
G1 X23.476 Y11.140
G1 X23.608 Y11.236
G1 X23.742 Y11.331
G1 X23.877 Y11.426
G1 X24.014 Y11.522
G1 X24.152 Y11.617
G1 X24.300 Y11.718
G1 X24.445 Y11.816
G1 X24.587 Y11.911
G1 X24.726 Y12.001
G1 X24.862 Y12.089
G1 X24.996 Y12.173
G1 X25.127 Y12.253
G1 X25.256 Y12.330
G1 X25.382 Y12.404
G1 X25.506 Y12.474
G1 X25.628 Y12.541
G1 X25.748 Y12.605
G1 X25.866 Y12.666
G1 X25.982 Y12.723
G1 X26.097 Y12.777
G1 X26.210 Y12.828
G1 X26.321 Y12.876
G1 X26.431 Y12.920
G1 X26.540 Y12.962
G1 X26.648 Y13.000
G1 X26.755 Y13.035
G1 X26.861 Y13.068
G1 X26.966 Y13.097
G1 X27.071 Y13.124
G1 X27.174 Y13.147
G1 X27.278 Y13.168
G1 X27.381 Y13.185
G1 X27.484 Y13.200
G1 X27.586 Y13.212
G1 X27.689 Y13.221
G1 X27.792 Y13.227
G1 X27.895 Y13.231
G1 X27.998 Y13.231
G1 X28.102 Y13.229
G1 X28.206 Y13.225
G1 X28.311 Y13.218
G1 X28.417 Y13.208
G1 X28.523 Y13.195
G1 X28.631 Y13.180
G1 X28.739 Y13.162
G1 X28.849 Y13.142
G1 X28.960 Y13.119
G1 X29.073 Y13.094
G1 X29.187 Y13.066
G1 X29.302 Y13.036
G1 X29.420 Y13.004
G1 X29.539 Y12.969
G1 X29.661 Y12.931
G1 X29.717 Y12.913
G1 X29.775 Y12.895
G1 X29.834 Y12.875
G1 X29.895 Y12.855
G1 X29.956 Y12.835
G1 X30.018 Y12.814
G1 X30.080 Y12.793
G1 X30.143 Y12.771
G1 X30.206 Y12.749
G1 X30.269 Y12.726
G1 X30.332 Y12.704
G1 X30.395 Y12.681
G1 X30.457 Y12.658
G1 X30.518 Y12.636
G1 X30.579 Y12.613
G1 X30.639 Y12.590
G1 X30.698 Y12.568
G1 X30.756 Y12.545
G1 X30.812 Y12.523
G1 X30.866 Y12.502
G1 X30.919 Y12.480
G1 X30.970 Y12.459
G1 X31.018 Y12.439
G1 X31.065 Y12.419
G1 X31.109 Y12.399
G1 X31.150 Y12.381
G1 X31.189 Y12.363
G1 X31.269 Y12.326
G1 X31.349 Y12.290
G1 X31.430 Y12.254
G1 X31.512 Y12.218
G1 X31.595 Y12.181
G1 X31.679 Y12.145
G1 X31.763 Y12.108
G1 X31.848 Y12.072
G1 X31.935 Y12.035
G1 X32.022 Y11.999
G1 X32.111 Y11.962
G1 X32.200 Y11.925
G1 X32.291 Y11.888
G1 X32.383 Y11.850
G1 X32.476 Y11.813
G1 X32.571 Y11.775
G1 X32.667 Y11.737
G1 X32.764 Y11.699
G1 X32.863 Y11.660
G1 X32.963 Y11.621
G1 X33.065 Y11.582
G1 X33.168 Y11.543
G1 X33.273 Y11.503
G1 X33.380 Y11.463
G1 X33.488 Y11.423
G1 X33.598 Y11.382
G1 X33.710 Y11.340
G1 X33.824 Y11.299
G1 X33.939 Y11.257
G1 X34.057 Y11.214
G1 X34.176 Y11.171
G1 X34.298 Y11.127
G1 X34.421 Y11.083
G1 X34.547 Y11.038
G1 X34.675 Y10.993
G1 X34.805 Y10.947
G1 X34.938 Y10.901
G1 X35.072 Y10.854
G1 X35.209 Y10.807
G1 X35.349 Y10.758
G1 X35.491 Y10.710
G1 X35.635 Y10.660
G1 X35.782 Y10.610
G1 X35.931 Y10.559
G1 X36.083 Y10.507
G1 X36.238 Y10.455
G1 X36.395 Y10.402
G1 X36.555 Y10.348
G1 X36.718 Y10.293
G1 X36.884 Y10.238
G1 X37.100 Y10.166
G1 X37.313 Y10.097
G1 X37.522 Y10.030
G1 X37.727 Y9.964
G1 X37.930 Y9.900
G1 X38.128 Y9.838
G1 X38.324 Y9.777
G1 X38.516 Y9.719
G1 X38.705 Y9.662
G1 X38.891 Y9.606
G1 X39.074 Y9.553
G1 X39.254 Y9.501
G1 X39.432 Y9.451
G1 X39.607 Y9.402
G1 X39.778 Y9.356
G1 X39.948 Y9.310
G1 X40.115 Y9.267
G1 X40.279 Y9.225
G1 X40.441 Y9.184
G1 X40.601 Y9.145
G1 X40.759 Y9.108
G1 X40.914 Y9.072
G1 X41.068 Y9.038
G1 X41.219 Y9.005
G1 X41.369 Y8.974
G1 X41.516 Y8.944
G1 X41.662 Y8.915
G1 X41.807 Y8.888
G1 X41.949 Y8.863
G1 X42.091 Y8.838
G1 X42.230 Y8.816
G1 X42.369 Y8.794
G1 X42.506 Y8.774
G1 X42.642 Y8.755
G1 X42.776 Y8.738
G1 X42.910 Y8.722
G1 X43.043 Y8.707
G1 X43.175 Y8.694
G1 X43.306 Y8.681
G1 X43.436 Y8.670
G1 X43.565 Y8.660
G1 X43.694 Y8.652
G1 X43.823 Y8.645
G1 X43.951 Y8.638
G1 X44.078 Y8.633
G1 X44.206 Y8.629
G1 X44.333 Y8.627
G1 X44.460 Y8.625
G1 X44.587 Y8.625
G1 X44.714 Y8.625
G1 X44.827 Y8.626
G1 X44.939 Y8.629
G1 X45.048 Y8.632
G1 X45.155 Y8.636
G1 X45.260 Y8.642
G1 X45.364 Y8.648
G1 X45.466 Y8.656
G1 X45.567 Y8.665
G1 X45.666 Y8.676
G1 X45.765 Y8.687
G1 X45.863 Y8.700
G1 X45.960 Y8.715
G1 X46.057 Y8.731
G1 X46.154 Y8.748
G1 X46.250 Y8.767
G1 X46.346 Y8.788
G1 X46.443 Y8.810
G1 X46.540 Y8.834
G1 X46.638 Y8.859
G1 X46.737 Y8.887
G1 X46.836 Y8.916
G1 X46.937 Y8.946
G1 X47.039 Y8.979
G1 X47.143 Y9.014
G1 X47.248 Y9.050
G1 X47.355 Y9.089
G1 X47.464 Y9.130
G1 X47.575 Y9.173
G1 X47.688 Y9.217
G1 X47.804 Y9.264
G1 X47.923 Y9.314
G1 X48.044 Y9.365
G1 X48.169 Y9.419
G1 X48.297 Y9.475
G1 X48.428 Y9.534
G1 X48.563 Y9.595
G1 X48.623 Y9.622
G1 X48.683 Y9.650
G1 X48.743 Y9.677
G1 X48.802 Y9.703
G1 X48.861 Y9.729
G1 X48.920 Y9.755
G1 X48.978 Y9.780
G1 X49.036 Y9.804
G1 X49.093 Y9.828
G1 X49.148 Y9.851
G1 X49.203 Y9.874
G1 X49.257 Y9.896
G1 X49.309 Y9.917
G1 X49.361 Y9.937
G1 X49.410 Y9.956
G1 X49.458 Y9.974
G1 X49.505 Y9.992
G1 X49.549 Y10.008
G1 X49.592 Y10.024
G1 X49.632 Y10.038
G1 X49.671 Y10.052
G1 X49.707 Y10.064
G1 X49.741 Y10.075
G1 X49.772 Y10.085
G1 X49.801 Y10.094
G1 X49.826 Y10.102
G1 X49.850 Y10.108
G1 X49.870 Y10.113
G1 X49.887 Y10.116
G1 X49.910 Y10.119
G1 X49.934 Y10.121
G1 X49.960 Y10.121
G1 X49.987 Y10.120
G1 X50.015 Y10.118
G1 X50.045 Y10.114
G1 X50.076 Y10.109
G1 X50.108 Y10.103
G1 X50.143 Y10.096
G1 X50.178 Y10.087
G1 X50.216 Y10.077
G1 X50.255 Y10.065
G1 X50.296 Y10.052
G1 X50.338 Y10.038
G1 X50.383 Y10.022
G1 X50.429 Y10.005
G1 X50.477 Y9.986
G1 X50.527 Y9.965
G1 X50.579 Y9.943
G1 X50.634 Y9.920
G1 X50.690 Y9.894
G1 X50.748 Y9.868
G1 X50.809 Y9.839
G1 X50.872 Y9.809
G1 X50.937 Y9.777
G1 X51.005 Y9.744
G1 X51.084 Y9.706
G1 X51.163 Y9.668
G1 X51.244 Y9.630
G1 X51.326 Y9.593
G1 X51.409 Y9.556
G1 X51.493 Y9.519
G1 X51.577 Y9.483
G1 X51.662 Y9.447
G1 X51.749 Y9.412
G1 X51.835 Y9.377
G1 X51.922 Y9.342
G1 X52.010 Y9.308
G1 X52.098 Y9.274
G1 X52.187 Y9.241
G1 X52.275 Y9.208
G1 X52.364 Y9.176
G1 X52.454 Y9.144
G1 X52.543 Y9.113
G1 X52.632 Y9.083
G1 X52.722 Y9.053
G1 X52.811 Y9.024
G1 X52.900 Y8.996
G1 X52.988 Y8.968
G1 X53.077 Y8.941
G1 X53.165 Y8.915
G1 X53.253 Y8.890
G1 X53.340 Y8.866
G1 X53.426 Y8.842
G1 X53.512 Y8.819
G1 X53.597 Y8.797
G1 X53.682 Y8.776
G1 X53.765 Y8.756
G1 X53.848 Y8.737
G1 X53.930 Y8.720
G1 X54.014 Y8.704
G1 X54.102 Y8.689
G1 X54.192 Y8.676
G1 X54.285 Y8.664
G1 X54.380 Y8.653
G1 X54.478 Y8.644
G1 X54.578 Y8.636
G1 X54.681 Y8.629
G1 X54.786 Y8.623
G1 X54.894 Y8.619
G1 X55.004 Y8.616
G1 X55.115 Y8.614
G1 X55.229 Y8.614
G1 X55.345 Y8.614
G1 X55.463 Y8.616
G1 X55.583 Y8.619
G1 X55.705 Y8.624
G1 X55.829 Y8.629
G1 X55.954 Y8.636
G1 X56.081 Y8.644
G1 X56.210 Y8.653
G1 X56.340 Y8.664
G1 X56.471 Y8.675
G1 X56.604 Y8.688
G1 X56.739 Y8.702
G1 X56.875 Y8.717
G1 X57.011 Y8.734
G1 X57.150 Y8.751
G1 X57.289 Y8.770
G1 X57.429 Y8.790
G1 X57.570 Y8.810
G1 X57.713 Y8.833
G1 X57.856 Y8.856
G1 X58.000 Y8.880
G1 X58.144 Y8.906
G1 X58.290 Y8.932
G1 X58.436 Y8.960
G1 X58.582 Y8.989
G1 X58.729 Y9.019
G1 X58.876 Y9.050
G1 X59.024 Y9.082
G1 X59.172 Y9.115
G1 X59.321 Y9.150
G1 X59.469 Y9.185
G1 X59.618 Y9.221
G1 X59.767 Y9.259
G1 X59.906 Y9.295
G1 X60.043 Y9.330
G1 X60.176 Y9.365
G1 X60.306 Y9.399
G1 X60.434 Y9.433
G1 X60.558 Y9.466
G1 X60.680 Y9.499
G1 X60.799 Y9.531
G1 X60.916 Y9.563
G1 X61.031 Y9.594
G1 X61.144 Y9.625
G1 X61.255 Y9.656
G1 X61.364 Y9.686
G1 X61.472 Y9.716
G1 X61.578 Y9.747
G1 X61.683 Y9.776
G1 X61.786 Y9.806
G1 X61.889 Y9.836
G1 X61.990 Y9.866
G1 X62.091 Y9.896
G1 X62.192 Y9.926
G1 X62.292 Y9.956
G1 X62.391 Y9.986
G1 X62.491 Y10.016
G1 X62.590 Y10.046
G1 X62.689 Y10.077
G1 X62.789 Y10.108
G1 X62.889 Y10.140
G1 X62.990 Y10.171
G1 X63.092 Y10.204
G1 X63.194 Y10.236
G1 X63.297 Y10.269
G1 X63.402 Y10.303
G1 X63.485 Y10.330
G1 X63.567 Y10.357
G1 X63.647 Y10.383
G1 X63.726 Y10.410
G1 X63.805 Y10.436
G1 X63.882 Y10.462
G1 X63.959 Y10.488
G1 X64.036 Y10.514
G1 X64.112 Y10.540
G1 X64.189 Y10.566
G1 X64.265 Y10.592
G1 X64.342 Y10.619
G1 X64.419 Y10.646
G1 X64.497 Y10.674
G1 X64.575 Y10.702
G1 X64.655 Y10.730
G1 X64.736 Y10.759
G1 X64.818 Y10.789
G1 X64.901 Y10.819
G1 X64.986 Y10.850
G1 X65.073 Y10.883
G1 X65.162 Y10.916
G1 X65.253 Y10.950
G1 X65.347 Y10.985
G1 X65.442 Y11.021
G1 X65.541 Y11.058
G1 X65.643 Y11.097
G1 X65.747 Y11.136
G1 X65.855 Y11.178
G1 X65.966 Y11.220
G1 X66.081 Y11.264
G1 X66.199 Y11.310
G1 X66.321 Y11.357
G1 X66.447 Y11.406
G1 X66.578 Y11.457
G1 X66.713 Y11.510
G1 X66.852 Y11.564
G1 X66.997 Y11.620
G1 X67.146 Y11.679
G1 X67.300 Y11.739
G1 X67.459 Y11.802
G1 X67.624 Y11.866
G1 X67.795 Y11.933
G1 X67.971 Y12.003
G1 X68.153 Y12.074
G1 X68.342 Y12.148
G1 X68.510 Y12.214
G1 X68.668 Y12.276
G1 X68.817 Y12.334
G1 X68.957 Y12.388
G1 X69.088 Y12.439
G1 X69.212 Y12.487
G1 X69.329 Y12.531
G1 X69.439 Y12.573
G1 X69.542 Y12.612
G1 X69.640 Y12.648
G1 X69.733 Y12.682
G1 X69.821 Y12.713
G1 X69.905 Y12.742
G1 X69.986 Y12.769
G1 X70.063 Y12.795
G1 X70.138 Y12.818
G1 X70.211 Y12.841
G1 X70.283 Y12.861
G1 X70.353 Y12.881
G1 X70.423 Y12.899
G1 X70.493 Y12.917
G1 X70.564 Y12.934
G1 X70.636 Y12.950
G1 X70.709 Y12.966
G1 X70.785 Y12.982
G1 X70.863 Y12.998
G1 X70.945 Y13.014
G1 X71.031 Y13.030
G1 X71.121 Y13.046
G1 X71.215 Y13.063
G1 X71.315 Y13.080
G1 X71.430 Y13.101
G1 X71.542 Y13.119
G1 X71.651 Y13.134
G1 X71.758 Y13.147
G1 X71.863 Y13.158
G1 X71.966 Y13.165
G1 X72.066 Y13.171
G1 X72.166 Y13.174
G1 X72.263 Y13.174
G1 X72.359 Y13.171
G1 X72.454 Y13.166
G1 X72.547 Y13.159
G1 X72.640 Y13.148
G1 X72.732 Y13.135
G1 X72.823 Y13.119
G1 X72.914 Y13.100
G1 X73.004 Y13.079
G1 X73.094 Y13.054
G1 X73.185 Y13.027
G1 X73.275 Y12.997
G1 X73.366 Y12.964
G1 X73.458 Y12.928
G1 X73.550 Y12.889
G1 X73.643 Y12.847
G1 X73.737 Y12.802
G1 X73.832 Y12.754
G1 X73.881 Y12.729
G1 X73.934 Y12.701
G1 X73.990 Y12.670
G1 X74.049 Y12.637
G1 X74.111 Y12.602
G1 X74.176 Y12.564
G1 X74.243 Y12.524
G1 X74.313 Y12.483
G1 X74.386 Y12.439
G1 X74.461 Y12.393
G1 X74.538 Y12.345
G1 X74.617 Y12.296
G1 X74.698 Y12.245
G1 X74.781 Y12.193
G1 X74.865 Y12.139
G1 X74.951 Y12.084
G1 X75.038 Y12.028
G1 X75.126 Y11.971
G1 X75.215 Y11.912
G1 X75.306 Y11.853
G1 X75.397 Y11.792
G1 X75.488 Y11.732
G1 X75.580 Y11.670
G1 X75.673 Y11.608
G1 X75.766 Y11.545
G1 X75.859 Y11.482
G1 X75.951 Y11.418
G1 X76.044 Y11.355
G1 X76.136 Y11.291
G1 X76.228 Y11.228
G1 X76.319 Y11.164
G1 X76.410 Y11.101
G1 X76.500 Y11.037
G1 X76.588 Y10.975
G1 X76.676 Y10.912
G1 X76.762 Y10.851
G1 X76.847 Y10.790
G1 X76.930 Y10.729
G1 X77.011 Y10.670
G1 X77.091 Y10.611
G1 X77.169 Y10.554
G1 X77.244 Y10.497
G1 X77.317 Y10.442
G1 X77.388 Y10.388
G1 X77.457 Y10.336
G1 X77.522 Y10.285
G1 X77.585 Y10.235
G1 X77.645 Y10.188
G1 X77.702 Y10.142
G1 X77.756 Y10.098
G1 X77.823 Y10.042
G1 X77.891 Y9.985
G1 X77.960 Y9.926
G1 X78.030 Y9.866
G1 X78.101 Y9.805
G1 X78.173 Y9.742
G1 X78.245 Y9.678
G1 X78.318 Y9.612
G1 X78.392 Y9.546
G1 X78.467 Y9.478
G1 X78.541 Y9.410
G1 X78.616 Y9.341
G1 X78.692 Y9.270
G1 X78.768 Y9.199
G1 X78.844 Y9.128
G1 X78.920 Y9.056
G1 X78.996 Y8.983
G1 X79.072 Y8.910
G1 X79.148 Y8.836
G1 X79.224 Y8.762
G1 X79.300 Y8.688
G1 X79.375 Y8.613
G1 X79.450 Y8.539
G1 X79.524 Y8.464
G1 X79.598 Y8.390
G1 X79.672 Y8.315
G1 X79.745 Y8.241
G1 X79.817 Y8.167
G1 X79.888 Y8.093
G1 X79.958 Y8.020
G1 X80.028 Y7.947
G1 X80.096 Y7.875
G1 X80.164 Y7.803
G1 X80.230 Y7.732
G1 X80.295 Y7.661
G1 X80.359 Y7.592
G1 X80.421 Y7.523
G1 X80.482 Y7.455
G1 X80.542 Y7.388
G1 X80.600 Y7.323
G1 X80.656 Y7.258
G1 X80.711 Y7.195
G1 X80.764 Y7.133
G1 X80.815 Y7.072
G1 X80.864 Y7.013
G1 X80.911 Y6.955
G1 X80.956 Y6.899
G1 X80.999 Y6.845
G1 X81.074 Y6.749
G1 X81.145 Y6.659
G1 X81.212 Y6.573
G1 X81.275 Y6.493
G1 X81.335 Y6.417
G1 X81.391 Y6.346
G1 X81.444 Y6.279
G1 X81.494 Y6.217
G1 X81.540 Y6.159
G1 X81.584 Y6.105
G1 X81.625 Y6.055
G1 X81.663 Y6.009
G1 X81.698 Y5.967
G1 X81.732 Y5.928
G1 X81.762 Y5.893
G1 X81.791 Y5.861
G1 X81.818 Y5.832
G1 X81.842 Y5.806
G1 X81.865 Y5.783
G1 X81.886 Y5.763
G1 X81.905 Y5.746
G1 X81.923 Y5.731
G1 X81.940 Y5.718
G1 X81.955 Y5.708
G1 X81.970 Y5.700
G1 X81.983 Y5.694
G1 X81.996 Y5.690
G1 X82.008 Y5.687
G1 X82.019 Y5.686
G1 X82.030 Y5.687
G1 X82.040 Y5.689
G1 X82.050 Y5.692
G1 X82.060 Y5.697
G1 X82.070 Y5.702
G1 X82.081 Y5.708
G1 X82.093 Y5.717
G1 X82.104 Y5.728
G1 X82.114 Y5.741
G1 X82.123 Y5.755
G1 X82.130 Y5.772
G1 X82.137 Y5.791
G1 X82.142 Y5.812
G1 X82.146 Y5.836
G1 X82.149 Y5.862
G1 X82.151 Y5.891
G1 X82.151 Y5.922
G1 X82.150 Y5.957
G1 X82.148 Y5.995
G1 X82.144 Y6.036
G1 X82.139 Y6.080
G1 X82.133 Y6.128
G1 X82.126 Y6.179
G1 X82.117 Y6.234
G1 X82.106 Y6.293
G1 X82.094 Y6.355
G1 X82.081 Y6.422
G1 X82.066 Y6.493
G1 X82.050 Y6.569
G1 X82.032 Y6.649
G1 X82.013 Y6.733
G1 X81.992 Y6.823
G1 X81.969 Y6.917
G1 X81.945 Y7.016
G1 X81.920 Y7.120
G1 X81.893 Y7.229
G1 X81.864 Y7.344
G1 X81.833 Y7.465
G1 X81.801 Y7.591
G1 X81.770 Y7.710
G1 X81.741 Y7.824
G1 X81.712 Y7.934
G1 X81.683 Y8.039
G1 X81.655 Y8.141
G1 X81.627 Y8.239
G1 X81.599 Y8.334
G1 X81.571 Y8.426
G1 X81.542 Y8.516
G1 X81.514 Y8.604
G1 X81.484 Y8.691
G1 X81.454 Y8.776
G1 X81.424 Y8.860
G1 X81.392 Y8.944
G1 X81.359 Y9.028
G1 X81.325 Y9.113
G1 X81.290 Y9.197
G1 X81.253 Y9.283
G1 X81.214 Y9.371
G1 X81.174 Y9.460
G1 X81.131 Y9.551
G1 X81.087 Y9.645
G1 X81.040 Y9.742
G1 X80.990 Y9.843
G1 X80.939 Y9.946
G1 X80.884 Y10.054
G1 X80.827 Y10.167
G1 X80.766 Y10.284
G1 X80.705 Y10.404
G1 X80.645 Y10.520
G1 X80.586 Y10.631
G1 X80.528 Y10.737
G1 X80.471 Y10.840
G1 X80.414 Y10.939
G1 X80.358 Y11.035
G1 X80.303 Y11.127
G1 X80.247 Y11.216
G1 X80.191 Y11.303
G1 X80.135 Y11.386
G1 X80.078 Y11.467
G1 X80.021 Y11.546
G1 X79.963 Y11.623
G1 X79.905 Y11.698
G1 X79.845 Y11.771
G1 X79.784 Y11.843
G1 X79.721 Y11.913
G1 X79.657 Y11.983
G1 X79.591 Y12.052
G1 X79.523 Y12.120
G1 X79.452 Y12.188
G1 X79.380 Y12.256
G1 X79.305 Y12.324
G1 X79.227 Y12.392
G1 X79.147 Y12.460
G1 X79.063 Y12.530
G1 X78.977 Y12.600
G1 X78.887 Y12.671
G1 X78.793 Y12.744
G1 X78.696 Y12.818
G1 X78.595 Y12.894
G1 X78.554 Y12.925
G1 X78.513 Y12.957
G1 X78.471 Y12.989
G1 X78.430 Y13.021
G1 X78.389 Y13.053
G1 X78.349 Y13.084
G1 X78.308 Y13.116
G1 X78.269 Y13.148
G1 X78.230 Y13.179
G1 X78.191 Y13.210
G1 X78.153 Y13.240
G1 X78.117 Y13.270
G1 X78.081 Y13.300
G1 X78.046 Y13.328
G1 X78.013 Y13.356
G1 X77.981 Y13.383
G1 X77.950 Y13.410
G1 X77.921 Y13.435
G1 X77.893 Y13.459
G1 X77.868 Y13.482
G1 X77.844 Y13.504
G1 X77.822 Y13.525
G1 X77.802 Y13.544
G1 X77.784 Y13.562
G1 X77.769 Y13.578
G1 X77.756 Y13.593
G1 X77.721 Y13.632
G1 X77.691 Y13.666
G1 X77.666 Y13.696
G1 X77.647 Y13.722
G1 X77.633 Y13.746
G1 X77.625 Y13.766
G1 X77.622 Y13.785
G1 X77.624 Y13.803
G1 X77.631 Y13.821
G1 X77.644 Y13.839
G1 X77.662 Y13.858
G1 X77.685 Y13.879
G1 X77.713 Y13.902
G1 X77.746 Y13.929
G1 X77.773 Y13.945
G1 X77.804 Y13.960
G1 X77.839 Y13.974
G1 X77.877 Y13.985
G1 X77.919 Y13.995
G1 X77.965 Y14.002
G1 X78.014 Y14.009
G1 X78.067 Y14.013
G1 X78.122 Y14.016
G1 X78.180 Y14.017
G1 X78.242 Y14.017
G1 X78.305 Y14.015
G1 X78.372 Y14.011
G1 X78.440 Y14.006
G1 X78.511 Y14.000
G1 X78.584 Y13.992
G1 X78.659 Y13.982
G1 X78.735 Y13.971
G1 X78.814 Y13.959
G1 X78.893 Y13.945
G1 X78.974 Y13.930
G1 X79.056 Y13.914
G1 X79.140 Y13.896
G1 X79.224 Y13.878
G1 X79.309 Y13.857
G1 X79.394 Y13.836
G1 X79.480 Y13.814
G1 X79.566 Y13.790
G1 X79.652 Y13.765
G1 X79.738 Y13.739
G1 X79.825 Y13.712
G1 X79.910 Y13.684
G1 X79.996 Y13.655
G1 X80.080 Y13.625
G1 X80.165 Y13.594
G1 X80.248 Y13.562
G1 X80.330 Y13.529
G1 X80.411 Y13.495
G1 X80.490 Y13.460
G1 X80.569 Y13.425
G1 X80.645 Y13.388
G1 X80.739 Y13.342
G1 X80.834 Y13.293
G1 X80.929 Y13.241
G1 X81.026 Y13.187
G1 X81.123 Y13.130
G1 X81.220 Y13.070
G1 X81.319 Y13.007
G1 X81.418 Y12.942
G1 X81.517 Y12.875
G1 X81.617 Y12.805
G1 X81.717 Y12.733
G1 X81.818 Y12.658
G1 X81.919 Y12.582
G1 X82.021 Y12.502
G1 X82.122 Y12.421
G1 X82.224 Y12.337
G1 X82.326 Y12.252
G1 X82.428 Y12.164
G1 X82.531 Y12.074
G1 X82.633 Y11.983
G1 X82.735 Y11.889
G1 X82.837 Y11.793
G1 X82.939 Y11.696
G1 X83.041 Y11.597
G1 X83.142 Y11.496
G1 X83.243 Y11.393
G1 X83.344 Y11.289
G1 X83.445 Y11.183
G1 X83.545 Y11.076
G1 X83.644 Y10.967
G1 X83.743 Y10.856
G1 X83.842 Y10.744
G1 X83.940 Y10.631
G1 X84.037 Y10.517
G1 X84.134 Y10.401
G1 X84.229 Y10.284
G1 X84.324 Y10.166
G1 X84.419 Y10.046
G1 X84.512 Y9.926
G1 X84.604 Y9.804
G1 X84.695 Y9.682
G1 X84.786 Y9.558
G1 X84.875 Y9.434
G1 X84.963 Y9.308
G1 X85.050 Y9.182
G1 X85.135 Y9.055
G1 X85.219 Y8.928
G1 X85.302 Y8.800
G1 X85.384 Y8.671
G1 X85.464 Y8.541
G1 X85.510 Y8.468
G1 X85.554 Y8.400
G1 X85.595 Y8.337
G1 X85.634 Y8.277
G1 X85.672 Y8.222
G1 X85.707 Y8.172
G1 X85.740 Y8.125
G1 X85.773 Y8.083
G1 X85.803 Y8.044
G1 X85.832 Y8.009
G1 X85.860 Y7.978
G1 X85.888 Y7.950
G1 X85.914 Y7.926
G1 X85.939 Y7.905
G1 X85.964 Y7.887
G1 X85.989 Y7.873
G1 X86.013 Y7.861
G1 X86.036 Y7.852
G1 X86.060 Y7.846
G1 X86.084 Y7.843
G1 X86.108 Y7.842
G1 X86.133 Y7.843
G1 X86.158 Y7.847
G1 X86.184 Y7.852
G1 X86.210 Y7.860
G1 X86.238 Y7.870
G1 X86.264 Y7.885
G1 X86.288 Y7.907
G1 X86.309 Y7.936
G1 X86.327 Y7.972
G1 X86.343 Y8.015
G1 X86.356 Y8.063
G1 X86.366 Y8.118
G1 X86.374 Y8.179
G1 X86.379 Y8.246
G1 X86.382 Y8.318
G1 X86.383 Y8.395
G1 X86.381 Y8.477
G1 X86.377 Y8.564
G1 X86.371 Y8.656
G1 X86.362 Y8.752
G1 X86.352 Y8.852
G1 X86.339 Y8.957
G1 X86.324 Y9.064
G1 X86.307 Y9.176
G1 X86.289 Y9.290
G1 X86.268 Y9.408
G1 X86.246 Y9.528
G1 X86.221 Y9.651
G1 X86.195 Y9.777
G1 X86.168 Y9.904
G1 X86.138 Y10.034
G1 X86.107 Y10.165
G1 X86.075 Y10.298
G1 X86.041 Y10.432
G1 X86.005 Y10.567
G1 X85.969 Y10.703
G1 X85.930 Y10.840
G1 X85.891 Y10.977
G1 X85.850 Y11.114
G1 X85.808 Y11.251
G1 X85.765 Y11.388
G1 X85.720 Y11.525
G1 X85.675 Y11.660
G1 X85.628 Y11.795
G1 X85.581 Y11.929
G1 X85.533 Y12.061
G1 X85.483 Y12.192
G1 X85.433 Y12.321
G1 X85.382 Y12.448
G1 X85.331 Y12.573
G1 X85.278 Y12.695
G1 X85.225 Y12.815
G1 X85.172 Y12.931
G1 X85.118 Y13.045
G1 X85.063 Y13.155
G1 X85.001 Y13.277
G1 X84.937 Y13.399
G1 X84.872 Y13.519
G1 X84.806 Y13.639
G1 X84.738 Y13.758
G1 X84.668 Y13.876
G1 X84.598 Y13.993
G1 X84.526 Y14.110
G1 X84.453 Y14.225
G1 X84.378 Y14.340
G1 X84.302 Y14.453
G1 X84.225 Y14.566
G1 X84.147 Y14.678
G1 X84.068 Y14.788
G1 X83.987 Y14.898
G1 X83.906 Y15.006
G1 X83.823 Y15.113
G1 X83.739 Y15.219
G1 X83.655 Y15.324
G1 X83.569 Y15.428
G1 X83.482 Y15.531
G1 X83.394 Y15.632
G1 X83.305 Y15.732
G1 X83.215 Y15.831
G1 X83.125 Y15.928
G1 X83.033 Y16.024
G1 X82.940 Y16.119
G1 X82.847 Y16.212
G1 X82.753 Y16.304
G1 X82.658 Y16.394
G1 X82.562 Y16.483
G1 X82.466 Y16.571
G1 X82.369 Y16.657
G1 X82.271 Y16.741
G1 X82.172 Y16.824
G1 X82.073 Y16.905
G1 X81.973 Y16.985
G1 X81.872 Y17.063
G1 X81.771 Y17.140
G1 X81.670 Y17.214
G1 X81.567 Y17.287
G1 X81.465 Y17.358
G1 X81.361 Y17.428
G1 X81.258 Y17.495
G1 X81.153 Y17.561
G1 X81.049 Y17.625
G1 X80.944 Y17.687
G1 X80.838 Y17.747
G1 X80.733 Y17.806
G1 X80.627 Y17.862
G1 X80.530 Y17.912
G1 X80.436 Y17.960
G1 X80.343 Y18.006
G1 X80.253 Y18.050
G1 X80.165 Y18.091
G1 X80.079 Y18.131
G1 X79.994 Y18.168
G1 X79.911 Y18.204
G1 X79.829 Y18.238
G1 X79.748 Y18.270
G1 X79.668 Y18.300
G1 X79.589 Y18.328
G1 X79.510 Y18.355
G1 X79.433 Y18.379
G1 X79.355 Y18.403
G1 X79.278 Y18.424
G1 X79.202 Y18.444
G1 X79.125 Y18.463
G1 X79.048 Y18.480
G1 X78.970 Y18.495
G1 X78.892 Y18.509
G1 X78.814 Y18.522
G1 X78.735 Y18.533
G1 X78.655 Y18.544
G1 X78.574 Y18.552
G1 X78.491 Y18.560
G1 X78.408 Y18.567
G1 X78.323 Y18.572
G1 X78.236 Y18.576
G1 X78.147 Y18.580
G1 X78.081 Y18.581
G1 X78.015 Y18.583
G1 X77.951 Y18.586
G1 X77.888 Y18.588
G1 X77.827 Y18.591
G1 X77.768 Y18.595
G1 X77.711 Y18.598
G1 X77.656 Y18.602
G1 X77.604 Y18.606
G1 X77.555 Y18.610
G1 X77.509 Y18.614
G1 X77.467 Y18.619
G1 X77.428 Y18.623
G1 X77.392 Y18.628
G1 X77.361 Y18.632
G1 X77.334 Y18.637
G1 X77.311 Y18.641
G1 X77.293 Y18.646
G1 X77.279 Y18.650
G1 X77.271 Y18.654
G1 X77.269 Y18.659
G1 X77.269 Y18.666
G1 X77.272 Y18.676
G1 X77.277 Y18.688
G1 X77.285 Y18.703
G1 X77.294 Y18.720
G1 X77.306 Y18.739
G1 X77.320 Y18.761
G1 X77.336 Y18.784
G1 X77.354 Y18.810
G1 X77.374 Y18.838
G1 X77.396 Y18.868
G1 X77.420 Y18.899
G1 X77.445 Y18.933
G1 X77.473 Y18.968
G1 X77.502 Y19.005
G1 X77.533 Y19.043
G1 X77.565 Y19.083
G1 X77.599 Y19.125
G1 X77.634 Y19.168
G1 X77.671 Y19.212
G1 X77.709 Y19.258
G1 X77.748 Y19.305
G1 X77.789 Y19.353
G1 X77.831 Y19.403
G1 X77.874 Y19.453
G1 X77.918 Y19.504
G1 X77.964 Y19.557
G1 X78.010 Y19.610
G1 X78.057 Y19.664
G1 X78.105 Y19.719
G1 X78.154 Y19.774
G1 X78.204 Y19.830
G1 X78.254 Y19.886
G1 X78.306 Y19.943
G1 X78.357 Y20.001
G1 X78.410 Y20.059
G1 X78.463 Y20.117
G1 X78.516 Y20.175
G1 X78.570 Y20.234
G1 X78.624 Y20.292
G1 X78.679 Y20.351
G1 X78.743 Y20.421
G1 X78.809 Y20.495
G1 X78.876 Y20.572
G1 X78.944 Y20.654
G1 X79.013 Y20.739
G1 X79.084 Y20.827
G1 X79.155 Y20.919
G1 X79.228 Y21.014
G1 X79.302 Y21.112
G1 X79.376 Y21.214
G1 X79.452 Y21.319
G1 X79.528 Y21.427
G1 X79.606 Y21.538
G1 X79.684 Y21.651
G1 X79.763 Y21.768
G1 X79.842 Y21.888
G1 X79.923 Y22.010
G1 X80.004 Y22.135
G1 X80.085 Y22.263
G1 X80.167 Y22.393
G1 X80.250 Y22.526
G1 X80.333 Y22.661
G1 X80.416 Y22.798
G1 X80.500 Y22.938
G1 X80.585 Y23.079
G1 X80.669 Y23.223
G1 X80.754 Y23.369
G1 X80.839 Y23.517
G1 X80.924 Y23.667
G1 X81.010 Y23.819
G1 X81.095 Y23.972
G1 X81.181 Y24.128
G1 X81.267 Y24.285
G1 X81.352 Y24.443
G1 X81.438 Y24.603
G1 X81.523 Y24.764
G1 X81.609 Y24.927
G1 X81.694 Y25.091
G1 X81.779 Y25.257
G1 X81.863 Y25.423
G1 X81.948 Y25.591
G1 X82.032 Y25.759
G1 X82.115 Y25.929
G1 X82.199 Y26.099
G1 X82.281 Y26.270
G1 X82.364 Y26.442
G1 X82.445 Y26.615
G1 X82.526 Y26.788
G1 X82.607 Y26.962
G1 X82.686 Y27.136
G1 X82.724 Y27.222
G1 X82.757 Y27.300
G1 X82.784 Y27.371
G1 X82.806 Y27.436
G1 X82.821 Y27.494
G1 X82.830 Y27.545
G1 X82.832 Y27.591
G1 X82.827 Y27.631
G1 X82.815 Y27.666
G1 X82.796 Y27.695
G1 X82.769 Y27.720
G1 X82.734 Y27.741
G1 X82.691 Y27.757
G1 X82.639 Y27.770
G1 X82.579 Y27.778
G1 X82.510 Y27.784
G1 X82.431 Y27.787
G1 X82.343 Y27.787
G1 X82.245 Y27.784
G1 X82.137 Y27.779
G1 X82.078 Y27.776
G1 X82.017 Y27.772
G1 X81.953 Y27.767
G1 X81.888 Y27.761
G1 X81.822 Y27.754
G1 X81.755 Y27.747
G1 X81.686 Y27.739
G1 X81.618 Y27.730
G1 X81.550 Y27.721
G1 X81.482 Y27.712
G1 X81.414 Y27.702
G1 X81.348 Y27.691
G1 X81.283 Y27.680
G1 X81.220 Y27.669
G1 X81.159 Y27.658
G1 X81.101 Y27.647
G1 X81.045 Y27.635
G1 X80.992 Y27.623
G1 X80.943 Y27.612
G1 X80.896 Y27.600
G1 X80.850 Y27.589
G1 X80.804 Y27.579
G1 X80.758 Y27.570
G1 X80.714 Y27.561
G1 X80.671 Y27.553
G1 X80.629 Y27.546
G1 X80.589 Y27.540
G1 X80.551 Y27.535
G1 X80.514 Y27.530
G1 X80.480 Y27.527
G1 X80.448 Y27.524
G1 X80.419 Y27.523
G1 X80.393 Y27.522
G1 X80.369 Y27.523
G1 X80.349 Y27.525
G1 X80.332 Y27.528
G1 X80.319 Y27.532
G1 X80.310 Y27.537
G1 X80.293 Y27.549
G1 X80.279 Y27.563
G1 X80.267 Y27.579
G1 X80.257 Y27.598
G1 X80.249 Y27.620
G1 X80.244 Y27.643
G1 X80.241 Y27.669
G1 X80.240 Y27.697
G1 X80.241 Y27.727
G1 X80.244 Y27.759
G1 X80.249 Y27.793
G1 X80.256 Y27.829
G1 X80.265 Y27.867
G1 X80.277 Y27.907
G1 X80.290 Y27.948
G1 X80.305 Y27.991
G1 X80.322 Y28.036
G1 X80.341 Y28.082
G1 X80.362 Y28.130
G1 X80.385 Y28.178
G1 X80.410 Y28.229
G1 X80.436 Y28.280
G1 X80.464 Y28.333
G1 X80.494 Y28.387
G1 X80.526 Y28.442
G1 X80.560 Y28.498
G1 X80.595 Y28.555
G1 X80.632 Y28.612
G1 X80.670 Y28.671
G1 X80.710 Y28.730
G1 X80.730 Y28.758
G1 X80.750 Y28.788
G1 X80.773 Y28.820
G1 X80.796 Y28.855
G1 X80.822 Y28.891
G1 X80.848 Y28.930
G1 X80.876 Y28.971
G1 X80.905 Y29.014
G1 X80.935 Y29.058
G1 X80.967 Y29.104
G1 X80.999 Y29.152
G1 X81.032 Y29.201
G1 X81.067 Y29.252
G1 X81.102 Y29.303
G1 X81.138 Y29.357
G1 X81.175 Y29.411
G1 X81.212 Y29.466
G1 X81.250 Y29.523
G1 X81.289 Y29.580
G1 X81.328 Y29.638
G1 X81.368 Y29.696
G1 X81.408 Y29.756
G1 X81.449 Y29.815
G1 X81.490 Y29.876
G1 X81.531 Y29.936
G1 X81.572 Y29.997
G1 X81.613 Y30.058
G1 X81.654 Y30.119
G1 X81.696 Y30.179
G1 X81.737 Y30.240
G1 X81.778 Y30.301
G1 X81.819 Y30.361
G1 X81.860 Y30.420
G1 X81.901 Y30.480
G1 X81.941 Y30.538
G1 X81.973 Y30.586
G1 X82.006 Y30.635
G1 X82.041 Y30.686
G1 X82.078 Y30.739
G1 X82.116 Y30.794
G1 X82.155 Y30.850
G1 X82.196 Y30.908
G1 X82.238 Y30.967
G1 X82.281 Y31.028
G1 X82.325 Y31.090
G1 X82.371 Y31.153
G1 X82.417 Y31.218
G1 X82.465 Y31.283
G1 X82.513 Y31.350
G1 X82.562 Y31.417
G1 X82.613 Y31.486
G1 X82.664 Y31.555
G1 X82.715 Y31.625
G1 X82.767 Y31.696
G1 X82.820 Y31.768
G1 X82.874 Y31.840
G1 X82.928 Y31.912
G1 X82.982 Y31.985
G1 X83.037 Y32.058
G1 X83.092 Y32.131
G1 X83.147 Y32.205
G1 X83.203 Y32.278
G1 X83.259 Y32.352
G1 X83.315 Y32.426
G1 X83.371 Y32.499
G1 X83.427 Y32.572
G1 X83.483 Y32.645
G1 X83.539 Y32.718
G1 X83.594 Y32.790
G1 X83.650 Y32.862
G1 X83.705 Y32.933
G1 X83.760 Y33.004
G1 X83.815 Y33.074
G1 X83.869 Y33.143
G1 X83.922 Y33.211
G1 X83.976 Y33.279
G1 X84.028 Y33.345
G1 X84.080 Y33.410
G1 X84.131 Y33.474
G1 X84.270 Y33.649
G1 X84.409 Y33.825
G1 X84.548 Y34.000
G1 X84.686 Y34.174
G1 X84.823 Y34.349
G1 X84.960 Y34.523
G1 X85.096 Y34.696
G1 X85.231 Y34.869
G1 X85.365 Y35.040
G1 X85.498 Y35.211
G1 X85.630 Y35.380
G1 X85.761 Y35.548
G1 X85.890 Y35.714
G1 X86.017 Y35.879
G1 X86.143 Y36.042
G1 X86.267 Y36.203
G1 X86.390 Y36.362
G1 X86.510 Y36.519
G1 X86.629 Y36.673
G1 X86.745 Y36.826
G1 X86.859 Y36.975
G1 X86.970 Y37.122
G1 X87.079 Y37.266
G1 X87.186 Y37.406
G1 X87.290 Y37.544
G1 X87.391 Y37.678
G1 X87.489 Y37.809
G1 X87.584 Y37.937
G1 X87.676 Y38.060
G1 X87.765 Y38.180
G1 X87.851 Y38.296
G1 X87.933 Y38.408
G1 X88.012 Y38.515
G1 X88.087 Y38.618
G1 X88.158 Y38.716
G1 X88.225 Y38.810
G1 X88.289 Y38.899
G1 X88.348 Y38.983
G1 X88.403 Y39.062
G1 X88.455 Y39.135
G1 X88.501 Y39.203
G1 X88.543 Y39.266
G1 X88.581 Y39.323
G1 X88.614 Y39.374
G1 X88.642 Y39.419
G1 X88.665 Y39.459
G1 X88.684 Y39.491
G1 X88.697 Y39.518
G1 X88.705 Y39.538
G1 X88.708 Y39.552
G1 X88.706 Y39.560
G1 X88.702 Y39.570
G1 X88.695 Y39.581
G1 X88.686 Y39.593
G1 X88.674 Y39.607
G1 X88.659 Y39.622
G1 X88.643 Y39.638
G1 X88.624 Y39.654
G1 X88.603 Y39.672
G1 X88.581 Y39.691
G1 X88.556 Y39.710
G1 X88.530 Y39.730
G1 X88.502 Y39.751
G1 X88.473 Y39.772
G1 X88.442 Y39.794
G1 X88.410 Y39.816
G1 X88.376 Y39.838
G1 X88.342 Y39.861
G1 X88.306 Y39.883
G1 X88.270 Y39.906
G1 X88.233 Y39.929
G1 X88.195 Y39.952
G1 X88.149 Y39.980
G1 X88.105 Y40.007
G1 X88.064 Y40.034
G1 X88.024 Y40.060
G1 X87.987 Y40.086
G1 X87.952 Y40.112
G1 X87.919 Y40.136
G1 X87.889 Y40.161
G1 X87.860 Y40.185
G1 X87.834 Y40.208
G1 X87.809 Y40.231
G1 X87.787 Y40.253
G1 X87.767 Y40.275
G1 X87.749 Y40.296
G1 X87.734 Y40.317
G1 X87.720 Y40.337
G1 X87.709 Y40.357
G1 X87.699 Y40.376
G1 X87.692 Y40.394
G1 X87.687 Y40.412
G1 X87.683 Y40.429
G1 X87.682 Y40.446
G1 X87.683 Y40.458
G1 X87.686 Y40.472
G1 X87.690 Y40.489
G1 X87.697 Y40.508
G1 X87.705 Y40.530
G1 X87.715 Y40.555
G1 X87.727 Y40.582
G1 X87.741 Y40.612
G1 X87.756 Y40.644
G1 X87.774 Y40.679
G1 X87.794 Y40.718
G1 X87.816 Y40.759
G1 X87.840 Y40.802
G1 X87.866 Y40.849
G1 X87.894 Y40.899
G1 X87.924 Y40.952
G1 X87.957 Y41.008
G1 X87.992 Y41.067
G1 X88.029 Y41.129
G1 X88.068 Y41.195
G1 X88.109 Y41.264
G1 X88.153 Y41.336
G1 X88.199 Y41.411
G1 X88.248 Y41.490
G1 X88.299 Y41.572
G1 X88.352 Y41.657
G1 X88.408 Y41.747
G1 X88.466 Y41.839
G1 X88.527 Y41.936
G1 X88.590 Y42.035
G1 X88.656 Y42.139
G1 X88.725 Y42.246
G1 X88.796 Y42.358
G1 X88.870 Y42.472
G1 X88.946 Y42.591
G1 X89.025 Y42.714
G1 X89.107 Y42.840
G1 X89.192 Y42.971
G1 X89.279 Y43.106
G1 X89.369 Y43.244
G1 X89.462 Y43.387
G1 X89.558 Y43.534
G1 X89.657 Y43.685
G1 X89.759 Y43.841
G1 X89.864 Y44.000
G1 X89.971 Y44.164
G1 X90.082 Y44.333
G1 X90.195 Y44.505
G1 X90.312 Y44.683
G1 X90.432 Y44.864
G1 X90.528 Y45.011
G1 X90.620 Y45.152
G1 X90.708 Y45.286
G1 X90.792 Y45.414
G1 X90.872 Y45.537
G1 X90.948 Y45.654
G1 X91.022 Y45.768
G1 X91.093 Y45.878
G1 X91.161 Y45.984
G1 X91.227 Y46.087
G1 X91.292 Y46.187
G1 X91.354 Y46.286
G1 X91.416 Y46.383
G1 X91.476 Y46.478
G1 X91.535 Y46.573
G1 X91.594 Y46.668
G1 X91.653 Y46.763
G1 X91.712 Y46.859
G1 X91.771 Y46.956
G1 X91.831 Y47.055
G1 X91.892 Y47.156
G1 X91.954 Y47.259
G1 X92.018 Y47.366
G1 X92.083 Y47.476
G1 X92.151 Y47.590
G1 X92.221 Y47.708
G1 X92.294 Y47.832
G1 X92.369 Y47.960
G1 X92.448 Y48.095
G1 X92.531 Y48.236
G1 X92.617 Y48.384
G1 X92.708 Y48.539
G1 X92.803 Y48.701
G1 X92.902 Y48.872
G1 X92.950 Y48.956
G1 X93.002 Y49.048
G1 X93.058 Y49.148
G1 X93.118 Y49.256
G1 X93.182 Y49.372
G1 X93.248 Y49.495
G1 X93.318 Y49.624
G1 X93.391 Y49.760
G1 X93.467 Y49.902
G1 X93.545 Y50.048
G1 X93.625 Y50.200
G1 X93.707 Y50.356
G1 X93.791 Y50.517
G1 X93.877 Y50.681
G1 X93.964 Y50.848
G1 X94.052 Y51.019
G1 X94.142 Y51.191
G1 X94.232 Y51.366
G1 X94.322 Y51.542
G1 X94.413 Y51.720
G1 X94.505 Y51.898
G1 X94.596 Y52.076
G1 X94.686 Y52.255
G1 X94.777 Y52.433
G1 X94.866 Y52.610
G1 X94.955 Y52.786
G1 X95.043 Y52.960
G1 X95.129 Y53.131
G1 X95.214 Y53.300
G1 X95.297 Y53.467
G1 X95.377 Y53.629
G1 X95.456 Y53.788
G1 X95.533 Y53.943
G1 X95.606 Y54.093
G1 X95.677 Y54.237
G1 X95.745 Y54.377
G1 X95.810 Y54.510
G1 X95.871 Y54.637
G1 X95.928 Y54.757
G1 X95.982 Y54.870
G1 X96.031 Y54.975
G1 X96.077 Y55.072
G1 X96.117 Y55.161
G1 X96.153 Y55.240
G1 X96.184 Y55.311
G1 X96.210 Y55.372
G1 X96.230 Y55.422
G1 X96.245 Y55.462
G1 X96.254 Y55.491
G1 X96.258 Y55.509
G1 X96.256 Y55.536
G1 X96.252 Y55.560
G1 X96.246 Y55.583
G1 X96.236 Y55.603
G1 X96.223 Y55.621
G1 X96.208 Y55.637
G1 X96.189 Y55.651
G1 X96.166 Y55.663
G1 X96.141 Y55.672
G1 X96.111 Y55.679
G1 X96.078 Y55.685
G1 X96.041 Y55.688
G1 X96.000 Y55.689
G1 X95.956 Y55.687
G1 X95.907 Y55.684
G1 X95.853 Y55.679
G1 X95.796 Y55.671
G1 X95.733 Y55.661
G1 X95.667 Y55.650
G1 X95.595 Y55.636
G1 X95.519 Y55.620
G1 X95.437 Y55.602
G1 X95.300 Y55.570
G1 X95.164 Y55.539
G1 X95.030 Y55.509
G1 X94.898 Y55.479
G1 X94.767 Y55.451
G1 X94.639 Y55.423
G1 X94.513 Y55.396
G1 X94.389 Y55.369
G1 X94.267 Y55.344
G1 X94.147 Y55.319
G1 X94.030 Y55.295
G1 X93.915 Y55.272
G1 X93.802 Y55.250
G1 X93.691 Y55.229
G1 X93.583 Y55.208
G1 X93.477 Y55.189
G1 X93.374 Y55.170
G1 X93.273 Y55.152
G1 X93.175 Y55.135
G1 X93.079 Y55.119
G1 X92.986 Y55.104
G1 X92.896 Y55.090
G1 X92.809 Y55.076
G1 X92.724 Y55.064
G1 X92.642 Y55.052
G1 X92.564 Y55.042
G1 X92.488 Y55.032
G1 X92.415 Y55.023
G1 X92.345 Y55.016
G1 X92.278 Y55.009
G1 X92.214 Y55.003
G1 X92.154 Y54.998
G1 X92.096 Y54.994
G1 X92.042 Y54.991
G1 X91.991 Y54.989
G1 X91.944 Y54.988
G1 X91.900 Y54.988
G1 X91.859 Y54.989
G1 X91.822 Y54.991
G1 X91.788 Y54.994
G1 X91.758 Y54.998
G1 X91.731 Y55.003
G1 X91.709 Y55.009
G1 X91.689 Y55.016
G1 X91.674 Y55.024
G1 X91.662 Y55.033
G1 X91.660 Y55.038
G1 X91.659 Y55.047
G1 X91.660 Y55.058
G1 X91.663 Y55.072
G1 X91.667 Y55.089
G1 X91.673 Y55.109
G1 X91.680 Y55.131
G1 X91.689 Y55.156
G1 X91.699 Y55.184
G1 X91.711 Y55.213
G1 X91.723 Y55.245
G1 X91.738 Y55.279
G1 X91.753 Y55.315
G1 X91.770 Y55.352
G1 X91.787 Y55.392
G1 X91.806 Y55.433
G1 X91.826 Y55.475
G1 X91.847 Y55.519
G1 X91.868 Y55.564
G1 X91.891 Y55.610
G1 X91.915 Y55.657
G1 X91.939 Y55.705
G1 X91.964 Y55.754
G1 X91.990 Y55.803
G1 X92.017 Y55.854
G1 X92.037 Y55.894
G1 X92.059 Y55.938
G1 X92.082 Y55.986
G1 X92.106 Y56.037
G1 X92.132 Y56.092
G1 X92.158 Y56.151
G1 X92.185 Y56.214
G1 X92.213 Y56.279
G1 X92.242 Y56.348
G1 X92.272 Y56.420
G1 X92.303 Y56.495
G1 X92.335 Y56.574
G1 X92.367 Y56.654
G1 X92.400 Y56.738
G1 X92.434 Y56.824
G1 X92.468 Y56.913
G1 X92.503 Y57.004
G1 X92.539 Y57.098
G1 X92.575 Y57.194
G1 X92.612 Y57.292
G1 X92.649 Y57.392
G1 X92.687 Y57.494
G1 X92.725 Y57.597
G1 X92.763 Y57.703
G1 X92.802 Y57.810
G1 X92.841 Y57.918
G1 X92.880 Y58.028
G1 X92.920 Y58.139
G1 X92.959 Y58.252
G1 X92.999 Y58.365
G1 X93.039 Y58.480
G1 X93.079 Y58.595
G1 X93.119 Y58.712
G1 X93.159 Y58.829
G1 X93.199 Y58.946
G1 X93.239 Y59.064
G1 X93.279 Y59.183
G1 X93.318 Y59.301
G1 X93.358 Y59.420
G1 X93.397 Y59.539
G1 X93.436 Y59.658
G1 X93.475 Y59.777
G1 X93.513 Y59.895
G1 X93.551 Y60.013
G1 X93.588 Y60.131
G1 X93.626 Y60.248
G1 X93.662 Y60.365
G1 X93.698 Y60.481
G1 X93.734 Y60.596
G1 X93.769 Y60.710
G1 X93.807 Y60.837
G1 X93.845 Y60.968
G1 X93.884 Y61.103
G1 X93.923 Y61.241
G1 X93.963 Y61.384
G1 X94.003 Y61.530
G1 X94.043 Y61.679
G1 X94.084 Y61.832
G1 X94.125 Y61.987
G1 X94.166 Y62.145
G1 X94.208 Y62.306
G1 X94.249 Y62.469
G1 X94.291 Y62.634
G1 X94.333 Y62.802
G1 X94.374 Y62.971
G1 X94.416 Y63.143
G1 X94.458 Y63.315
G1 X94.500 Y63.490
G1 X94.541 Y63.665
G1 X94.583 Y63.842
G1 X94.624 Y64.019
G1 X94.665 Y64.197
G1 X94.706 Y64.376
G1 X94.746 Y64.555
G1 X94.786 Y64.734
G1 X94.826 Y64.913
G1 X94.865 Y65.092
G1 X94.904 Y65.271
G1 X94.942 Y65.449
G1 X94.980 Y65.627
G1 X95.017 Y65.804
G1 X95.053 Y65.979
G1 X95.089 Y66.154
G1 X95.124 Y66.327
G1 X95.158 Y66.499
G1 X95.192 Y66.669
G1 X95.225 Y66.837
G1 X95.257 Y67.003
G1 X95.288 Y67.167
G1 X95.318 Y67.328
G1 X95.347 Y67.487
G1 X95.375 Y67.643
G1 X95.402 Y67.796
G1 X95.428 Y67.946
G1 X95.453 Y68.093
G1 X95.476 Y68.236
G1 X95.499 Y68.376
G1 X95.520 Y68.512
G1 X95.540 Y68.644
G1 X95.558 Y68.772
G1 X95.569 Y68.843
G1 X95.579 Y68.916
G1 X95.589 Y68.990
G1 X95.600 Y69.065
G1 X95.610 Y69.141
G1 X95.621 Y69.217
G1 X95.632 Y69.294
G1 X95.642 Y69.371
G1 X95.653 Y69.447
G1 X95.663 Y69.524
G1 X95.674 Y69.599
G1 X95.684 Y69.674
G1 X95.694 Y69.748
G1 X95.704 Y69.821
G1 X95.713 Y69.892
G1 X95.723 Y69.961
G1 X95.732 Y70.028
G1 X95.741 Y70.093
G1 X95.749 Y70.156
G1 X95.757 Y70.216
G1 X95.765 Y70.273
G1 X95.772 Y70.327
G1 X95.779 Y70.378
G1 X95.786 Y70.425
G1 X95.791 Y70.469
G1 X95.802 Y70.546
G1 X95.812 Y70.632
G1 X95.821 Y70.725
G1 X95.829 Y70.824
G1 X95.837 Y70.930
G1 X95.844 Y71.042
G1 X95.851 Y71.160
G1 X95.857 Y71.283
G1 X95.862 Y71.410
G1 X95.867 Y71.542
G1 X95.871 Y71.678
G1 X95.875 Y71.818
G1 X95.878 Y71.960
G1 X95.881 Y72.106
G1 X95.883 Y72.254
G1 X95.884 Y72.403
G1 X95.885 Y72.555
G1 X95.886 Y72.707
G1 X95.885 Y72.860
G1 X95.885 Y73.014
G1 X95.884 Y73.167
G1 X95.882 Y73.320
G1 X95.879 Y73.472
G1 X95.877 Y73.622
G1 X95.873 Y73.771
G1 X95.870 Y73.918
G1 X95.865 Y74.062
G1 X95.861 Y74.203
G1 X95.855 Y74.341
G1 X95.849 Y74.475
G1 X95.843 Y74.605
G1 X95.837 Y74.730
G1 X95.829 Y74.851
G1 X95.822 Y74.965
G1 X95.814 Y75.075
G1 X95.805 Y75.177
G1 X95.796 Y75.274
G1 X95.787 Y75.363
G1 X95.777 Y75.445
G1 X95.767 Y75.519
G1 X95.756 Y75.585
G1 X95.745 Y75.642
G1 X95.726 Y75.720
G1 X95.707 Y75.797
G1 X95.688 Y75.873
G1 X95.669 Y75.947
G1 X95.649 Y76.020
G1 X95.629 Y76.091
G1 X95.610 Y76.161
G1 X95.590 Y76.229
G1 X95.570 Y76.295
G1 X95.550 Y76.359
G1 X95.530 Y76.421
G1 X95.510 Y76.482
G1 X95.490 Y76.540
G1 X95.470 Y76.596
G1 X95.450 Y76.651
G1 X95.430 Y76.703
G1 X95.411 Y76.752
G1 X95.391 Y76.800
G1 X95.372 Y76.845
G1 X95.353 Y76.888
G1 X95.334 Y76.928
G1 X95.315 Y76.966
G1 X95.297 Y77.001
G1 X95.278 Y77.034
G1 X95.261 Y77.063
G1 X95.243 Y77.091
G1 X95.226 Y77.115
G1 X95.209 Y77.136
G1 X95.192 Y77.155
G1 X95.176 Y77.170
G1 X95.167 Y77.178
G1 X95.157 Y77.184
G1 X95.147 Y77.191
G1 X95.137 Y77.196
G1 X95.127 Y77.200
G1 X95.116 Y77.203
G1 X95.104 Y77.205
G1 X95.092 Y77.206
G1 X95.079 Y77.205
G1 X95.065 Y77.203
G1 X95.050 Y77.200
G1 X95.034 Y77.195
G1 X95.016 Y77.189
G1 X94.997 Y77.180
G1 X94.976 Y77.170
G1 X94.954 Y77.158
G1 X94.930 Y77.144
G1 X94.904 Y77.128
G1 X94.876 Y77.110
G1 X94.846 Y77.089
G1 X94.814 Y77.066
G1 X94.779 Y77.041
G1 X94.741 Y77.013
G1 X94.702 Y76.982
G1 X94.659 Y76.949
G1 X94.613 Y76.913
G1 X94.565 Y76.874
G1 X94.513 Y76.832
G1 X94.458 Y76.788
G1 X94.400 Y76.740
G1 X94.338 Y76.688
G1 X94.273 Y76.634
G1 X94.204 Y76.576
G1 X94.131 Y76.515
G1 X94.055 Y76.450
G1 X93.974 Y76.381
G1 X93.889 Y76.309
G1 X93.799 Y76.232
G1 X93.706 Y76.152
G1 X93.607 Y76.068
G1 X93.505 Y75.980
G1 X93.397 Y75.887
G1 X93.284 Y75.791
G1 X93.219 Y75.735
G1 X93.153 Y75.681
G1 X93.089 Y75.628
G1 X93.024 Y75.576
G1 X92.961 Y75.525
G1 X92.897 Y75.475
G1 X92.834 Y75.426
G1 X92.772 Y75.379
G1 X92.711 Y75.333
G1 X92.650 Y75.288
G1 X92.590 Y75.245
G1 X92.531 Y75.203
G1 X92.473 Y75.162
G1 X92.415 Y75.123
G1 X92.359 Y75.085
G1 X92.304 Y75.048
G1 X92.249 Y75.013
G1 X92.196 Y74.979
G1 X92.143 Y74.947
G1 X92.092 Y74.917
G1 X92.042 Y74.888
G1 X91.994 Y74.861
G1 X91.946 Y74.835
G1 X91.900 Y74.811
G1 X91.856 Y74.789
G1 X91.813 Y74.768
G1 X91.771 Y74.749
G1 X91.731 Y74.732
G1 X91.692 Y74.716
G1 X91.655 Y74.703
G1 X91.620 Y74.691
G1 X91.586 Y74.681
G1 X91.554 Y74.673
G1 X91.524 Y74.667
G1 X91.495 Y74.663
G1 X91.469 Y74.661
G1 X91.444 Y74.661
G1 X91.422 Y74.662
G1 X91.401 Y74.666
G1 X91.383 Y74.672
G1 X91.361 Y74.681
G1 X91.341 Y74.693
G1 X91.323 Y74.707
G1 X91.307 Y74.724
G1 X91.292 Y74.745
G1 X91.280 Y74.770
G1 X91.268 Y74.798
G1 X91.259 Y74.831
G1 X91.251 Y74.869
G1 X91.244 Y74.912
G1 X91.238 Y74.961
G1 X91.233 Y75.015
G1 X91.230 Y75.076
G1 X91.227 Y75.144
G1 X91.226 Y75.218
G1 X91.225 Y75.300
G1 X91.224 Y75.390
G1 X91.224 Y75.455
G1 X91.223 Y75.520
G1 X91.220 Y75.586
G1 X91.217 Y75.652
G1 X91.213 Y75.719
G1 X91.208 Y75.786
G1 X91.202 Y75.854
G1 X91.195 Y75.923
G1 X91.187 Y75.993
G1 X91.178 Y76.064
G1 X91.168 Y76.136
G1 X91.157 Y76.209
G1 X91.145 Y76.283
G1 X91.132 Y76.358
G1 X91.118 Y76.435
G1 X91.102 Y76.513
G1 X91.085 Y76.593
G1 X91.067 Y76.674
G1 X91.048 Y76.757
G1 X91.028 Y76.841
G1 X91.007 Y76.928
G1 X90.984 Y77.016
G1 X90.960 Y77.106
G1 X90.934 Y77.198
G1 X90.908 Y77.293
G1 X90.880 Y77.389
G1 X90.850 Y77.488
G1 X90.819 Y77.589
G1 X90.787 Y77.693
G1 X90.754 Y77.799
G1 X90.719 Y77.907
G1 X90.682 Y78.018
G1 X90.644 Y78.132
G1 X90.605 Y78.249
G1 X90.564 Y78.369
G1 X90.522 Y78.491
G1 X90.478 Y78.617
G1 X90.432 Y78.745
G1 X90.409 Y78.810
G1 X90.384 Y78.877
G1 X90.358 Y78.947
G1 X90.331 Y79.019
G1 X90.302 Y79.094
G1 X90.273 Y79.171
G1 X90.243 Y79.250
G1 X90.211 Y79.331
G1 X90.179 Y79.413
G1 X90.146 Y79.497
G1 X90.113 Y79.582
G1 X90.078 Y79.668
G1 X90.044 Y79.755
G1 X90.008 Y79.842
G1 X89.973 Y79.931
G1 X89.937 Y80.019
G1 X89.901 Y80.108
G1 X89.864 Y80.196
G1 X89.828 Y80.284
G1 X89.791 Y80.372
G1 X89.755 Y80.459
G1 X89.719 Y80.546
G1 X89.682 Y80.631
G1 X89.647 Y80.715
G1 X89.611 Y80.798
G1 X89.576 Y80.879
G1 X89.541 Y80.959
G1 X89.507 Y81.036
G1 X89.474 Y81.112
G1 X89.441 Y81.185
G1 X89.409 Y81.255
G1 X89.378 Y81.323
G1 X89.348 Y81.388
G1 X89.319 Y81.450
G1 X89.291 Y81.509
G1 X89.265 Y81.564
G1 X89.239 Y81.616
G1 X89.220 Y81.656
G1 X89.202 Y81.695
G1 X89.185 Y81.732
G1 X89.171 Y81.769
G1 X89.158 Y81.803
G1 X89.146 Y81.837
G1 X89.136 Y81.869
G1 X89.128 Y81.899
G1 X89.121 Y81.927
G1 X89.116 Y81.954
G1 X89.113 Y81.979
G1 X89.111 Y82.001
G1 X89.111 Y82.022
G1 X89.113 Y82.041
G1 X89.116 Y82.057
G1 X89.121 Y82.071
G1 X89.128 Y82.083
G1 X89.136 Y82.092
G1 X89.143 Y82.097
G1 X89.152 Y82.103
G1 X89.166 Y82.110
G1 X89.182 Y82.119
G1 X89.201 Y82.128
G1 X89.224 Y82.138
G1 X89.250 Y82.150
G1 X89.278 Y82.162
G1 X89.309 Y82.175
G1 X89.343 Y82.189
G1 X89.380 Y82.203
G1 X89.419 Y82.219
G1 X89.461 Y82.235
G1 X89.505 Y82.252
G1 X89.551 Y82.269
G1 X89.599 Y82.287
G1 X89.649 Y82.306
G1 X89.701 Y82.325
G1 X89.756 Y82.344
G1 X89.811 Y82.364
G1 X89.869 Y82.385
G1 X89.928 Y82.406
G1 X89.989 Y82.427
G1 X90.051 Y82.449
G1 X90.114 Y82.470
G1 X90.179 Y82.492
G1 X90.244 Y82.514
G1 X90.311 Y82.537
G1 X90.378 Y82.559
G1 X90.447 Y82.582
G1 X90.516 Y82.604
G1 X90.585 Y82.628
G1 X90.656 Y82.652
G1 X90.727 Y82.677
G1 X90.800 Y82.702
G1 X90.873 Y82.728
G1 X90.947 Y82.754
G1 X91.022 Y82.780
G1 X91.097 Y82.806
G1 X91.172 Y82.833
G1 X91.247 Y82.859
G1 X91.322 Y82.886
G1 X91.397 Y82.913
G1 X91.472 Y82.940
G1 X91.546 Y82.966
G1 X91.619 Y82.993
G1 X91.692 Y83.019
G1 X91.763 Y83.045
G1 X91.834 Y83.071
G1 X91.903 Y83.097
G1 X91.971 Y83.122
G1 X92.037 Y83.147
G1 X92.102 Y83.171
G1 X92.165 Y83.195
G1 X92.226 Y83.218
G1 X92.285 Y83.240
G1 X92.341 Y83.262
G1 X92.396 Y83.283
G1 X92.447 Y83.304
G1 X92.496 Y83.323
G1 X92.542 Y83.342
G1 X92.585 Y83.359
G1 X92.637 Y83.380
G1 X92.688 Y83.401
G1 X92.739 Y83.422
G1 X92.790 Y83.442
G1 X92.841 Y83.461
G1 X92.891 Y83.480
G1 X92.940 Y83.499
G1 X92.988 Y83.517
G1 X93.036 Y83.534
G1 X93.082 Y83.551
G1 X93.127 Y83.566
G1 X93.171 Y83.581
G1 X93.213 Y83.596
G1 X93.254 Y83.609
G1 X93.292 Y83.622
G1 X93.329 Y83.633
G1 X93.364 Y83.644
G1 X93.397 Y83.653
G1 X93.427 Y83.661
G1 X93.455 Y83.668
G1 X93.481 Y83.674
G1 X93.504 Y83.679
G1 X93.524 Y83.683
G1 X93.541 Y83.685
G1 X93.554 Y83.685
G1 X93.574 Y83.683
G1 X93.596 Y83.677
G1 X93.620 Y83.666
G1 X93.647 Y83.651
G1 X93.677 Y83.632
G1 X93.708 Y83.609
G1 X93.742 Y83.583
G1 X93.779 Y83.552
G1 X93.817 Y83.518
G1 X93.858 Y83.481
G1 X93.900 Y83.440
G1 X93.945 Y83.395
G1 X93.991 Y83.347
G1 X94.039 Y83.297
G1 X94.089 Y83.243
G1 X94.140 Y83.185
G1 X94.193 Y83.126
G1 X94.248 Y83.063
G1 X94.304 Y82.997
G1 X94.361 Y82.929
G1 X94.420 Y82.859
G1 X94.479 Y82.786
G1 X94.540 Y82.710
G1 X94.602 Y82.633
G1 X94.665 Y82.553
G1 X94.729 Y82.471
G1 X94.793 Y82.387
G1 X94.859 Y82.302
G1 X94.925 Y82.214
G1 X94.991 Y82.125
G1 X95.059 Y82.034
G1 X95.126 Y81.942
G1 X95.194 Y81.849
G1 X95.263 Y81.754
G1 X95.331 Y81.658
G1 X95.400 Y81.560
G1 X95.469 Y81.462
G1 X95.538 Y81.363
G1 X95.607 Y81.263
G1 X95.676 Y81.162
G1 X95.744 Y81.061
G1 X95.813 Y80.959
G1 X95.881 Y80.856
G1 X95.948 Y80.753
G1 X96.015 Y80.650
G1 X96.082 Y80.547
G1 X96.148 Y80.444
G1 X96.213 Y80.340
G1 X96.278 Y80.237
G1 X96.341 Y80.134
G1 X96.394 Y80.047
G1 X96.446 Y79.958
G1 X96.499 Y79.866
G1 X96.552 Y79.771
G1 X96.605 Y79.674
G1 X96.658 Y79.575
G1 X96.712 Y79.473
G1 X96.766 Y79.370
G1 X96.819 Y79.264
G1 X96.873 Y79.156
G1 X96.927 Y79.046
G1 X96.981 Y78.934
G1 X97.035 Y78.821
G1 X97.089 Y78.706
G1 X97.142 Y78.589
G1 X97.196 Y78.470
G1 X97.249 Y78.350
G1 X97.302 Y78.229
G1 X97.355 Y78.106
G1 X97.408 Y77.982
G1 X97.461 Y77.857
G1 X97.513 Y77.731
G1 X97.565 Y77.604
G1 X97.616 Y77.475
G1 X97.667 Y77.346
G1 X97.718 Y77.216
G1 X97.768 Y77.085
G1 X97.818 Y76.954
G1 X97.867 Y76.822
G1 X97.916 Y76.689
G1 X97.964 Y76.557
G1 X98.011 Y76.423
G1 X98.058 Y76.290
G1 X98.104 Y76.156
G1 X98.150 Y76.022
G1 X98.195 Y75.888
G1 X98.239 Y75.754
G1 X98.282 Y75.620
G1 X98.324 Y75.486
G1 X98.366 Y75.353
G1 X98.406 Y75.220
G1 X98.446 Y75.087
G1 X98.485 Y74.954
G1 X98.523 Y74.823
G1 X98.560 Y74.692
G1 X98.595 Y74.561
G1 X98.630 Y74.431
G1 X98.664 Y74.303
G1 X98.696 Y74.175
G1 X98.728 Y74.048
G1 X98.787 Y73.799
G1 X98.844 Y73.549
G1 X98.898 Y73.298
G1 X98.951 Y73.046
G1 X99.001 Y72.792
G1 X99.048 Y72.537
G1 X99.094 Y72.281
G1 X99.137 Y72.023
G1 X99.178 Y71.765
G1 X99.216 Y71.505
G1 X99.252 Y71.244
G1 X99.286 Y70.983
G1 X99.318 Y70.720
G1 X99.347 Y70.456
G1 X99.374 Y70.192
G1 X99.398 Y69.926
G1 X99.421 Y69.660
G1 X99.441 Y69.393
G1 X99.458 Y69.126
G1 X99.473 Y68.857
G1 X99.486 Y68.588
G1 X99.497 Y68.318
G1 X99.505 Y68.048
G1 X99.511 Y67.777
G1 X99.515 Y67.506
G1 X99.516 Y67.234
G1 X99.516 Y66.961
G1 X99.512 Y66.689
G1 X99.507 Y66.416
G1 X99.499 Y66.142
G1 X99.488 Y65.868
G1 X99.476 Y65.595
G1 X99.461 Y65.320
G1 X99.443 Y65.046
G1 X99.424 Y64.771
G1 X99.402 Y64.497
G1 X99.378 Y64.222
G1 X99.351 Y63.947
G1 X99.322 Y63.673
G1 X99.291 Y63.398
G1 X99.257 Y63.124
G1 X99.221 Y62.849
G1 X99.183 Y62.575
G1 X99.142 Y62.301
G1 X99.099 Y62.027
G1 X99.054 Y61.754
G1 X99.006 Y61.480
G1 X98.956 Y61.208
G1 X98.903 Y60.935
G1 X98.849 Y60.663
G1 X98.830 Y60.574
G1 X98.810 Y60.483
G1 X98.790 Y60.393
G1 X98.769 Y60.301
G1 X98.747 Y60.210
G1 X98.724 Y60.118
G1 X98.701 Y60.026
G1 X98.677 Y59.934
G1 X98.653 Y59.842
G1 X98.628 Y59.750
G1 X98.603 Y59.659
G1 X98.577 Y59.568
G1 X98.551 Y59.477
G1 X98.525 Y59.388
G1 X98.498 Y59.299
G1 X98.471 Y59.211
G1 X98.444 Y59.124
G1 X98.416 Y59.038
G1 X98.388 Y58.954
G1 X98.361 Y58.871
G1 X98.333 Y58.789
G1 X98.305 Y58.710
G1 X98.277 Y58.632
G1 X98.249 Y58.556
G1 X98.221 Y58.481
G1 X98.193 Y58.409
G1 X98.165 Y58.340
G1 X98.138 Y58.272
G1 X98.110 Y58.207
G1 X98.083 Y58.145
G1 X98.056 Y58.086
G1 X98.030 Y58.029
G1 X98.004 Y57.975
G1 X97.978 Y57.924
G1 X97.952 Y57.877
G1 X97.928 Y57.833
G1 X97.903 Y57.792
G1 X97.879 Y57.755
G1 X97.859 Y57.722
G1 X97.840 Y57.689
G1 X97.821 Y57.656
G1 X97.802 Y57.623
G1 X97.784 Y57.591
G1 X97.767 Y57.559
G1 X97.751 Y57.527
G1 X97.736 Y57.496
G1 X97.722 Y57.466
G1 X97.709 Y57.437
G1 X97.697 Y57.409
G1 X97.687 Y57.383
G1 X97.678 Y57.358
G1 X97.670 Y57.335
G1 X97.664 Y57.313
G1 X97.659 Y57.294
G1 X97.657 Y57.276
G1 X97.656 Y57.261
G1 X97.658 Y57.239
G1 X97.664 Y57.220
G1 X97.674 Y57.202
G1 X97.689 Y57.186
G1 X97.707 Y57.172
G1 X97.728 Y57.159
G1 X97.754 Y57.149
G1 X97.782 Y57.140
G1 X97.814 Y57.133
G1 X97.849 Y57.128
G1 X97.888 Y57.124
G1 X97.929 Y57.123
G1 X97.973 Y57.122
G1 X98.020 Y57.124
G1 X98.070 Y57.127
G1 X98.121 Y57.132
G1 X98.176 Y57.139
G1 X98.232 Y57.147
G1 X98.291 Y57.157
G1 X98.352 Y57.168
G1 X98.414 Y57.181
G1 X98.479 Y57.195
G1 X98.545 Y57.211
G1 X98.613 Y57.229
G1 X98.682 Y57.248
G1 X98.752 Y57.268
G1 X98.824 Y57.290
G1 X98.896 Y57.313
G1 X98.970 Y57.338
G1 X99.044 Y57.364
G1 X99.119 Y57.392
G1 X99.195 Y57.421
G1 X99.271 Y57.451
G1 X99.348 Y57.483
G1 X99.424 Y57.516
G1 X99.501 Y57.550
G1 X99.535 Y57.564
G1 X99.568 Y57.578
G1 X99.602 Y57.590
G1 X99.635 Y57.601
G1 X99.667 Y57.611
G1 X99.698 Y57.620
G1 X99.728 Y57.627
G1 X99.756 Y57.633
G1 X99.783 Y57.638
G1 X99.808 Y57.641
G1 X99.830 Y57.643
G1 X99.850 Y57.643
G1 X99.867 Y57.642
G1 X99.882 Y57.639
G1 X99.893 Y57.634
G1 X99.913 Y57.617
G1 X99.932 Y57.593
G1 X99.948 Y57.561
G1 X99.961 Y57.524
G1 X99.973 Y57.479
G1 X99.982 Y57.428
G1 X99.989 Y57.371
G1 X99.994 Y57.307
G1 X99.997 Y57.238
G1 X99.997 Y57.162
G1 X99.996 Y57.081
G1 X99.993 Y56.995
G1 X99.987 Y56.903
G1 X99.980 Y56.806
G1 X99.971 Y56.704
G1 X99.960 Y56.597
G1 X99.947 Y56.486
G1 X99.932 Y56.370
G1 X99.915 Y56.249
G1 X99.897 Y56.125
G1 X99.877 Y55.996
G1 X99.855 Y55.864
G1 X99.831 Y55.727
G1 X99.806 Y55.588
G1 X99.780 Y55.445
G1 X99.751 Y55.298
G1 X99.721 Y55.149
G1 X99.690 Y54.997
G1 X99.657 Y54.842
G1 X99.623 Y54.684
G1 X99.587 Y54.524
G1 X99.550 Y54.362
G1 X99.512 Y54.198
G1 X99.472 Y54.032
G1 X99.431 Y53.864
G1 X99.388 Y53.695
G1 X99.345 Y53.524
G1 X99.300 Y53.352
G1 X99.254 Y53.179
G1 X99.207 Y53.005
G1 X99.159 Y52.830
G1 X99.110 Y52.654
G1 X99.059 Y52.479
G1 X99.008 Y52.302
G1 X98.956 Y52.126
G1 X98.902 Y51.950
G1 X98.848 Y51.774
G1 X98.793 Y51.598
G1 X98.738 Y51.423
G1 X98.681 Y51.249
G1 X98.628 Y51.089
G1 X98.573 Y50.929
G1 X98.517 Y50.768
G1 X98.460 Y50.606
G1 X98.401 Y50.444
G1 X98.341 Y50.281
G1 X98.279 Y50.118
G1 X98.217 Y49.954
G1 X98.153 Y49.790
G1 X98.087 Y49.625
G1 X98.021 Y49.460
G1 X97.953 Y49.295
G1 X97.884 Y49.129
G1 X97.814 Y48.963
G1 X97.742 Y48.797
G1 X97.670 Y48.630
G1 X97.596 Y48.463
G1 X97.521 Y48.296
G1 X97.445 Y48.129
G1 X97.368 Y47.961
G1 X97.290 Y47.794
G1 X97.210 Y47.626
G1 X97.130 Y47.459
G1 X97.048 Y47.291
G1 X96.966 Y47.123
G1 X96.882 Y46.956
G1 X96.798 Y46.788
G1 X96.712 Y46.621
G1 X96.626 Y46.454
G1 X96.538 Y46.286
G1 X96.450 Y46.119
G1 X96.360 Y45.953
G1 X96.270 Y45.786
G1 X96.179 Y45.620
G1 X96.086 Y45.454
G1 X95.993 Y45.288
G1 X95.900 Y45.123
G1 X95.805 Y44.958
G1 X95.709 Y44.793
G1 X95.613 Y44.629
G1 X95.516 Y44.465
G1 X95.418 Y44.302
G1 X95.319 Y44.140
G1 X95.220 Y43.978
G1 X95.119 Y43.816
G1 X95.018 Y43.655
G1 X94.917 Y43.495
G1 X94.814 Y43.336
G1 X94.711 Y43.177
G1 X94.608 Y43.019
G1 X94.564 Y42.953
G1 X94.521 Y42.888
G1 X94.479 Y42.824
G1 X94.437 Y42.760
G1 X94.396 Y42.697
G1 X94.356 Y42.634
G1 X94.316 Y42.572
G1 X94.277 Y42.512
G1 X94.239 Y42.452
G1 X94.202 Y42.393
G1 X94.166 Y42.335
G1 X94.131 Y42.278
G1 X94.097 Y42.223
G1 X94.064 Y42.169
G1 X94.032 Y42.116
G1 X94.001 Y42.064
G1 X93.971 Y42.014
G1 X93.942 Y41.966
G1 X93.915 Y41.919
G1 X93.889 Y41.874
G1 X93.864 Y41.830
G1 X93.841 Y41.789
G1 X93.818 Y41.749
G1 X93.798 Y41.711
G1 X93.779 Y41.675
G1 X93.761 Y41.641
G1 X93.745 Y41.610
G1 X93.730 Y41.580
G1 X93.717 Y41.553
G1 X93.706 Y41.528
G1 X93.696 Y41.506
G1 X93.688 Y41.486
G1 X93.682 Y41.468
G1 X93.678 Y41.453
G1 X93.675 Y41.441
G1 X93.674 Y41.432
G1 X93.676 Y41.425
G1 X93.684 Y41.412
G1 X93.698 Y41.398
G1 X93.718 Y41.385
G1 X93.743 Y41.372
G1 X93.773 Y41.358
G1 X93.808 Y41.346
G1 X93.848 Y41.333
G1 X93.892 Y41.320
G1 X93.941 Y41.308
G1 X93.993 Y41.297
G1 X94.049 Y41.285
G1 X94.108 Y41.274
G1 X94.171 Y41.263
G1 X94.237 Y41.253
G1 X94.305 Y41.244
G1 X94.375 Y41.235
G1 X94.448 Y41.226
G1 X94.523 Y41.219
G1 X94.599 Y41.211
G1 X94.677 Y41.205
G1 X94.756 Y41.199
G1 X94.836 Y41.194
G1 X94.917 Y41.190
G1 X94.998 Y41.187
G1 X95.079 Y41.185
G1 X95.161 Y41.183
G1 X95.242 Y41.183
G1 X95.283 Y41.182
G1 X95.324 Y41.180
G1 X95.365 Y41.177
G1 X95.404 Y41.172
G1 X95.441 Y41.167
G1 X95.476 Y41.161
G1 X95.510 Y41.154
G1 X95.540 Y41.146
G1 X95.568 Y41.137
G1 X95.592 Y41.128
G1 X95.613 Y41.119
G1 X95.630 Y41.109
G1 X95.643 Y41.099
G1 X95.652 Y41.089
G1 X95.658 Y41.074
G1 X95.660 Y41.055
G1 X95.659 Y41.032
G1 X95.654 Y41.005
G1 X95.646 Y40.974
G1 X95.634 Y40.938
G1 X95.620 Y40.899
G1 X95.601 Y40.857
G1 X95.580 Y40.810
G1 X95.555 Y40.760
G1 X95.527 Y40.707
G1 X95.496 Y40.650
G1 X95.462 Y40.590
G1 X95.425 Y40.526
G1 X95.385 Y40.459
G1 X95.342 Y40.389
G1 X95.296 Y40.316
G1 X95.248 Y40.240
G1 X95.197 Y40.161
G1 X95.143 Y40.079
G1 X95.086 Y39.995
G1 X95.027 Y39.907
G1 X94.965 Y39.817
G1 X94.900 Y39.725
G1 X94.834 Y39.630
G1 X94.765 Y39.532
G1 X94.693 Y39.432
G1 X94.619 Y39.330
G1 X94.543 Y39.226
G1 X94.465 Y39.119
G1 X94.385 Y39.011
G1 X94.302 Y38.900
G1 X94.218 Y38.787
G1 X94.132 Y38.673
G1 X94.043 Y38.557
G1 X93.953 Y38.439
G1 X93.861 Y38.320
G1 X93.767 Y38.199
G1 X93.671 Y38.076
G1 X93.574 Y37.953
G1 X93.475 Y37.827
G1 X93.375 Y37.701
G1 X93.273 Y37.573
G1 X93.169 Y37.445
G1 X93.064 Y37.315
G1 X92.958 Y37.184
G1 X92.850 Y37.052
G1 X92.741 Y36.920
G1 X92.631 Y36.787
G1 X92.520 Y36.653
G1 X92.483 Y36.608
G1 X92.444 Y36.562
G1 X92.403 Y36.514
G1 X92.360 Y36.464
G1 X92.316 Y36.412
G1 X92.270 Y36.359
G1 X92.223 Y36.305
G1 X92.174 Y36.248
G1 X92.124 Y36.191
G1 X92.072 Y36.132
G1 X92.019 Y36.072
G1 X91.965 Y36.010
G1 X91.909 Y35.948
G1 X91.852 Y35.884
G1 X91.794 Y35.819
G1 X91.735 Y35.753
G1 X91.675 Y35.686
G1 X91.614 Y35.618
G1 X91.552 Y35.550
G1 X91.489 Y35.480
G1 X91.425 Y35.410
G1 X91.361 Y35.339
G1 X91.295 Y35.268
G1 X91.229 Y35.196
G1 X91.163 Y35.123
G1 X91.095 Y35.050
G1 X91.027 Y34.976
G1 X90.959 Y34.903
G1 X90.890 Y34.829
G1 X90.821 Y34.754
G1 X90.752 Y34.680
G1 X90.682 Y34.605
G1 X90.612 Y34.530
G1 X90.542 Y34.456
G1 X90.472 Y34.381
G1 X90.401 Y34.307
G1 X90.331 Y34.232
G1 X90.260 Y34.158
G1 X90.190 Y34.084
G1 X90.120 Y34.011
G1 X90.050 Y33.938
G1 X89.980 Y33.865
G1 X89.910 Y33.793
G1 X89.841 Y33.721
G1 X89.772 Y33.650
G1 X89.704 Y33.580
G1 X89.635 Y33.510
G1 X89.568 Y33.442
G1 X89.501 Y33.374
G1 X89.435 Y33.307
G1 X89.290 Y33.159
G1 X89.151 Y33.017
G1 X89.017 Y32.880
G1 X88.888 Y32.748
G1 X88.764 Y32.621
G1 X88.645 Y32.498
G1 X88.531 Y32.380
G1 X88.421 Y32.266
G1 X88.316 Y32.156
G1 X88.215 Y32.051
G1 X88.119 Y31.950
G1 X88.027 Y31.852
G1 X87.939 Y31.759
G1 X87.855 Y31.669
G1 X87.776 Y31.582
G1 X87.700 Y31.499
G1 X87.628 Y31.419
G1 X87.559 Y31.343
G1 X87.495 Y31.269
G1 X87.434 Y31.198
G1 X87.376 Y31.131
G1 X87.321 Y31.065
G1 X87.270 Y31.003
G1 X87.222 Y30.942
G1 X87.177 Y30.884
G1 X87.135 Y30.829
G1 X87.095 Y30.775
G1 X87.059 Y30.723
G1 X87.025 Y30.673
G1 X86.993 Y30.624
G1 X86.964 Y30.577
G1 X86.938 Y30.532
G1 X86.913 Y30.488
G1 X86.891 Y30.444
G1 X86.871 Y30.402
G1 X86.853 Y30.361
G1 X86.836 Y30.321
G1 X86.822 Y30.281
G1 X86.809 Y30.242
G1 X86.798 Y30.203
G1 X86.788 Y30.165
G1 X86.780 Y30.127
G1 X86.772 Y30.088
G1 X86.766 Y30.050
G1 X86.762 Y30.012
G1 X86.758 Y29.973
G1 X86.755 Y29.933
G1 X86.753 Y29.893
G1 X86.751 Y29.853
G1 X86.750 Y29.811
G1 X86.750 Y29.698
G1 X86.752 Y29.582
G1 X86.756 Y29.464
G1 X86.761 Y29.344
G1 X86.767 Y29.222
G1 X86.775 Y29.099
G1 X86.785 Y28.975
G1 X86.796 Y28.850
G1 X86.809 Y28.724
G1 X86.823 Y28.597
G1 X86.838 Y28.470
G1 X86.855 Y28.342
G1 X86.872 Y28.214
G1 X86.892 Y28.086
G1 X86.912 Y27.959
G1 X86.933 Y27.832
G1 X86.956 Y27.705
G1 X86.980 Y27.579
G1 X87.005 Y27.454
G1 X87.030 Y27.330
G1 X87.057 Y27.208
G1 X87.085 Y27.087
G1 X87.114 Y26.967
G1 X87.143 Y26.850
G1 X87.174 Y26.735
G1 X87.205 Y26.622
G1 X87.237 Y26.511
G1 X87.269 Y26.403
G1 X87.303 Y26.297
G1 X87.337 Y26.195
G1 X87.371 Y26.096
G1 X87.406 Y26.000
G1 X87.442 Y25.908
G1 X87.478 Y25.819
G1 X87.515 Y25.735
G1 X87.552 Y25.654
G1 X87.586 Y25.583
G1 X87.621 Y25.513
G1 X87.656 Y25.445
G1 X87.692 Y25.377
G1 X87.729 Y25.311
G1 X87.766 Y25.246
G1 X87.805 Y25.182
G1 X87.844 Y25.118
G1 X87.884 Y25.056
G1 X87.926 Y24.994
G1 X87.968 Y24.933
G1 X88.012 Y24.873
G1 X88.057 Y24.813
G1 X88.103 Y24.754
G1 X88.150 Y24.695
G1 X88.200 Y24.637
G1 X88.250 Y24.578
G1 X88.302 Y24.520
G1 X88.356 Y24.463
G1 X88.412 Y24.405
G1 X88.469 Y24.347
G1 X88.528 Y24.289
G1 X88.590 Y24.232
G1 X88.653 Y24.173
G1 X88.718 Y24.115
G1 X88.785 Y24.057
G1 X88.855 Y23.997
G1 X88.927 Y23.938
G1 X89.001 Y23.878
G1 X89.077 Y23.817
G1 X89.156 Y23.756
G1 X89.238 Y23.694
G1 X89.322 Y23.631
G1 X89.409 Y23.568
G1 X89.499 Y23.503
G1 X89.591 Y23.437
G1 X89.686 Y23.371
G1 X89.846 Y23.259
G1 X90.001 Y23.151
G1 X90.150 Y23.046
G1 X90.295 Y22.945
G1 X90.434 Y22.847
G1 X90.569 Y22.752
G1 X90.699 Y22.660
G1 X90.825 Y22.571
G1 X90.947 Y22.485
G1 X91.064 Y22.402
G1 X91.177 Y22.321
G1 X91.286 Y22.243
G1 X91.392 Y22.167
G1 X91.494 Y22.093
G1 X91.592 Y22.022
G1 X91.688 Y21.952
G1 X91.780 Y21.885
G1 X91.869 Y21.819
G1 X91.955 Y21.755
G1 X92.038 Y21.692
G1 X92.119 Y21.632
G1 X92.197 Y21.572
G1 X92.273 Y21.514
G1 X92.346 Y21.457
G1 X92.418 Y21.401
G1 X92.488 Y21.345
G1 X92.556 Y21.291
G1 X92.622 Y21.237
G1 X92.687 Y21.184
G1 X92.750 Y21.132
G1 X92.813 Y21.080
G1 X92.874 Y21.028
G1 X92.934 Y20.976
G1 X92.994 Y20.925
G1 X93.053 Y20.873
G1 X93.111 Y20.821
G1 X93.169 Y20.769
G1 X93.227 Y20.716
G1 X93.285 Y20.663
G1 X93.343 Y20.610
G1 X93.401 Y20.555
G1 X93.459 Y20.500
G1 X93.518 Y20.444
G1 X93.578 Y20.386
G1 X93.638 Y20.328
G1 X93.699 Y20.268
G1 X93.762 Y20.207
G1 X93.825 Y20.145
G1 X93.890 Y20.080
G1 X93.991 Y19.979
G1 X94.090 Y19.877
G1 X94.186 Y19.777
G1 X94.281 Y19.677
G1 X94.373 Y19.578
G1 X94.462 Y19.480
G1 X94.550 Y19.382
G1 X94.636 Y19.284
G1 X94.719 Y19.187
G1 X94.801 Y19.089
G1 X94.880 Y18.992
G1 X94.958 Y18.895
G1 X95.034 Y18.798
G1 X95.108 Y18.701
G1 X95.180 Y18.604
G1 X95.251 Y18.506
G1 X95.320 Y18.408
G1 X95.387 Y18.310
G1 X95.452 Y18.211
G1 X95.516 Y18.112
G1 X95.579 Y18.012
G1 X95.640 Y17.911
G1 X95.700 Y17.810
G1 X95.758 Y17.707
G1 X95.815 Y17.604
G1 X95.871 Y17.500
G1 X95.925 Y17.394
G1 X95.978 Y17.288
G1 X96.031 Y17.180
G1 X96.082 Y17.071
G1 X96.131 Y16.961
G1 X96.180 Y16.849
G1 X96.228 Y16.735
G1 X96.275 Y16.620
G1 X96.322 Y16.504
G1 X96.367 Y16.385
G1 X96.411 Y16.265
G1 X96.455 Y16.142
G1 X96.498 Y16.018
G1 X96.541 Y15.892
G1 X96.583 Y15.763
G1 X96.624 Y15.633
G1 X96.665 Y15.499
G1 X96.705 Y15.364
G1 X96.719 Y15.311
G1 X96.732 Y15.249
G1 X96.745 Y15.180
G1 X96.757 Y15.104
G1 X96.769 Y15.020
G1 X96.779 Y14.930
G1 X96.790 Y14.834
G1 X96.799 Y14.732
G1 X96.808 Y14.624
G1 X96.816 Y14.511
G1 X96.824 Y14.394
G1 X96.831 Y14.272
G1 X96.837 Y14.147
G1 X96.842 Y14.018
G1 X96.847 Y13.886
G1 X96.852 Y13.751
G1 X96.855 Y13.614
G1 X96.858 Y13.474
G1 X96.860 Y13.334
G1 X96.862 Y13.191
G1 X96.863 Y13.049
G1 X96.863 Y12.905
G1 X96.862 Y12.762
G1 X96.861 Y12.619
G1 X96.859 Y12.477
G1 X96.857 Y12.335
G1 X96.853 Y12.196
G1 X96.849 Y12.058
G1 X96.845 Y11.922
G1 X96.839 Y11.789
G1 X96.833 Y11.659
G1 X96.826 Y11.533
G1 X96.819 Y11.410
G1 X96.811 Y11.291
G1 X96.802 Y11.177
G1 X96.792 Y11.068
G1 X96.782 Y10.964
G1 X96.771 Y10.866
G1 X96.759 Y10.775
G1 X96.746 Y10.689
G1 X96.733 Y10.610
G1 X96.715 Y10.512
G1 X96.695 Y10.413
G1 X96.675 Y10.312
G1 X96.653 Y10.210
G1 X96.630 Y10.106
G1 X96.605 Y10.001
G1 X96.580 Y9.896
G1 X96.553 Y9.788
G1 X96.525 Y9.680
G1 X96.496 Y9.571
G1 X96.466 Y9.461
G1 X96.435 Y9.351
G1 X96.403 Y9.239
G1 X96.370 Y9.127
G1 X96.336 Y9.014
G1 X96.301 Y8.900
G1 X96.265 Y8.786
G1 X96.228 Y8.671
G1 X96.190 Y8.556
G1 X96.151 Y8.441
G1 X96.111 Y8.325
G1 X96.071 Y8.209
G1 X96.029 Y8.093
G1 X95.987 Y7.976
G1 X95.944 Y7.860
G1 X95.901 Y7.743
G1 X95.856 Y7.627
G1 X95.811 Y7.511
G1 X95.765 Y7.395
G1 X95.719 Y7.279
G1 X95.672 Y7.164
G1 X95.624 Y7.049
G1 X95.576 Y6.934
G1 X95.527 Y6.820
G1 X95.477 Y6.706
G1 X95.427 Y6.593
G1 X95.377 Y6.481
G1 X95.326 Y6.369
G1 X95.274 Y6.258
G1 X95.223 Y6.148
G1 X95.170 Y6.039
G1 X95.118 Y5.931
G1 X95.064 Y5.824
G1 X95.011 Y5.718
G1 X94.957 Y5.614
G1 X94.903 Y5.510
G1 X94.849 Y5.408
G1 X94.794 Y5.307
G1 X94.737 Y5.202
G1 X94.680 Y5.099
G1 X94.624 Y4.999
G1 X94.568 Y4.900
G1 X94.513 Y4.803
G1 X94.458 Y4.708
G1 X94.403 Y4.615
G1 X94.348 Y4.523
G1 X94.294 Y4.433
G1 X94.240 Y4.345
G1 X94.185 Y4.259
G1 X94.131 Y4.173
G1 X94.077 Y4.090
G1 X94.023 Y4.007
G1 X93.968 Y3.926
G1 X93.914 Y3.846
G1 X93.859 Y3.767
G1 X93.804 Y3.690
G1 X93.749 Y3.613
G1 X93.694 Y3.537
G1 X93.638 Y3.462
G1 X93.581 Y3.389
G1 X93.524 Y3.315
G1 X93.467 Y3.243
G1 X93.409 Y3.171
G1 X93.351 Y3.100
G1 X93.292 Y3.029
G1 X93.232 Y2.959
G1 X93.171 Y2.889
G1 X93.110 Y2.820
G1 X93.048 Y2.751
G1 X92.985 Y2.681
G1 X92.921 Y2.613
G1 X92.856 Y2.544
G1 X92.790 Y2.475
G1 X92.723 Y2.406
G1 X92.654 Y2.337
G1 X92.585 Y2.268
G1 X92.513 Y2.197
G1 X92.443 Y2.129
G1 X92.375 Y2.064
G1 X92.310 Y2.002
G1 X92.247 Y1.943
G1 X92.185 Y1.886
G1 X92.126 Y1.832
G1 X92.067 Y1.780
G1 X92.010 Y1.731
G1 X91.955 Y1.684
G1 X91.900 Y1.638
G1 X91.846 Y1.595
G1 X91.792 Y1.553
G1 X91.739 Y1.512
G1 X91.686 Y1.473
G1 X91.634 Y1.435
G1 X91.581 Y1.399
G1 X91.527 Y1.363
G1 X91.473 Y1.328
G1 X91.419 Y1.294
G1 X91.364 Y1.260
G1 X91.307 Y1.227
G1 X91.249 Y1.194
G1 X91.190 Y1.161
G1 X91.129 Y1.129
G1 X91.067 Y1.096
G1 X91.002 Y1.062
G1 X90.935 Y1.029
G1 X90.814 Y0.970
G1 X90.694 Y0.913
G1 X90.577 Y0.858
G1 X90.461 Y0.806
G1 X90.346 Y0.756
G1 X90.233 Y0.707
G1 X90.121 Y0.661
G1 X90.010 Y0.616
G1 X89.900 Y0.574
G1 X89.791 Y0.533
G1 X89.683 Y0.494
G1 X89.575 Y0.457
G1 X89.467 Y0.422
G1 X89.359 Y0.389
G1 X89.252 Y0.357
G1 X89.144 Y0.327
G1 X89.036 Y0.298
G1 X88.928 Y0.271
G1 X88.819 Y0.246
G1 X88.709 Y0.222
G1 X88.599 Y0.199
G1 X88.487 Y0.178
G1 X88.374 Y0.159
G1 X88.260 Y0.140
G1 X88.144 Y0.123
G1 X88.027 Y0.107
G1 X87.908 Y0.093
G1 X87.787 Y0.079
G1 X87.664 Y0.067
G1 X87.538 Y0.056
G1 X87.411 Y0.046
G1 X87.280 Y0.037
G1 X87.147 Y0.029
G1 X87.011 Y0.022
G1 X86.851 Y0.015
G1 X86.694 Y0.010
G1 X86.538 Y0.006
G1 X86.385 Y0.004
G1 X86.235 Y0.004
G1 X86.086 Y0.006
G1 X85.939 Y0.009
G1 X85.794 Y0.015
G1 X85.651 Y0.022
G1 X85.510 Y0.031
G1 X85.370 Y0.042
G1 X85.232 Y0.055
G1 X85.095 Y0.070
G1 X84.960 Y0.087
G1 X84.826 Y0.106
G1 X84.693 Y0.127
G1 X84.561 Y0.149
G1 X84.431 Y0.174
G1 X84.301 Y0.201
G1 X84.172 Y0.230
G1 X84.043 Y0.261
G1 X83.916 Y0.295
G1 X83.788 Y0.330
G1 X83.662 Y0.368
G1 X83.535 Y0.407
G1 X83.409 Y0.449
G1 X83.283 Y0.494
G1 X83.158 Y0.540
G1 X83.032 Y0.589
G1 X82.906 Y0.640
G1 X82.780 Y0.693
G1 X82.654 Y0.749
G1 X82.527 Y0.807
G1 X82.400 Y0.867
G1 X82.272 Y0.930
G1 X82.144 Y0.995
G1 X82.015 Y1.063
G1 X81.885 Y1.133
G1 X81.754 Y1.206
G1 X81.686 Y1.245
G1 X81.618 Y1.286
G1 X81.548 Y1.329
G1 X81.478 Y1.374
G1 X81.407 Y1.422
G1 X81.335 Y1.471
G1 X81.262 Y1.523
G1 X81.189 Y1.577
G1 X81.114 Y1.634
G1 X81.039 Y1.692
G1 X80.962 Y1.753
G1 X80.885 Y1.817
G1 X80.807 Y1.882
G1 X80.727 Y1.951
G1 X80.646 Y2.021
G1 X80.564 Y2.095
G1 X80.481 Y2.170
G1 X80.397 Y2.249
G1 X80.312 Y2.330
G1 X80.225 Y2.413
G1 X80.137 Y2.499
G1 X80.048 Y2.588
G1 X79.957 Y2.680
G1 X79.865 Y2.775
G1 X79.771 Y2.872
G1 X79.676 Y2.972
G1 X79.580 Y3.075
G1 X79.482 Y3.181
G1 X79.382 Y3.290
G1 X79.281 Y3.402
G1 X79.179 Y3.516
G1 X79.074 Y3.634
G1 X78.968 Y3.755
G1 X78.861 Y3.879
G1 X78.751 Y4.007
G1 X78.640 Y4.137
G1 X78.527 Y4.270
G1 X78.412 Y4.407
G1 X78.295 Y4.547
G1 X78.177 Y4.691
G1 X78.056 Y4.837
G1 X77.934 Y4.988
G1 X77.809 Y5.141
G1 X77.683 Y5.298
G1 X77.554 Y5.458
G1 X77.424 Y5.622
G1 X77.291 Y5.790
G1 X77.156 Y5.961
G1 X77.019 Y6.135
