; Laser Vector Engraving G-code
; Generated: 2025-11-15 10:37:30 UTC
; Input file: assets/svg/tigershead.svg
; File type: SVG
; Feed rate: 600 mm/min
; Travel rate: 3000 mm/min
; Cut power: 100%
; Engrave power: 50%
; Number of paths: 37
; Estimated time: 254.3 seconds
;
G21 ; Set units to millimeters
G90 ; Absolute positioning
G17 ; XY plane selection

; Home and set work coordinate system
$H ; Home all axes (bottom-left corner)
G10 L2 P1 X0 Y0 Z0 ; Clear G54 offset
G54 ; Select work coordinate system 1
G0 X10.0 Y10.0 ; Move to work origin (10mm from corner)
G10 L20 P1 X0 Y0 Z0 ; Set current position as work zero
G0 Z5.00 F3000 ; Move to safe height

M5 ; Laser off

G0 X13.713 Y0.048 ; Move to path start
G1 F600 M3 S1000 ; Enable laser at power level
G1 X13.510 Y0.083
G1 X13.312 Y0.119
G1 X13.119 Y0.157
G1 X12.929 Y0.196
G1 X12.743 Y0.236
G1 X12.562 Y0.278
G1 X12.384 Y0.321
G1 X12.210 Y0.366
G1 X12.040 Y0.412
G1 X11.873 Y0.460
G1 X11.709 Y0.510
G1 X11.549 Y0.561
G1 X11.392 Y0.615
G1 X11.238 Y0.670
G1 X11.087 Y0.727
G1 X10.938 Y0.787
G1 X10.793 Y0.848
G1 X10.650 Y0.912
G1 X10.510 Y0.978
G1 X10.372 Y1.046
G1 X10.236 Y1.117
G1 X10.103 Y1.190
G1 X9.971 Y1.266
G1 X9.842 Y1.344
G1 X9.714 Y1.425
G1 X9.588 Y1.509
G1 X9.464 Y1.596
G1 X9.341 Y1.685
G1 X9.219 Y1.777
G1 X9.099 Y1.873
G1 X8.980 Y1.971
G1 X8.863 Y2.073
G1 X8.746 Y2.177
G1 X8.630 Y2.285
G1 X8.514 Y2.397
G1 X8.399 Y2.512
G1 X8.285 Y2.630
G1 X8.171 Y2.752
G1 X8.058 Y2.877
G1 X7.944 Y3.006
G1 X7.831 Y3.139
G1 X7.718 Y3.275
G1 X7.604 Y3.416
G1 X7.491 Y3.560
G1 X7.376 Y3.709
G1 X7.262 Y3.861
G1 X7.147 Y4.018
G1 X6.525 Y4.247
G1 X6.405 Y4.194
G1 X6.286 Y4.143
G1 X6.169 Y4.093
G1 X6.053 Y4.044
G1 X5.938 Y3.997
G1 X5.824 Y3.951
G1 X5.711 Y3.906
G1 X5.599 Y3.863
G1 X5.487 Y3.820
G1 X5.376 Y3.779
G1 X5.266 Y3.739
G1 X5.155 Y3.699
G1 X5.045 Y3.661
G1 X4.935 Y3.624
G1 X4.825 Y3.587
G1 X4.714 Y3.552
G1 X4.603 Y3.517
G1 X4.492 Y3.483
G1 X4.379 Y3.450
G1 X4.267 Y3.417
G1 X4.153 Y3.385
G1 X4.038 Y3.354
G1 X3.922 Y3.324
G1 X3.805 Y3.294
G1 X3.686 Y3.264
G1 X3.566 Y3.235
G1 X3.444 Y3.207
G1 X3.320 Y3.179
G1 X3.195 Y3.151
G1 X3.067 Y3.124
M5 ; Laser off
G0 X48.835 Y12.853 ; Move to path start
G1 F600 M3 S1000 ; Enable laser at power level
G1 X48.604 Y12.896
G1 X48.373 Y12.942
G1 X48.141 Y12.989
G1 X47.909 Y13.037
G1 X47.676 Y13.088
G1 X47.443 Y13.139
G1 X47.210 Y13.193
G1 X46.977 Y13.248
G1 X46.744 Y13.304
G1 X46.512 Y13.362
G1 X46.280 Y13.421
G1 X46.048 Y13.482
G1 X45.817 Y13.544
G1 X45.587 Y13.607
G1 X45.358 Y13.671
G1 X45.129 Y13.737
G1 X44.902 Y13.804
G1 X44.676 Y13.872
G1 X44.452 Y13.941
G1 X44.228 Y14.011
G1 X44.007 Y14.082
G1 X43.787 Y14.154
G1 X43.569 Y14.226
G1 X43.353 Y14.300
G1 X43.139 Y14.375
G1 X42.927 Y14.450
G1 X42.717 Y14.526
G1 X42.510 Y14.603
G1 X42.305 Y14.680
G1 X42.103 Y14.758
G1 X41.904 Y14.837
G1 X41.707 Y14.916
G1 X41.514 Y14.996
G1 X41.324 Y15.076
G1 X41.137 Y15.156
G1 X40.953 Y15.237
G1 X40.773 Y15.319
G1 X40.596 Y15.400
G1 X40.423 Y15.482
G1 X40.254 Y15.564
G1 X40.089 Y15.646
G1 X39.928 Y15.729
G1 X39.771 Y15.811
G1 X39.619 Y15.893
G1 X39.470 Y15.976
G1 X39.327 Y16.058
G1 X39.188 Y16.141
G1 X39.054 Y16.223
G1 X38.924 Y16.305
G1 X38.800 Y16.387
M5 ; Laser off
G0 X48.726 Y17.652 ; Move to path start
G1 F600 M3 S1000 ; Enable laser at power level
G1 X48.492 Y17.707
G1 X48.254 Y17.765
G1 X48.013 Y17.827
G1 X47.768 Y17.892
G1 X47.520 Y17.961
G1 X47.268 Y18.034
G1 X47.014 Y18.109
G1 X46.757 Y18.188
G1 X46.498 Y18.270
G1 X46.236 Y18.355
G1 X45.973 Y18.443
G1 X45.708 Y18.534
G1 X45.441 Y18.628
G1 X45.173 Y18.724
G1 X44.904 Y18.822
G1 X44.635 Y18.923
G1 X44.364 Y19.027
G1 X44.094 Y19.132
G1 X43.823 Y19.240
G1 X43.552 Y19.349
G1 X43.282 Y19.461
G1 X43.012 Y19.574
G1 X42.743 Y19.689
G1 X42.475 Y19.806
G1 X42.209 Y19.924
G1 X41.943 Y20.043
G1 X41.680 Y20.164
G1 X41.418 Y20.286
G1 X41.159 Y20.409
G1 X40.902 Y20.533
G1 X40.647 Y20.658
G1 X40.395 Y20.784
G1 X40.147 Y20.910
G1 X39.901 Y21.037
G1 X39.660 Y21.164
G1 X39.421 Y21.292
G1 X39.187 Y21.420
G1 X38.957 Y21.548
G1 X38.732 Y21.676
G1 X38.511 Y21.805
G1 X38.295 Y21.933
G1 X38.084 Y22.060
G1 X37.878 Y22.188
G1 X37.678 Y22.315
G1 X37.484 Y22.442
G1 X37.296 Y22.567
G1 X37.114 Y22.693
G1 X36.938 Y22.817
G1 X36.770 Y22.940
G1 X36.608 Y23.062
G1 X37.219 Y23.368
G1 X37.457 Y23.243
G1 X37.687 Y23.123
G1 X37.909 Y23.007
G1 X38.123 Y22.895
G1 X38.330 Y22.787
G1 X38.530 Y22.683
G1 X38.723 Y22.583
G1 X38.909 Y22.487
G1 X39.089 Y22.394
G1 X39.263 Y22.305
G1 X39.432 Y22.218
G1 X39.596 Y22.135
G1 X39.755 Y22.054
G1 X39.909 Y21.977
G1 X40.059 Y21.901
G1 X40.205 Y21.829
G1 X40.348 Y21.758
G1 X40.487 Y21.690
G1 X40.623 Y21.624
G1 X40.757 Y21.559
G1 X40.889 Y21.496
G1 X41.018 Y21.435
G1 X41.146 Y21.375
G1 X41.273 Y21.316
G1 X41.399 Y21.258
G1 X41.524 Y21.201
G1 X41.649 Y21.145
G1 X41.773 Y21.090
G1 X41.899 Y21.035
G1 X42.024 Y20.980
G1 X42.151 Y20.926
G1 X42.279 Y20.871
G1 X42.409 Y20.817
G1 X42.540 Y20.762
G1 X42.674 Y20.707
G1 X42.811 Y20.651
G1 X42.950 Y20.594
G1 X43.093 Y20.536
G1 X43.239 Y20.478
G1 X43.389 Y20.418
G1 X43.544 Y20.357
G1 X43.703 Y20.294
G1 X43.867 Y20.230
G1 X44.036 Y20.164
G1 X44.210 Y20.096
M5 ; Laser off
G0 X64.542 Y17.489 ; Move to path start
G1 F600 M3 S1000 ; Enable laser at power level
G1 X64.526 Y17.492
G1 X64.506 Y17.497
G1 X64.481 Y17.501
G1 X64.452 Y17.507
G1 X64.418 Y17.513
G1 X64.381 Y17.519
G1 X64.340 Y17.526
G1 X64.296 Y17.534
G1 X64.248 Y17.542
G1 X64.198 Y17.550
G1 X64.145 Y17.559
G1 X64.090 Y17.568
G1 X64.033 Y17.578
G1 X63.974 Y17.587
G1 X63.913 Y17.598
G1 X63.851 Y17.608
G1 X63.787 Y17.619
G1 X63.723 Y17.630
G1 X63.658 Y17.641
G1 X63.593 Y17.652
M5 ; Laser off
G0 X56.754 Y23.422 ; Move to path start
G1 F600 M3 S1000 ; Enable laser at power level
G1 X56.709 Y23.467
G1 X56.663 Y23.512
G1 X56.616 Y23.557
G1 X56.567 Y23.602
G1 X56.519 Y23.648
G1 X56.469 Y23.693
G1 X56.419 Y23.738
G1 X56.369 Y23.783
G1 X56.318 Y23.827
G1 X56.268 Y23.871
G1 X56.217 Y23.914
G1 X56.166 Y23.957
G1 X56.115 Y23.999
G1 X56.065 Y24.040
G1 X56.016 Y24.080
G1 X55.966 Y24.119
G1 X55.918 Y24.157
G1 X55.870 Y24.194
G1 X55.824 Y24.229
G1 X55.778 Y24.263
G1 X55.734 Y24.295
G1 X55.691 Y24.326
G1 X55.649 Y24.355
G1 X55.609 Y24.382
G1 X55.571 Y24.407
G1 X55.534 Y24.430
G1 X55.499 Y24.451
G1 X55.467 Y24.470
G1 X54.932 Y24.764
G1 X54.788 Y24.751
G1 X54.640 Y24.739
G1 X54.491 Y24.728
G1 X54.339 Y24.719
G1 X54.185 Y24.710
G1 X54.030 Y24.702
G1 X53.874 Y24.696
G1 X53.717 Y24.690
G1 X53.559 Y24.685
G1 X53.401 Y24.682
G1 X53.242 Y24.679
G1 X53.083 Y24.677
G1 X52.925 Y24.677
G1 X52.768 Y24.677
G1 X52.611 Y24.678
G1 X52.455 Y24.680
G1 X52.301 Y24.684
G1 X52.148 Y24.688
G1 X51.997 Y24.693
G1 X51.849 Y24.699
G1 X51.703 Y24.705
G1 X51.559 Y24.713
G1 X51.419 Y24.722
G1 X51.282 Y24.731
G1 X51.148 Y24.742
G1 X51.018 Y24.753
G1 X50.892 Y24.765
G1 X50.770 Y24.778
G1 X50.653 Y24.792
G1 X50.540 Y24.806
G1 X50.433 Y24.822
G1 X50.331 Y24.838
G1 X50.234 Y24.855
G1 X50.144 Y24.873
M5 ; Laser off
G0 X59.677 Y23.248 ; Move to path start
G1 F600 M3 S1000 ; Enable laser at power level
G1 X59.670 Y23.274
G1 X59.667 Y23.303
G1 X59.667 Y23.337
G1 X59.671 Y23.374
G1 X59.677 Y23.415
G1 X59.687 Y23.460
G1 X59.700 Y23.507
G1 X59.715 Y23.558
G1 X59.734 Y23.613
G1 X59.755 Y23.670
G1 X59.779 Y23.729
G1 X59.806 Y23.792
G1 X59.835 Y23.857
G1 X59.867 Y23.924
G1 X59.900 Y23.994
G1 X59.937 Y24.066
G1 X59.975 Y24.139
G1 X60.015 Y24.215
G1 X60.057 Y24.292
G1 X60.102 Y24.370
G1 X60.148 Y24.450
G1 X60.195 Y24.532
G1 X60.245 Y24.614
G1 X60.296 Y24.698
G1 X60.348 Y24.782
G1 X60.402 Y24.867
G1 X60.457 Y24.952
G1 X60.513 Y25.038
G1 X60.570 Y25.124
G1 X60.628 Y25.210
G1 X60.687 Y25.297
G1 X60.747 Y25.383
G1 X60.808 Y25.469
G1 X60.869 Y25.554
G1 X60.931 Y25.639
G1 X60.994 Y25.723
G1 X61.057 Y25.807
G1 X61.120 Y25.889
G1 X61.183 Y25.970
G1 X61.247 Y26.050
G1 X61.310 Y26.129
G1 X61.374 Y26.206
G1 X61.437 Y26.281
G1 X61.500 Y26.354
G1 X61.563 Y26.426
G1 X61.625 Y26.495
G1 X61.687 Y26.562
G1 X61.749 Y26.627
G1 X61.810 Y26.690
G1 X61.869 Y26.749
M5 ; Laser off
G0 X55.979 Y31.123 ; Move to path start
G1 F600 M3 S1000 ; Enable laser at power level
G1 X55.915 Y31.188
G1 X55.850 Y31.253
G1 X55.786 Y31.318
G1 X55.721 Y31.382
G1 X55.657 Y31.445
G1 X55.593 Y31.508
G1 X55.529 Y31.570
G1 X55.466 Y31.632
G1 X55.403 Y31.693
G1 X55.340 Y31.752
G1 X55.279 Y31.811
G1 X55.218 Y31.869
G1 X55.157 Y31.926
G1 X55.098 Y31.982
G1 X55.039 Y32.037
G1 X54.981 Y32.090
G1 X54.925 Y32.143
G1 X54.869 Y32.193
G1 X54.815 Y32.243
G1 X54.761 Y32.291
G1 X54.709 Y32.337
G1 X54.659 Y32.382
G1 X54.609 Y32.426
G1 X54.562 Y32.467
G1 X54.516 Y32.507
G1 X54.471 Y32.545
G1 X54.428 Y32.581
G1 X54.387 Y32.616
G1 X54.348 Y32.648
G1 X54.310 Y32.678
G1 X54.275 Y32.706
G1 X54.242 Y32.732
G1 X54.210 Y32.755
G1 X54.181 Y32.777
G1 X54.154 Y32.796
G1 X54.130 Y32.812
G1 X54.108 Y32.826
G1 X54.088 Y32.838
G1 X54.071 Y32.847
M5 ; Laser off
G0 X59.524 Y29.749 ; Move to path start
G1 F600 M3 S1000 ; Enable laser at power level
G1 X59.526 Y29.765
G1 X59.530 Y29.787
G1 X59.537 Y29.817
G1 X59.547 Y29.853
G1 X59.559 Y29.895
G1 X59.573 Y29.943
G1 X59.590 Y29.996
G1 X59.609 Y30.053
G1 X59.629 Y30.116
G1 X59.651 Y30.182
G1 X59.675 Y30.253
G1 X59.701 Y30.327
G1 X59.728 Y30.404
G1 X59.756 Y30.484
G1 X59.785 Y30.566
G1 X59.815 Y30.650
G1 X59.846 Y30.735
G1 X59.878 Y30.822
G1 X59.910 Y30.910
G1 X59.943 Y30.999
G1 X59.976 Y31.088
G1 X60.009 Y31.176
G1 X60.042 Y31.264
G1 X60.075 Y31.351
G1 X60.108 Y31.437
G1 X60.141 Y31.521
G1 X60.173 Y31.603
G1 X60.204 Y31.683
G1 X60.234 Y31.759
G1 X60.264 Y31.833
G1 X60.292 Y31.904
G1 X60.320 Y31.970
G1 X60.346 Y32.033
G1 X60.370 Y32.090
G1 X60.393 Y32.143
G1 X60.415 Y32.191
G1 X60.434 Y32.233
G1 X60.451 Y32.268
M5 ; Laser off
G0 X29.801 Y32.890 ; Move to path start
G1 F600 M3 S1000 ; Enable laser at power level
G1 X29.753 Y32.916
G1 X29.703 Y32.944
G1 X29.651 Y32.975
G1 X29.597 Y33.008
G1 X29.541 Y33.044
G1 X29.484 Y33.082
G1 X29.425 Y33.122
G1 X29.365 Y33.165
G1 X29.304 Y33.209
G1 X29.242 Y33.255
G1 X29.179 Y33.303
G1 X29.116 Y33.352
G1 X29.052 Y33.402
G1 X28.987 Y33.454
G1 X28.922 Y33.507
G1 X28.857 Y33.562
G1 X28.792 Y33.617
G1 X28.728 Y33.673
G1 X28.663 Y33.729
G1 X28.599 Y33.787
G1 X28.535 Y33.844
G1 X28.472 Y33.902
G1 X28.410 Y33.961
G1 X28.348 Y34.019
G1 X28.288 Y34.077
G1 X28.229 Y34.136
G1 X28.171 Y34.193
G1 X28.115 Y34.251
G1 X28.060 Y34.308
G1 X28.007 Y34.364
G1 X27.957 Y34.420
G1 X27.908 Y34.475
G1 X27.861 Y34.528
G1 X27.816 Y34.581
G1 X27.107 Y34.232
G1 X26.780 Y34.222
G1 X26.468 Y34.212
G1 X26.172 Y34.202
G1 X25.890 Y34.190
G1 X25.622 Y34.178
G1 X25.368 Y34.165
G1 X25.127 Y34.150
G1 X24.898 Y34.134
G1 X24.680 Y34.116
G1 X24.474 Y34.096
G1 X24.278 Y34.074
G1 X24.092 Y34.050
G1 X23.915 Y34.024
G1 X23.747 Y33.995
G1 X23.586 Y33.964
G1 X23.434 Y33.929
G1 X23.288 Y33.892
G1 X23.148 Y33.851
G1 X23.014 Y33.807
G1 X22.886 Y33.759
G1 X22.761 Y33.708
G1 X22.641 Y33.653
G1 X22.523 Y33.593
G1 X22.409 Y33.530
G1 X22.296 Y33.461
G1 X22.185 Y33.389
G1 X22.075 Y33.311
G1 X21.965 Y33.229
G1 X21.855 Y33.141
G1 X21.743 Y33.048
G1 X21.630 Y32.950
G1 X21.515 Y32.845
G1 X21.398 Y32.736
G1 X21.277 Y32.620
G1 X21.152 Y32.497
G1 X28.460 Y52.709
G1 X28.466 Y52.720
G1 X28.473 Y52.735
G1 X28.481 Y52.755
G1 X28.490 Y52.779
G1 X28.500 Y52.806
G1 X28.511 Y52.837
G1 X28.522 Y52.871
G1 X28.534 Y52.908
G1 X28.547 Y52.947
G1 X28.561 Y52.990
G1 X28.574 Y53.034
G1 X28.588 Y53.080
G1 X28.603 Y53.128
G1 X28.617 Y53.178
G1 X28.632 Y53.229
G1 X28.646 Y53.281
G1 X28.661 Y53.333
G1 X28.675 Y53.387
G1 X28.689 Y53.440
M5 ; Laser off
G0 X86.357 Y33.043 ; Move to path start
G1 F600 M3 S1000 ; Enable laser at power level
G1 X86.358 Y33.058
G1 X86.361 Y33.077
G1 X86.365 Y33.098
G1 X86.372 Y33.123
G1 X86.380 Y33.152
G1 X86.390 Y33.183
G1 X86.402 Y33.216
G1 X86.415 Y33.253
G1 X86.430 Y33.292
G1 X86.446 Y33.333
G1 X86.464 Y33.377
G1 X86.483 Y33.422
G1 X86.503 Y33.470
G1 X86.525 Y33.519
G1 X86.547 Y33.570
G1 X86.571 Y33.623
G1 X86.596 Y33.677
G1 X86.622 Y33.732
G1 X86.649 Y33.788
G1 X86.676 Y33.846
G1 X86.705 Y33.904
G1 X86.734 Y33.963
G1 X86.765 Y34.023
G1 X86.795 Y34.083
G1 X86.827 Y34.143
G1 X86.859 Y34.204
G1 X86.891 Y34.264
G1 X84.328 Y34.341
G1 X84.247 Y34.379
G1 X84.163 Y34.420
G1 X84.076 Y34.463
G1 X83.987 Y34.510
G1 X83.894 Y34.558
G1 X83.800 Y34.609
G1 X83.702 Y34.662
G1 X83.603 Y34.718
G1 X83.502 Y34.775
G1 X83.399 Y34.835
G1 X83.294 Y34.896
G1 X83.187 Y34.959
G1 X83.079 Y35.024
G1 X82.970 Y35.090
G1 X82.860 Y35.157
G1 X82.749 Y35.226
G1 X82.637 Y35.296
G1 X82.524 Y35.367
G1 X82.411 Y35.440
G1 X82.298 Y35.513
G1 X82.184 Y35.586
G1 X82.071 Y35.661
G1 X81.958 Y35.736
G1 X81.845 Y35.811
G1 X81.732 Y35.887
G1 X81.620 Y35.963
G1 X81.509 Y36.039
G1 X81.399 Y36.115
G1 X81.290 Y36.191
G1 X81.182 Y36.267
G1 X81.076 Y36.343
G1 X80.971 Y36.418
G1 X80.868 Y36.493
G1 X80.766 Y36.567
G1 X80.667 Y36.640
G1 X80.570 Y36.713
G1 X80.475 Y36.784
G1 X80.383 Y36.855
G1 X80.294 Y36.924
G1 X80.207 Y36.992
G1 X80.123 Y37.059
G1 X80.043 Y37.124
G1 X79.965 Y37.188
G1 X79.891 Y37.250
G1 X79.821 Y37.310
G1 X79.754 Y37.368
G1 X79.692 Y37.425
G1 X79.633 Y37.479
G1 X79.579 Y37.531
G1 X79.529 Y37.580
G1 X73.922 Y57.650
G1 X74.016 Y57.678
G1 X74.106 Y57.710
G1 X74.192 Y57.747
G1 X74.274 Y57.788
G1 X74.352 Y57.834
G1 X74.426 Y57.885
G1 X74.496 Y57.940
G1 X74.562 Y57.999
G1 X74.624 Y58.062
G1 X74.681 Y58.130
G1 X74.734 Y58.201
G1 X74.783 Y58.277
G1 X74.828 Y58.357
G1 X74.868 Y58.441
G1 X74.904 Y58.528
G1 X74.936 Y58.620
G1 X74.963 Y58.715
G1 X74.986 Y58.813
G1 X75.004 Y58.916
G1 X75.018 Y59.021
G1 X75.027 Y59.131
G1 X75.032 Y59.243
G1 X75.032 Y59.359
G1 X75.028 Y59.478
G1 X75.019 Y59.600
G1 X75.005 Y59.726
G1 X74.987 Y59.854
G1 X74.964 Y59.986
G1 X74.936 Y60.120
G1 X74.904 Y60.257
M5 ; Laser off
G0 X56.797 Y37.755 ; Move to path start
G1 F600 M3 S1000 ; Enable laser at power level
G1 X56.748 Y37.811
G1 X56.698 Y37.866
G1 X56.646 Y37.922
G1 X56.592 Y37.977
G1 X56.537 Y38.032
G1 X56.480 Y38.087
G1 X56.421 Y38.142
G1 X56.361 Y38.196
G1 X56.300 Y38.251
G1 X56.236 Y38.305
G1 X56.171 Y38.359
G1 X56.104 Y38.413
G1 X56.036 Y38.467
G1 X55.966 Y38.521
G1 X55.894 Y38.575
G1 X55.821 Y38.629
G1 X55.745 Y38.682
G1 X55.668 Y38.736
G1 X55.589 Y38.790
G1 X55.509 Y38.843
G1 X55.427 Y38.897
G1 X55.343 Y38.951
G1 X55.257 Y39.004
G1 X55.169 Y39.058
G1 X55.079 Y39.111
G1 X54.988 Y39.165
G1 X54.895 Y39.219
G1 X54.800 Y39.273
G1 X54.703 Y39.326
G1 X54.604 Y39.380
G1 X54.503 Y39.434
G1 X54.400 Y39.489
G1 X54.296 Y39.543
G1 X54.189 Y39.597
G1 X54.081 Y39.652
G1 X53.970 Y39.707
G1 X53.858 Y39.761
G1 X53.743 Y39.816
M5 ; Laser off
G0 X59.743 Y37.635 ; Move to path start
G1 F600 M3 S1000 ; Enable laser at power level
G1 X59.744 Y37.656
G1 X59.748 Y37.683
G1 X59.754 Y37.716
G1 X59.763 Y37.754
G1 X59.775 Y37.798
G1 X59.788 Y37.846
G1 X59.803 Y37.899
G1 X59.821 Y37.956
G1 X59.840 Y38.017
G1 X59.860 Y38.081
G1 X59.882 Y38.148
G1 X59.906 Y38.218
G1 X59.931 Y38.291
G1 X59.957 Y38.365
G1 X59.984 Y38.441
G1 X60.012 Y38.519
G1 X60.040 Y38.598
G1 X60.069 Y38.677
G1 X60.099 Y38.756
G1 X60.129 Y38.836
G1 X60.160 Y38.915
G1 X60.190 Y38.994
G1 X60.220 Y39.071
G1 X60.251 Y39.147
G1 X60.281 Y39.221
G1 X60.310 Y39.294
G1 X60.340 Y39.364
G1 X60.368 Y39.431
G1 X60.396 Y39.495
G1 X60.423 Y39.555
G1 X60.448 Y39.612
G1 X60.473 Y39.665
G1 X60.496 Y39.713
G1 X60.518 Y39.756
G1 X60.539 Y39.795
M5 ; Laser off
G0 X34.961 Y40.002 ; Move to path start
G1 F600 M3 S1000 ; Enable laser at power level
G1 X34.924 Y40.046
G1 X34.885 Y40.094
G1 X34.846 Y40.146
G1 X34.806 Y40.201
G1 X34.765 Y40.259
G1 X34.723 Y40.320
G1 X34.681 Y40.384
G1 X34.638 Y40.450
G1 X34.595 Y40.519
G1 X34.551 Y40.591
G1 X34.507 Y40.664
G1 X34.463 Y40.739
G1 X34.419 Y40.817
G1 X34.375 Y40.895
G1 X34.331 Y40.975
G1 X34.287 Y41.057
G1 X34.243 Y41.139
G1 X34.200 Y41.222
G1 X34.158 Y41.306
G1 X34.116 Y41.390
G1 X34.074 Y41.475
G1 X34.034 Y41.560
G1 X33.994 Y41.644
G1 X33.955 Y41.729
G1 X33.918 Y41.813
G1 X33.881 Y41.896
G1 X33.846 Y41.979
G1 X33.812 Y42.061
G1 X33.779 Y42.142
G1 X33.748 Y42.221
G1 X33.719 Y42.299
G1 X33.691 Y42.375
G1 X33.665 Y42.449
G1 X33.641 Y42.521
M5 ; Laser off
G0 X81.307 Y39.653 ; Move to path start
G1 F600 M3 S1000 ; Enable laser at power level
G1 X81.302 Y39.664
G1 X81.297 Y39.680
G1 X81.291 Y39.700
G1 X81.283 Y39.724
G1 X81.275 Y39.751
G1 X81.266 Y39.782
G1 X81.257 Y39.817
G1 X81.246 Y39.854
G1 X81.236 Y39.894
G1 X81.225 Y39.937
G1 X81.213 Y39.982
G1 X81.202 Y40.028
G1 X81.190 Y40.077
G1 X81.178 Y40.128
G1 X81.166 Y40.179
G1 X81.155 Y40.232
G1 X81.143 Y40.286
G1 X81.132 Y40.340
M5 ; Laser off
G0 X20.486 Y44.550 ; Move to path start
G1 F600 M3 S1000 ; Enable laser at power level
G1 X20.412 Y44.621
G1 X20.339 Y44.692
G1 X20.267 Y44.763
G1 X20.196 Y44.834
G1 X20.126 Y44.905
G1 X20.057 Y44.976
G1 X19.989 Y45.048
G1 X19.922 Y45.120
G1 X19.855 Y45.192
G1 X19.789 Y45.265
G1 X19.724 Y45.339
G1 X19.660 Y45.414
G1 X19.595 Y45.489
G1 X19.532 Y45.566
G1 X19.468 Y45.643
G1 X19.405 Y45.721
G1 X19.342 Y45.801
G1 X19.280 Y45.882
G1 X19.217 Y45.965
G1 X19.154 Y46.048
G1 X19.092 Y46.134
G1 X19.029 Y46.221
G1 X18.966 Y46.310
G1 X18.903 Y46.400
G1 X18.839 Y46.493
G1 X18.775 Y46.587
G1 X18.711 Y46.684
G1 X18.646 Y46.782
G1 X18.581 Y46.883
G1 X18.515 Y46.987
G1 X18.448 Y47.092
G1 X18.380 Y47.201
G1 X18.312 Y47.312
G1 X18.243 Y47.425
G1 X18.173 Y47.541
G1 X18.101 Y47.661
G1 X18.029 Y47.783
G1 X17.955 Y47.908
G1 X17.880 Y48.036
G1 X17.804 Y48.168
G1 X17.727 Y48.302
G1 X16.723 Y47.452
G1 X16.727 Y47.418
G1 X16.730 Y47.380
G1 X16.735 Y47.337
G1 X16.740 Y47.290
G1 X16.746 Y47.239
G1 X16.752 Y47.184
G1 X16.759 Y47.126
G1 X16.767 Y47.065
G1 X16.774 Y47.002
G1 X16.783 Y46.935
G1 X16.791 Y46.866
G1 X16.800 Y46.796
G1 X16.809 Y46.723
G1 X16.819 Y46.649
G1 X16.828 Y46.574
G1 X16.838 Y46.497
G1 X16.848 Y46.420
G1 X16.858 Y46.343
G1 X16.868 Y46.265
G1 X16.878 Y46.187
G1 X16.889 Y46.110
G1 X16.899 Y46.033
G1 X16.909 Y45.957
M5 ; Laser off
G0 X95.083 Y43.776 ; Move to path start
G1 F600 M3 S1000 ; Enable laser at power level
G1 X95.083 Y43.800
G1 X95.085 Y43.826
G1 X95.089 Y43.853
G1 X95.093 Y43.882
G1 X95.099 Y43.912
G1 X95.107 Y43.944
G1 X95.116 Y43.977
G1 X95.126 Y44.012
G1 X95.138 Y44.050
G1 X95.151 Y44.089
G1 X95.166 Y44.130
G1 X95.183 Y44.173
G1 X95.201 Y44.218
G1 X95.221 Y44.265
G1 X95.243 Y44.314
G1 X95.266 Y44.366
G1 X95.292 Y44.420
G1 X95.319 Y44.477
G1 X95.348 Y44.536
G1 X95.378 Y44.597
G1 X95.411 Y44.661
G1 X95.446 Y44.728
G1 X95.482 Y44.798
G1 X95.521 Y44.870
G1 X95.561 Y44.945
G1 X95.604 Y45.023
G1 X95.649 Y45.104
G1 X95.696 Y45.188
G1 X95.745 Y45.276
G1 X95.796 Y45.366
G1 X95.850 Y45.460
G1 X95.905 Y45.557
G1 X95.963 Y45.657
G1 X96.024 Y45.761
G1 X96.087 Y45.868
G1 X96.152 Y45.979
G1 X97.253 Y46.165
G1 X97.324 Y46.099
G1 X97.397 Y46.031
G1 X97.472 Y45.959
G1 X97.548 Y45.884
G1 X97.626 Y45.805
G1 X97.706 Y45.723
G1 X97.787 Y45.637
G1 X97.871 Y45.548
G1 X97.956 Y45.456
G1 X98.043 Y45.360
G1 X98.132 Y45.261
G1 X98.223 Y45.158
G1 X98.316 Y45.052
G1 X98.410 Y44.942
G1 X98.506 Y44.829
G1 X98.605 Y44.713
G1 X98.704 Y44.593
G1 X98.806 Y44.469
G1 X98.910 Y44.342
G1 X99.016 Y44.212
G1 X99.123 Y44.078
G1 X99.232 Y43.941
G1 X99.343 Y43.800
G1 X99.456 Y43.655
G1 X99.571 Y43.507
G1 X99.688 Y43.356
G1 X99.807 Y43.201
G1 X99.927 Y43.042
G1 X100.050 Y42.880
G1 X100.174 Y42.715
G1 X100.300 Y42.545
G1 X100.429 Y42.373
G1 X100.559 Y42.196
G1 X100.691 Y42.017
G1 X100.825 Y41.833
G1 X100.960 Y41.646
G1 X101.098 Y41.456
G1 X101.238 Y41.261
G1 X101.380 Y41.064
G1 X101.523 Y40.862
G1 X101.669 Y40.657
G1 X101.816 Y40.449
G1 X101.966 Y40.237
G1 X102.117 Y40.021
G1 X102.271 Y39.801
G1 X102.426 Y39.578
G1 X102.583 Y39.351
G1 X102.743 Y39.121
G1 X102.904 Y38.887
G1 X103.067 Y38.649
M5 ; Laser off
G0 X30.870 Y58.403 ; Move to path start
G1 F600 M3 S1000 ; Enable laser at power level
G1 X30.811 Y58.451
G1 X30.758 Y58.498
G1 X30.710 Y58.546
G1 X30.668 Y58.594
G1 X30.631 Y58.643
G1 X30.599 Y58.693
G1 X30.573 Y58.745
G1 X30.552 Y58.800
G1 X30.536 Y58.858
G1 X30.524 Y58.919
G1 X30.518 Y58.984
G1 X30.517 Y59.054
G1 X30.520 Y59.128
G1 X30.527 Y59.207
G1 X30.539 Y59.293
G1 X30.556 Y59.384
G1 X30.576 Y59.482
G1 X30.601 Y59.588
G1 X30.630 Y59.701
M5 ; Laser off
G0 X85.048 Y58.665 ; Move to path start
G1 F600 M3 S1000 ; Enable laser at power level
G1 X84.956 Y58.817
G1 X84.866 Y58.966
G1 X84.776 Y59.111
G1 X84.686 Y59.253
G1 X84.598 Y59.392
G1 X84.510 Y59.527
G1 X84.423 Y59.659
G1 X84.336 Y59.788
G1 X84.250 Y59.914
G1 X84.164 Y60.037
G1 X84.078 Y60.157
G1 X83.993 Y60.274
G1 X83.908 Y60.388
G1 X83.823 Y60.499
G1 X83.738 Y60.607
G1 X83.654 Y60.713
G1 X83.569 Y60.816
G1 X83.485 Y60.917
G1 X83.400 Y61.015
G1 X83.315 Y61.110
G1 X83.230 Y61.203
G1 X83.144 Y61.294
G1 X83.059 Y61.382
G1 X82.973 Y61.468
G1 X82.886 Y61.552
G1 X82.799 Y61.633
G1 X82.712 Y61.713
G1 X82.624 Y61.790
G1 X82.535 Y61.866
G1 X82.446 Y61.939
G1 X82.355 Y62.011
G1 X82.264 Y62.081
G1 X82.173 Y62.149
G1 X82.080 Y62.215
G1 X81.986 Y62.280
G1 X81.891 Y62.343
G1 X81.795 Y62.404
G1 X81.698 Y62.464
G1 X81.600 Y62.523
G1 X81.500 Y62.580
G1 X81.400 Y62.636
G1 X81.297 Y62.691
G1 X81.194 Y62.744
G1 X81.089 Y62.796
G1 X80.982 Y62.847
G1 X80.874 Y62.898
G1 X80.764 Y62.947
G1 X80.652 Y62.995
M5 ; Laser off
G0 X46.239 Y85.519 ; Move to path start
G1 F600 M3 S1000 ; Enable laser at power level
G1 X46.184 Y85.629
G1 X46.132 Y85.740
G1 X46.085 Y85.853
G1 X46.040 Y85.967
G1 X45.999 Y86.082
G1 X45.962 Y86.198
G1 X45.928 Y86.315
G1 X45.898 Y86.433
G1 X45.872 Y86.551
G1 X45.848 Y86.671
G1 X45.829 Y86.791
G1 X45.812 Y86.911
G1 X45.800 Y87.033
G1 X45.790 Y87.154
G1 X45.785 Y87.276
G1 X45.782 Y87.399
G1 X45.783 Y87.521
G1 X45.788 Y87.644
G1 X45.796 Y87.767
G1 X45.807 Y87.890
G1 X45.822 Y88.013
G1 X45.840 Y88.136
G1 X45.862 Y88.258
G1 X45.887 Y88.381
G1 X45.915 Y88.502
G1 X45.947 Y88.624
G1 X45.982 Y88.745
G1 X46.021 Y88.866
G1 X46.062 Y88.985
G1 X46.108 Y89.105
G1 X46.156 Y89.223
G1 X46.208 Y89.340
G1 X46.263 Y89.457
G1 X46.321 Y89.573
G1 X46.383 Y89.687
G1 X46.448 Y89.801
G1 X46.516 Y89.913
G1 X46.588 Y90.024
G1 X54.147 Y92.641
G1 X54.409 Y92.749
G1 X54.649 Y92.846
G1 X54.870 Y92.936
G1 X55.072 Y93.017
G1 X55.259 Y93.090
G1 X55.433 Y93.155
G1 X55.595 Y93.214
G1 X55.749 Y93.266
G1 X55.896 Y93.311
G1 X56.038 Y93.351
G1 X56.178 Y93.385
G1 X56.318 Y93.415
G1 X56.459 Y93.439
G1 X56.605 Y93.460
G1 X56.758 Y93.476
G1 X56.919 Y93.490
G1 X57.091 Y93.500
G1 X57.276 Y93.508
G1 X57.476 Y93.514
G1 X57.694 Y93.518
G1 X57.931 Y93.521
G1 X58.190 Y93.522
G1 X58.473 Y93.524
G1 X58.783 Y93.525
G1 X61.128 Y93.536
G1 X61.191 Y93.513
G1 X61.256 Y93.490
G1 X61.323 Y93.465
G1 X61.392 Y93.440
G1 X61.463 Y93.415
G1 X61.536 Y93.388
G1 X61.609 Y93.362
G1 X61.684 Y93.335
G1 X61.759 Y93.308
G1 X61.835 Y93.280
G1 X61.911 Y93.253
G1 X61.987 Y93.225
G1 X62.063 Y93.198
G1 X62.138 Y93.170
G1 X62.213 Y93.143
G1 X62.287 Y93.116
G1 X62.360 Y93.090
G1 X62.431 Y93.064
G1 X62.501 Y93.039
G1 X62.569 Y93.014
G1 X62.635 Y92.990
G1 X62.698 Y92.967
G1 X62.759 Y92.945
G1 X62.818 Y92.923
G1 X62.873 Y92.903
G1 X69.614 Y112.351
G1 X69.671 Y112.367
G1 X69.729 Y112.383
G1 X69.786 Y112.400
G1 X69.844 Y112.418
G1 X69.902 Y112.437
G1 X69.961 Y112.457
G1 X70.020 Y112.478
G1 X70.080 Y112.500
G1 X70.140 Y112.524
G1 X70.201 Y112.548
G1 X70.263 Y112.574
G1 X70.326 Y112.601
G1 X70.390 Y112.629
G1 X70.455 Y112.659
G1 X70.521 Y112.690
G1 X70.588 Y112.723
G1 X70.657 Y112.758
G1 X70.727 Y112.794
G1 X70.799 Y112.831
G1 X70.873 Y112.870
G1 X70.948 Y112.911
G1 X71.025 Y112.954
G1 X71.104 Y112.999
G1 X71.185 Y113.046
G1 X71.268 Y113.094
G1 X71.353 Y113.145
G1 X71.441 Y113.197
G1 X71.531 Y113.252
G1 X71.623 Y113.309
G1 X71.718 Y113.367
G1 X71.816 Y113.429
G1 X71.916 Y113.492
G1 X72.019 Y113.558
G1 X72.125 Y113.626
G1 X72.234 Y113.697
G1 X72.346 Y113.770
G1 X72.461 Y113.846
G1 X72.559 Y113.431
G1 X75.395 Y113.431
G1 X75.659 Y113.430
G1 X75.908 Y113.429
G1 X76.141 Y113.427
G1 X76.361 Y113.425
G1 X76.567 Y113.423
G1 X76.760 Y113.421
G1 X76.941 Y113.418
G1 X77.111 Y113.415
G1 X77.270 Y113.411
G1 X77.419 Y113.407
G1 X77.560 Y113.402
G1 X77.691 Y113.397
G1 X77.815 Y113.390
G1 X77.932 Y113.383
G1 X78.043 Y113.376
G1 X78.148 Y113.367
G1 X78.248 Y113.358
G1 X78.344 Y113.347
G1 X78.437 Y113.336
G1 X78.526 Y113.324
G1 X78.614 Y113.310
G1 X78.701 Y113.295
G1 X78.787 Y113.279
G1 X78.873 Y113.262
G1 X78.960 Y113.244
G1 X79.049 Y113.224
G1 X79.140 Y113.203
G1 X79.234 Y113.180
M5 ; Laser off
G0 X80.947 Y88.431 ; Move to path start
G1 F600 M3 S1000 ; Enable laser at power level
G1 X80.902 Y88.466
G1 X80.854 Y88.501
G1 X80.804 Y88.538
G1 X80.751 Y88.575
G1 X80.695 Y88.613
G1 X80.637 Y88.653
G1 X80.575 Y88.694
G1 X80.511 Y88.736
G1 X80.444 Y88.779
G1 X80.373 Y88.823
G1 X80.300 Y88.868
G1 X80.224 Y88.915
G1 X80.144 Y88.963
G1 X80.061 Y89.013
G1 X79.974 Y89.064
G1 X79.884 Y89.116
G1 X79.791 Y89.170
G1 X79.694 Y89.225
G1 X79.593 Y89.281
G1 X79.489 Y89.340
G1 X79.381 Y89.400
G1 X79.270 Y89.461
G1 X79.154 Y89.524
G1 X79.035 Y89.589
G1 X78.911 Y89.656
G1 X78.784 Y89.724
G1 X78.652 Y89.794
G1 X78.516 Y89.866
G1 X78.376 Y89.940
G1 X78.232 Y90.015
G1 X78.083 Y90.093
G1 X77.930 Y90.172
G1 X77.772 Y90.254
G1 X77.610 Y90.337
G1 X77.444 Y90.423
G1 X77.272 Y90.511
G1 X77.096 Y90.600
G1 X76.915 Y90.692
G1 X76.729 Y90.786
G1 X76.539 Y90.883
G1 X76.343 Y90.981
G1 X76.142 Y91.082
G1 X75.936 Y91.186
G1 X75.726 Y91.291
G1 X75.509 Y91.399
G1 X75.288 Y91.510
G1 X75.061 Y91.622
G1 X74.829 Y91.738
G1 X74.591 Y91.856
G1 X74.348 Y91.976
M5 ; Laser off
G0 X35.321 Y87.580 ; Move to path start
G1 F600 M3 S1000 ; Enable laser at power level
G1 X35.290 Y87.593
G1 X35.258 Y87.608
G1 X35.225 Y87.625
G1 X35.192 Y87.644
G1 X35.158 Y87.664
G1 X35.125 Y87.685
G1 X35.093 Y87.707
G1 X35.061 Y87.730
G1 X35.031 Y87.754
G1 X35.002 Y87.778
G1 X34.974 Y87.803
G1 X34.949 Y87.827
G1 X34.926 Y87.851
G1 X34.906 Y87.875
M5 ; Laser off
G0 X32.834 Y93.241 ; Move to path start
G1 F600 M3 S1000 ; Enable laser at power level
G1 X32.784 Y93.263
G1 X32.738 Y93.288
G1 X32.694 Y93.316
G1 X32.652 Y93.347
G1 X32.614 Y93.382
G1 X32.578 Y93.419
G1 X32.546 Y93.459
G1 X32.516 Y93.502
G1 X32.489 Y93.547
G1 X32.466 Y93.594
G1 X32.445 Y93.644
G1 X32.428 Y93.696
G1 X32.414 Y93.750
G1 X32.403 Y93.805
G1 X32.395 Y93.863
G1 X32.391 Y93.921
G1 X32.390 Y93.981
G1 X32.393 Y94.043
G1 X32.399 Y94.105
G1 X32.408 Y94.169
M5 ; Laser off
G0 X83.412 Y93.438 ; Move to path start
G1 F600 M3 S1000 ; Enable laser at power level
G1 X83.374 Y93.458
G1 X83.333 Y93.480
G1 X83.290 Y93.503
G1 X83.244 Y93.527
G1 X83.196 Y93.553
G1 X83.146 Y93.580
G1 X83.094 Y93.608
G1 X83.040 Y93.637
G1 X82.985 Y93.667
G1 X82.928 Y93.698
G1 X82.869 Y93.730
G1 X82.810 Y93.762
G1 X82.750 Y93.795
G1 X82.688 Y93.828
G1 X82.627 Y93.862
G1 X82.564 Y93.896
G1 X82.502 Y93.930
G1 X82.439 Y93.964
G1 X82.376 Y93.999
G1 X82.314 Y94.033
G1 X82.252 Y94.068
G1 X82.190 Y94.102
G1 X82.129 Y94.136
G1 X82.069 Y94.169
G1 X82.010 Y94.202
G1 X81.952 Y94.235
G1 X81.896 Y94.267
M5 ; Laser off
G0 X27.402 Y94.016 ; Move to path start
G1 F600 M3 S1000 ; Enable laser at power level
G1 X27.361 Y94.023
G1 X27.316 Y94.031
G1 X27.266 Y94.040
G1 X27.213 Y94.050
G1 X27.155 Y94.060
G1 X27.095 Y94.070
G1 X27.031 Y94.081
G1 X26.964 Y94.093
G1 X26.895 Y94.105
G1 X26.824 Y94.117
G1 X26.751 Y94.129
G1 X26.676 Y94.142
G1 X26.599 Y94.155
G1 X26.522 Y94.168
G1 X26.443 Y94.182
G1 X26.364 Y94.195
G1 X26.285 Y94.209
G1 X26.206 Y94.222
G1 X26.127 Y94.236
G1 X26.049 Y94.249
G1 X25.971 Y94.262
G1 X25.895 Y94.276
G1 X25.820 Y94.288
M5 ; Laser off
G0 X87.240 Y94.081 ; Move to path start
G1 F600 M3 S1000 ; Enable laser at power level
G1 X87.232 Y94.100
G1 X87.223 Y94.125
G1 X87.214 Y94.154
G1 X87.205 Y94.188
G1 X87.196 Y94.227
G1 X87.187 Y94.270
G1 X87.177 Y94.316
G1 X87.168 Y94.366
G1 X87.158 Y94.420
G1 X87.149 Y94.477
G1 X87.140 Y94.536
G1 X87.130 Y94.598
G1 X87.121 Y94.662
G1 X87.112 Y94.728
G1 X87.104 Y94.796
G1 X87.095 Y94.865
G1 X87.087 Y94.935
G1 X87.080 Y95.007
G1 X87.073 Y95.078
G1 X87.066 Y95.150
G1 X87.862 Y95.150
G1 X88.866 Y94.179
G1 X88.918 Y94.129
G1 X88.969 Y94.079
G1 X89.021 Y94.028
G1 X89.072 Y93.977
G1 X89.123 Y93.927
G1 X89.173 Y93.876
G1 X89.223 Y93.826
G1 X89.272 Y93.775
G1 X89.321 Y93.726
G1 X89.368 Y93.676
G1 X89.415 Y93.628
G1 X89.461 Y93.579
G1 X89.506 Y93.532
G1 X89.549 Y93.485
G1 X89.592 Y93.439
G1 X89.633 Y93.394
G1 X89.673 Y93.350
G1 X89.712 Y93.307
G1 X89.749 Y93.266
G1 X89.784 Y93.225
G1 X89.818 Y93.186
G1 X89.851 Y93.149
G1 X89.881 Y93.113
G1 X89.910 Y93.078
G1 X89.937 Y93.045
G1 X89.962 Y93.014
G1 X89.985 Y92.985
G1 X90.005 Y92.958
G1 X90.024 Y92.933
G1 X90.040 Y92.910
G1 X90.054 Y92.889
G1 X90.065 Y92.871
M5 ; Laser off
G0 X99.838 Y96.481 ; Move to path start
G1 F600 M3 S1000 ; Enable laser at power level
G1 X99.809 Y96.515
G1 X99.776 Y96.553
G1 X99.742 Y96.597
G1 X99.704 Y96.644
G1 X99.665 Y96.696
G1 X99.624 Y96.751
G1 X99.581 Y96.810
G1 X99.536 Y96.873
G1 X99.490 Y96.939
G1 X99.443 Y97.007
G1 X99.394 Y97.079
G1 X99.344 Y97.152
G1 X99.293 Y97.228
G1 X99.241 Y97.306
G1 X99.189 Y97.386
G1 X99.136 Y97.467
G1 X99.083 Y97.549
G1 X99.030 Y97.632
G1 X98.976 Y97.716
G1 X98.923 Y97.800
G1 X98.870 Y97.885
G1 X98.818 Y97.970
G1 X98.765 Y98.054
G1 X98.714 Y98.138
G1 X98.664 Y98.222
G1 X98.614 Y98.304
G1 X98.566 Y98.385
G1 X98.519 Y98.465
G1 X98.473 Y98.543
G1 X98.429 Y98.619
G1 X98.386 Y98.693
G1 X98.346 Y98.765
G1 X98.308 Y98.834
G1 X98.271 Y98.900
G1 X98.237 Y98.963
G1 X98.206 Y99.023
G1 X98.177 Y99.079
G1 X98.151 Y99.131
G1 X98.128 Y99.179
G1 X98.108 Y99.223
G1 X98.091 Y99.263
G1 X98.078 Y99.297
G1 X98.068 Y99.326
G1 X98.061 Y99.351
G1 X98.059 Y99.369
G1 X98.061 Y99.382
M5 ; Laser off
G0 X15.349 Y96.623 ; Move to path start
G1 F600 M3 S1000 ; Enable laser at power level
G1 X15.207 Y96.662
G1 X15.060 Y96.704
G1 X14.910 Y96.747
G1 X14.756 Y96.792
G1 X14.599 Y96.839
G1 X14.439 Y96.887
G1 X14.275 Y96.936
G1 X14.110 Y96.987
G1 X13.942 Y97.039
G1 X13.772 Y97.092
G1 X13.601 Y97.146
G1 X13.428 Y97.201
G1 X13.254 Y97.257
G1 X13.079 Y97.314
G1 X12.903 Y97.371
G1 X12.728 Y97.429
G1 X12.552 Y97.487
G1 X12.376 Y97.545
G1 X12.201 Y97.604
G1 X12.027 Y97.663
G1 X11.854 Y97.722
G1 X11.682 Y97.781
G1 X11.512 Y97.840
G1 X11.344 Y97.898
G1 X11.178 Y97.956
G1 X11.015 Y98.014
G1 X10.854 Y98.071
G1 X10.696 Y98.127
G1 X10.542 Y98.183
G1 X10.391 Y98.238
G1 X10.244 Y98.292
G1 X10.101 Y98.345
G1 X9.963 Y98.397
G1 X9.829 Y98.448
G1 X9.700 Y98.497
G1 X9.577 Y98.545
G1 X9.459 Y98.591
G1 X9.347 Y98.636
G1 X9.241 Y98.679
G1 X9.141 Y98.720
G1 X9.048 Y98.759
G1 X8.962 Y98.797
G1 X8.883 Y98.832
G1 X8.811 Y98.865
G1 X8.747 Y98.896
G1 X8.691 Y98.924
G1 X8.644 Y98.950
G1 X8.605 Y98.973
G1 X8.575 Y98.994
G1 X8.554 Y99.011
M5 ; Laser off
G0 X28.929 Y98.379 ; Move to path start
G1 F600 M3 S1000 ; Enable laser at power level
G1 X28.845 Y98.397
G1 X28.761 Y98.415
G1 X28.675 Y98.434
G1 X28.589 Y98.454
G1 X28.502 Y98.475
G1 X28.415 Y98.497
G1 X28.328 Y98.518
G1 X28.240 Y98.541
G1 X28.153 Y98.563
G1 X28.067 Y98.586
G1 X27.981 Y98.610
G1 X27.895 Y98.633
G1 X27.811 Y98.657
G1 X27.728 Y98.681
G1 X27.647 Y98.705
G1 X27.567 Y98.728
G1 X27.489 Y98.752
G1 X27.413 Y98.776
G1 X27.339 Y98.799
G1 X27.267 Y98.822
G1 X27.199 Y98.844
G1 X27.133 Y98.867
G1 X27.070 Y98.888
G1 X27.010 Y98.910
G1 X26.954 Y98.930
G1 X26.901 Y98.950
G1 X26.852 Y98.969
G1 X26.807 Y98.988
G1 X26.766 Y99.005
G1 X26.730 Y99.022
G1 X26.699 Y99.038
G1 X26.672 Y99.052
G1 X26.650 Y99.066
G1 X26.633 Y99.078
G1 X26.622 Y99.089
G1 X26.616 Y99.099
M5 ; Laser off
G0 X86.051 Y98.488 ; Move to path start
G1 F600 M3 S1000 ; Enable laser at power level
G1 X86.011 Y98.504
G1 X85.975 Y98.521
G1 X85.943 Y98.539
G1 X85.916 Y98.559
G1 X85.892 Y98.580
G1 X85.873 Y98.604
G1 X85.857 Y98.629
G1 X85.845 Y98.656
G1 X85.836 Y98.685
G1 X85.831 Y98.717
G1 X85.829 Y98.751
G1 X85.830 Y98.787
G1 X85.833 Y98.826
M5 ; Laser off
G0 X32.856 Y98.913 ; Move to path start
G1 F600 M3 S1000 ; Enable laser at power level
G1 X32.845 Y98.936
G1 X32.837 Y98.963
G1 X32.833 Y98.994
G1 X32.831 Y99.030
G1 X32.833 Y99.070
G1 X32.838 Y99.113
G1 X32.845 Y99.159
G1 X32.855 Y99.208
G1 X32.867 Y99.260
G1 X32.882 Y99.314
G1 X32.899 Y99.370
G1 X32.918 Y99.428
G1 X32.938 Y99.488
G1 X32.961 Y99.549
G1 X32.986 Y99.610
G1 X33.012 Y99.673
G1 X33.040 Y99.735
G1 X33.068 Y99.798
G1 X33.099 Y99.860
G1 X33.130 Y99.922
G1 X33.162 Y99.983
G1 X33.195 Y100.043
G1 X33.229 Y100.101
G1 X33.263 Y100.158
G1 X33.298 Y100.213
G1 X33.333 Y100.266
G1 X33.369 Y100.316
G1 X33.404 Y100.363
G1 X33.440 Y100.407
G1 X33.475 Y100.447
G1 X33.510 Y100.484
M5 ; Laser off
G0 X82.921 Y99.131 ; Move to path start
G1 F600 M3 S1000 ; Enable laser at power level
G1 X82.905 Y99.138
G1 X82.884 Y99.146
G1 X82.858 Y99.155
G1 X82.829 Y99.165
G1 X82.795 Y99.175
G1 X82.757 Y99.187
G1 X82.716 Y99.199
G1 X82.671 Y99.212
G1 X82.622 Y99.225
G1 X82.570 Y99.240
G1 X82.515 Y99.254
G1 X82.458 Y99.270
G1 X82.397 Y99.285
G1 X82.335 Y99.302
G1 X82.269 Y99.318
G1 X82.202 Y99.335
G1 X82.132 Y99.353
G1 X82.061 Y99.370
G1 X81.989 Y99.388
G1 X81.914 Y99.406
G1 X81.839 Y99.424
G1 X81.762 Y99.442
G1 X81.685 Y99.460
G1 X81.606 Y99.478
G1 X81.528 Y99.495
G1 X81.448 Y99.513
M5 ; Laser off
G0 X29.114 Y100.549 ; Move to path start
G1 F600 M3 S1000 ; Enable laser at power level
G1 X28.961 Y100.583
G1 X28.811 Y100.617
G1 X28.664 Y100.651
G1 X28.521 Y100.686
G1 X28.381 Y100.720
G1 X28.244 Y100.756
G1 X28.109 Y100.791
G1 X27.977 Y100.828
G1 X27.848 Y100.865
G1 X27.720 Y100.903
G1 X27.594 Y100.942
G1 X27.470 Y100.981
G1 X27.348 Y101.022
G1 X27.227 Y101.063
G1 X27.107 Y101.106
G1 X26.988 Y101.150
G1 X26.870 Y101.195
G1 X26.753 Y101.242
G1 X26.636 Y101.290
G1 X26.519 Y101.339
G1 X26.402 Y101.391
G1 X26.285 Y101.443
G1 X26.168 Y101.498
G1 X26.050 Y101.554
G1 X25.931 Y101.612
G1 X25.811 Y101.672
G1 X25.691 Y101.734
G1 X25.569 Y101.798
G1 X25.445 Y101.864
G1 X25.320 Y101.932
G1 X25.193 Y102.003
G1 X25.064 Y102.076
G1 X24.932 Y102.151
G1 X24.798 Y102.229
G1 X24.662 Y102.310
G1 X24.522 Y102.393
G1 X24.119 Y101.782
G1 X24.076 Y101.784
G1 X24.030 Y101.787
G1 X23.979 Y101.791
G1 X23.925 Y101.795
G1 X23.868 Y101.801
G1 X23.808 Y101.807
G1 X23.745 Y101.814
G1 X23.679 Y101.822
G1 X23.612 Y101.830
G1 X23.542 Y101.839
G1 X23.471 Y101.849
G1 X23.399 Y101.859
G1 X23.325 Y101.870
G1 X23.251 Y101.881
G1 X23.177 Y101.893
G1 X23.102 Y101.906
G1 X23.028 Y101.919
G1 X22.954 Y101.932
G1 X22.880 Y101.946
G1 X22.808 Y101.960
G1 X22.737 Y101.974
G1 X22.668 Y101.989
M5 ; Laser off
G0 X85.397 Y100.462 ; Move to path start
G1 F600 M3 S1000 ; Enable laser at power level
G1 X85.378 Y100.482
G1 X85.361 Y100.504
G1 X85.344 Y100.526
G1 X85.329 Y100.550
G1 X85.315 Y100.574
G1 X85.303 Y100.598
G1 X85.292 Y100.623
G1 X85.283 Y100.647
G1 X85.276 Y100.671
G1 X85.270 Y100.693
G1 X85.267 Y100.715
G1 X85.266 Y100.735
M5 ; Laser off
G0 X30.565 Y104.105 ; Move to path start
G1 F600 M3 S1000 ; Enable laser at power level
G1 X30.495 Y104.137
G1 X30.425 Y104.169
G1 X30.354 Y104.201
G1 X30.283 Y104.233
G1 X30.212 Y104.266
G1 X30.142 Y104.298
G1 X30.071 Y104.330
G1 X30.001 Y104.362
G1 X29.931 Y104.394
G1 X29.862 Y104.426
G1 X29.793 Y104.457
G1 X29.726 Y104.488
G1 X29.659 Y104.518
G1 X29.593 Y104.548
G1 X29.529 Y104.578
G1 X29.466 Y104.606
G1 X29.404 Y104.634
G1 X29.344 Y104.662
G1 X29.286 Y104.688
G1 X29.230 Y104.714
G1 X29.175 Y104.739
G1 X29.123 Y104.763
G1 X29.072 Y104.785
G1 X29.025 Y104.807
G1 X28.979 Y104.828
G1 X28.936 Y104.847
G1 X28.896 Y104.865
G1 X28.859 Y104.882
G1 X28.824 Y104.897
G1 X28.793 Y104.911
G1 X28.765 Y104.923
M5 ; Laser off
G0 X49.031 Y103.658 ; Move to path start
G1 F600 M3 S1000 ; Enable laser at power level
G1 X49.022 Y103.665
G1 X49.006 Y103.673
G1 X48.985 Y103.682
G1 X48.959 Y103.691
G1 X48.928 Y103.701
G1 X48.891 Y103.711
G1 X48.850 Y103.722
G1 X48.803 Y103.734
G1 X48.752 Y103.746
G1 X48.696 Y103.759
G1 X48.635 Y103.772
G1 X48.570 Y103.785
G1 X48.501 Y103.799
G1 X48.427 Y103.814
G1 X48.349 Y103.829
G1 X48.267 Y103.844
G1 X48.180 Y103.860
G1 X48.090 Y103.876
G1 X47.997 Y103.892
G1 X47.899 Y103.909
G1 X47.798 Y103.926
G1 X47.693 Y103.944
G1 X47.585 Y103.961
G1 X47.474 Y103.979
G1 X47.360 Y103.997
G1 X47.242 Y104.016
G1 X47.122 Y104.034
G1 X46.999 Y104.053
G1 X46.873 Y104.072
G1 X46.744 Y104.091
G1 X46.613 Y104.111
G1 X46.479 Y104.130
G1 X46.343 Y104.149
G1 X46.205 Y104.169
G1 X46.065 Y104.188
G1 X45.923 Y104.208
G1 X45.778 Y104.228
G1 X45.632 Y104.247
G1 X45.485 Y104.267
G1 X45.335 Y104.287
G1 X45.185 Y104.306
G1 X45.032 Y104.326
G1 X44.879 Y104.345
G1 X44.724 Y104.364
G1 X44.568 Y104.384
G1 X44.411 Y104.403
G1 X44.254 Y104.422
M5 ; Laser off
G0 X67.225 Y103.800 ; Move to path start
G1 F600 M3 S1000 ; Enable laser at power level
G1 X67.217 Y103.814
G1 X67.210 Y103.829
G1 X67.205 Y103.843
G1 X67.203 Y103.857
G1 X67.202 Y103.871
G1 X67.203 Y103.885
G1 X67.207 Y103.900
G1 X67.214 Y103.915
G1 X67.224 Y103.931
G1 X67.236 Y103.948
G1 X67.252 Y103.965
G1 X67.270 Y103.983
G1 X67.293 Y104.003
G1 X67.318 Y104.024
G1 X67.348 Y104.046
G1 X67.382 Y104.069
G1 X67.419 Y104.094
G1 X67.461 Y104.121
G1 X67.508 Y104.149
G1 X67.558 Y104.180
G1 X67.614 Y104.213
G1 X67.675 Y104.247
G1 X67.740 Y104.285
G1 X67.811 Y104.324
G1 X67.888 Y104.366
G1 X67.970 Y104.411
G1 X68.057 Y104.459
G1 X68.151 Y104.510
G1 X68.250 Y104.563
M5 ; Laser off
G0 X83.521 Y103.920 ; Move to path start
G1 F600 M3 S1000 ; Enable laser at power level
G1 X83.520 Y103.929
G1 X83.516 Y103.941
G1 X83.510 Y103.956
G1 X83.503 Y103.973
G1 X83.493 Y103.993
G1 X83.481 Y104.014
G1 X83.467 Y104.038
G1 X83.451 Y104.064
G1 X83.433 Y104.091
G1 X83.414 Y104.121
G1 X83.393 Y104.152
G1 X83.371 Y104.184
G1 X83.347 Y104.218
G1 X83.322 Y104.254
G1 X83.295 Y104.291
G1 X83.267 Y104.329
G1 X83.238 Y104.368
G1 X83.208 Y104.408
G1 X83.177 Y104.448
G1 X83.145 Y104.490
G1 X83.112 Y104.532
G1 X83.078 Y104.575
G1 X83.043 Y104.618
G1 X83.008 Y104.662
M5 ; Laser off

; End of engraving
M5 ; Laser off
G0 X0 Y0 ; Return to origin
